-----BEGIN PGP PUBLIC KEY BLOCK-----
Comment: 1D73 08B0 055F 5AEF 3694  4A8F 27A9 C24D 9588 EA0F
Comment: Aveen Ismail <aveen.ismail@yubico.com>

xsFNBFt0NG0BEAC0oU+vBj0VLB1LSmoqYO26esNXEC2nrMYthsbe/XkFLUJGlLi4
LoN8RDGZHUd4XMA2Ru3jG5t5M9olPOx8GeWpwOtVWOQEbi5UzSE7qGtVDI2duYm8
6rNfviwKsJ39yIJMXRqyzytxMN2GXK9oCuxhLVUpdTjAbVOq9Ojiza99dvpny7DH
6j9R+Chs/CufYDODABmCVwUxcz0C/g4VqymbZKv/2bq/llSE+qaNIyEUDD/6Qoz7
4+GDgBEafj3izQiLSW8Ho8Db9jgmwPYLNdJR7MWHQwloQgTCsg6zjZPX9dzCPPzV
AY038RbH53+6C5ZqarnPg5DznIp9LCW6rx8EH1qyvgXHSqi3rQflJoLPSzjPPGfN
GQLWtYCIThOWCkAQqF/QZ4ldcTbPIO3bQvNjM6li+T2FYzZ5jzT2A11AjwaVfC59
49pQ0TB2JxMyxIrN+9i403ES06vq2LXtDyqOoUx2ADlC3eIMsTGiK6iKkDW+nFoZ
gSXtCRynAywhemwZIfXSxhv3xlfTiuvvevZ/2Kdiw5OhWv3LTs6Yu7thN/FqM79S
0tNMdtdHDFHLZ1AvTzStjYkfb/6TgJ+CqhqDQBU2B32h5xQcUYE7XSHZi3GDSnsz
xa1rpQRc6oGOsHvtmo7Geffz46B96kDIjG8NkvPL6x3WpAD7EGijlp6AdQARAQAB
zSZBdmVlbiBJc21haWwgPGF2ZWVuLmlzbWFpbEB5dWJpY28uY29tPsLBlAQTAQgA
PgIbAQULCQgHAgYVCgkICwIEFgIDAQIeAQIXgBYhBB1zCLAFX1rvNpRKjyepwk2V
iOoPBQJqQinYBQkQryjrAAoJECepwk2ViOoPnWkQAIZ4qKkq397kA4rTnqCMlLxR
QxwKfRqSw9mdZSFDsDnE9KPhUBbnzDv8zv0ZLMyg5Jfhvn/hc81PsfOoE2mNg4+2
6Q72Ai1vA7mLHMSZAAwo1fYtrf2b2FOAHNS/7rp0dQ9s+AlhFxVZJeIWQuJJJPHu
MZXyctTP8BqtZ8c5i69a8kVUNMP9p29fYC+TdTWwdUit55ABMRwdDJ6q5Dqtx2uG
jerrXmAFYXAarXOT7KgFYbaQcGr0i2UyxBD6QNDexFoSPAvLxoZvIHM00iXcNpaG
mUp9u3aNvpT6Rs6cJCPpUf4m0uC/spc0pFonSc2waiUnX8/6L0Kmke+9ztObfHAg
UmpLhTyqs4EJgmyTq1r5uc6KDs4RkaU44DW/bpHEzJZ1APicwrS3cd3g6n1TaudU
k0wOl8Xn5/hZod+rnrlHAvSe5SWGNzWgY3s2noC5VxC8wltZ8Lrw7oWmegfKZakh
Hug0PEU9VSBUHynjHCyoKJyPozbHHfa4ty21+88QWzT2lzYF59DiU5SHB0eUEMMf
rY9hkzTfNmwHqM1tdt8EIlX65byYgBLuEZ+S1maE9u7fOipkkG3x7gild8UDJyKK
b382oy8x+CBiOWU0hRrpPrnIY5Quk59+KC3C+vUrs7tqJ02j6nk+lW4pDKsaxVBp
sCnJLbXrp/Dj9BrpBB2swsGUBBMBCAA+AhsBBQsJCAcCBhUKCQgLAgQWAgMBAh4B
AheAFiEEHXMIsAVfWu82lEqPJ6nCTZWI6g8FAmhgJg4FCQ7NJSEACgkQJ6nCTZWI
6g8RRBAAla8zdAmXjfIkNUEXgZ+oGnVEYe0CFTazKLvKmJUI26EbrscCiwj4JCG3
7brt0ZkrsY8tYrCx838nQT/8+EVMM5ip9yjlXpP0pDrcDWe3E50tbPI/M8N1KP8S
DIiDK0LCrvHl7NT1hoQpxa1ICnEfDSoFz20EZCEq00hKTOC2w9CXTfrNe/z0bn8I
jB9EkQ9ROFc3oVMXYOUAA9roJ1BYIgFUIGULM5YrtQB3Nw2bq+pAkr7ks/EBWi2F
sO/7opBLnVWuRuPUk4HqLeNwATqKBGVemlrjXNAgzBP3WJkjiM/n2Ji1TLQoPX8w
Ej3+rb395jH9SHRZYCyN0ApvoDs7hD5eHdZxNserG0Qal1MlXLcWjdmasYmzdW+p
X880zdyMcK/K2z3WCJD22OgovdEuXKhCJywIsJjUkTeb732TeqUUjYFKMYJIGQ/E
zxp9pEWXI+TtpQwDG9AyxEpliH49YZBxi5r7mx/Q/s4KpOH7lfg2PkLO7pjrI8zr
XAie6VzxF693yxsGgCwn9985yhoTEM1uhdKHKFtUWkFnw5/FuWwqTrJO+iKInRLc
Voj1mi4KZVVN26y/09R6vj62LPCt8WQoKzmvv93ziSlCwMzK1mSbitFe0J2uLYUJ
D66n0cxx6TI0hUA3UOtm+UNdipMxGgn953pVYTjJlyx5eXfugmDCwZQEEwEIAD4C
GwEFCwkIBwIGFQoJCAsCBBYCAwECHgECF4AWIQQdcwiwBV9a7zaUSo8nqcJNlYjq
DwUCZoJY5QUJDO9X+AAKCRAnqcJNlYjqD/4KD/4rwBydVAMqb9WNRfEfBfvpyfVP
Yq5pIqOqb6ThjTJyWctQG/mAgYYKxwzJt5PS6K9X37LHKP/TedYlYKJd6hHmGGjv
J7mwvm2euB9TJHhsV1yuXowwjpC0fwVosTHOwWPC94adBuavz/HGuQn06pWH12FY
e+XBswsFHx0WQAe8H5AfqOO4X51HbUZ3HbU2nyt+NKrcMufhphJu5TTKKGiHBrub
2OA/ry6hBW02GW82m7sqfeYmSOTX0mGJeiZPnp6z1aT8QtmB1yFbKE8hXzPsoYLa
UHabpFT1VB0hfvcZGovqvAk7A6OryCv5AiY185cdv7+uK9LC1/qIzB2aNwnJC9wr
kfjLZqqvZWIHNd4pyzEy+ty+p727oRXN2xeRhIWfnsRy+5xhmgHcRkltSCP3sXwM
+suavbGsyCQni2jEJzPxVkI/dGsGCK5lpWvOog0Qbt3Kck4HDgjNfH0MLScwoZJv
AIA7cC5cTmmAzufCdcHf1L2NBFSCUZwCPuAyNCKuaDtkuwPnkk9U+O5X7B3DCxXS
D2Yu/ZDEzxDCnT/U59tmPeo2izJxymJCMWyHQL1B2v7IOUE87oOiS/QJnoOrism6
jL+5Y1180w7td36xeXoIKfd2eXyHTfw4DS1+kAviFa49mo+e4jjT+jGTWWvaNfe1
99I1egLvF22dcIOMZ8LBlAQTAQgAPgIbAQULCQgHAgYVCgkICwIEFgIDAQIeAQIX
gBYhBB1zCLAFX1rvNpRKjyepwk2ViOoPBQJkp/4CBQkLFP0VAAoJECepwk2ViOoP
bsUP/3Vooq52l9ry70y5r1pgt0EJwXEOG0B4ZWL3moKNK6qtgfuDpyfkbTgHFi6g
Y+7O8B5rEXJKqeKNilGWGboFPSUR4Hou6aUyMsY9J3hRQ+ZFEoSsNZnw5V8xOq6g
ALnqmczNtHRQtXVGkQCdHVltE1nvgJAXhXWJ3meIeVtnyswMqMz6ayz8oto8SX/H
yHdSfFentFHcqd0XQtfRSZcKtESkazUgNQOZpUMxpM4e4LBygul3cbwOT9YUI6YS
gz8JN4+4C99kbra1qixeK6TGDWz3fPxHG+iIGhSse80QphBPW0JbpJb3KR0hr3pn
UGL2R+N3vgIirP/PQ8/qAvtHamPuSZXp2IA0HeIF22IOMyuNuTCz7DYUDTthJTZD
45ajq3J0kjE42DSdCRZ1BCxY0rr4D+lxcUo5w3AJwOwOYW/NLST/m6/YowFkB9cG
+Ctg1R1uw/ZGOmigBTQHV9Y8uQuo23Izu8EQwDgbYyRoXC1p2M3YkYFXmsSe6Z/6
VPaGi9x34XxFOLeGOUjqsIbZ3ZmkwbsOkD7aQwTGxJT+M9vvbrV9maV42lHNnop6
Ak/hthhjug2QdXCh6o7YkEICn+Lg3GU/nwfkdSewYXIrAn9WdczlkpFwQDGM/pT9
yj31WQaPq0eqw+tmltHtKmZS5dGaGGzPZzgg2/fE0OOCyeaMwsGUBBMBCAA+AhsB
BQsJCAcCBhUKCQgLAgQWAgMBAh4BAheAFiEEHXMIsAVfWu82lEqPJ6nCTZWI6g8F
AmLJ6+gFCQk26vsACgkQJ6nCTZWI6g8GCQ/8DcZmw1iNpYRH/IjCH3UnCm7x3Mq4
4ocdxfQq4RGZdN/AvIsKF/Ngq6VebzFqh9cRsj6+5nR+sLJ2hEbBRYY6wA87zRYh
3OzYsg0SkfFpH9RtpPcjzpSaT40o0UFKHUrsqr8TKWQ3eo9PmEaIB6nJah9nMG5j
fkmiFoUh3SvJiBJHl1WCNeWCk49jyDzE5PzD7dKLbFMI+FBgdON0zd4U5snKBWYH
jJyK3C1oBqwuLMG8yROX4ZXhhpWa2iBEdSXayUFZpghth51o3M7e7iFDsvF5cmef
KMgBFu2A4GETCZh3zcyulMRNGOe+HQWIlZyvVvvPPwKGColV020bK7MdsthV/Oi/
YcWZYSyyxRoGd9+Y6XWTYzRnGBeEurnFtxVuakpj7Gw0fhwROfeCNGEZnVNTjgEl
P/D/ddjlC6wv+bv9RP89ypnoN02o5+UH2iFDPPBbJF9wx1ExkKDybd+t+dqhi/3n
iG25bZ3qIUri1z7a7Ec/ooR7YmbJSGe51tBDmwoMZwF0XNA4PZsOqOgp9eQo1+a8
R0n0fYbN3sNm93QJh/NVUSt9ls6pchIjuxLBNZP+rnkteBPzQJ/UbS39FRrr7aIC
hWWITfEImrK3/onoQs0MHHUqVnLNdUn1ePOeryvV2/Iec1FWxk0JQF9+836Xsi/u
nowiccLOPN2dLfrCwZQEEwEIAD4CGwEFCwkIBwIGFQoJCAsCBBYCAwECHgECF4AW
IQQdcwiwBV9a7zaUSo8nqcJNlYjqDwUCYO9AmQUJB1w/rAAKCRAnqcJNlYjqD+lU
D/9mD4Nv1dhqDPkVwUnTDcQXCOqwaDfJDfHgYSOpS1SKS8UWbwmsGilgxAK4pMbD
XM20xe4+SvIGfWlNJPczAVyZOIMu4ZDokGV4HxEYUVZqQh1GKaJCES7je7tscS7M
V3dY/4YSS/PqaAeJwEHJk4AKGw6LaFC0zyKGWfjPlJlcLZbkxc4jIipiezfTKUVV
W/sXPqpFlMGylEpcL4TVQYF6IRdGpuQ9Q6FYLsszLFGNbdvFVZsiFAcIAz8dX3uV
x0HyGQxleapp79UuMOE0OMHESoKKWTdKfxKzM0rEas3cFU4mZU+Vv+KDLzubwGqM
9pXeL+EOUPUJh/tA7ScJbFQffLOqKt29WPStWY9y+Eof7UIQxIJ1Zn+Jl6E7+oRJ
b4QtuoixmTuul4YveBlA266Tuk8o8r1nGHe/7K/q+/DsPA6XFAsjaY13BGDSNFqf
2/y7D9hFm/UoK7aeI/NE/gCl2H3v4so3Td5d2+AfV+uHGgQw2p5rjzZIjFAO1EkH
Q9XS5XeKlUUn1hOW7kmoDclPvfR7oID6bgYiCgUQwfIcYcvkv3SpHbLBTACgYw8+
PZFMh8F/1gsOg3hg65E8YRbS8Jafi4MgM/Intjevopk4PFH7ivh9+e4aFYfnq1gk
2tlVTOFHUKg9J0ZJb/P78MDw78kMFjOaIx3O136j+Cs7I8LBlAQTAQgAPgIbAQUL
CQgHAgYVCgkICwIEFgIDAQIeAQIXgBYhBB1zCLAFX1rvNpRKjyepwk2ViOoPBQJf
DqZIBQkFe6VbAAoJECepwk2ViOoPwGEP/A5WJlg7U+xMb4kkUFhuz4CDtW6z0J/6
zHt6vjtq4KiGLRGW/aA1cDx3gxxFOFaVMklrll/jp7ZMO35qCqcQg6vXzmpk5VJ6
LXToguw1k+LBV1tQTUKgfJhwFE2NabLUbXnK/T4iPclr5ZxeMMb3FCHWNqyprqjn
LMPa2PBwPGMWZnQhJszhIPaIj34XIVfHtF+RhWjgb6AWWdpBkJlYAKwBld6B1Z+V
fLdq6tSMjpDuQkR3F0QE914wcw6i3GgrvW/ADZ6mCTAlzopNsMCgXIo0y9YqXvab
sLPwSrjlWF8B8Lc7IOVQMVcDWi7cSFMcE6ToZCHqNT6EQxyaAZFtMR8IHusn+0fJ
UZAlvg9UMkedqB16mO898b8Aw7N+lc3AgkNLuIG6cwyB/bnX9CEQw7lEdLwz9Kax
bqU1zzbpc51EgMQgpq+wJxIYw+E1xHYNPnl9egotr7EZ+wLV10w9oZeppnrPYb00
avXwlTJ88UYSixeXicduMLmFwB8gF4NYDzPVZRtiSNjwO2uf3RdRLW0YQcuF4lrn
Hl6g2NKVb3SL3+rmrntmxSS7bLYexUCVgBBE4Xd+J/LMHefvGjHJgp9GaDtbPDP1
0oRV7bS2+rucIKyY3ZqZshUNO9zgJHtGURLNieMuJHela8CZo4TEGTRG1XDF8xhO
NxhpHQP2lHMwwsGUBBMBCgA+AhsBBQsJCAcCBhUKCQgLAgQWAgMBAh4BAheAFiEE
HXMIsAVfWu82lEqPJ6nCTZWI6g8FAl0//wUFCQOs/hgACgkQJ6nCTZWI6g/d0Q//
RedNr05ZZNoNoM06MTeEpCQ3nHLdmxRv9B8eAnUDqPtgEW2xIGuYhrB/g6NasBxz
0RNjO6XbqtY+XfHWWfKkrtGXSFuWezZOHSl5nCzVkxrt6c7vPrKpmUnMqK4CywXA
YLfKIirqGONNFSl3G4KVNUb68VbH6DbPFLT6veSmkSbR7Q2iUsgQ3Iae2BuQrH+X
iK6umSEQd6cELxDXv1QJ63PyVkvarGkF2qwWmshH2FpT6Pkiz5hoAnKiGmsRFB9o
Lxy3eeD4hTa3wdYuiE/qNQ5MT8E7qvWNrSTQW3D9UwA4REO/1v7jf2M08iUJwE/O
LKOacNlgCP1kyz31E5zyo3FPe5QhVAJ4Av6qitQXT9hEVf9wMG7yQv0J5PIeGkpY
00ScpOuhX9zqXs72MnvHlU+jHHL3MpC7Ch/41YIf5BqtUWJw8aKXuZuAggYXpz7b
eJnHdg04DuZbxhXbsfYIezlumAL+YNBQ6TX04lKZV6zESkT5hxmqR8z0sJ64bA0G
bBc1/+4s8oJG8uR2Wd3/OgruXrY6al1t52Vw2DGu3ec0eZ3B3KEFhcTr0uq8rOdQ
gV7vc03Tlo2+KWdJ8OE1/Z43DCLqOPVlEc8pXKBzqQLkDHRVNOBxZXXsCv+MbGOQ
eZKZfHMnR5FzG1sZ4n6ArR7hnyyr1jnjw2utjLTdJgTCwZQEEwEKAD4WIQQdcwiw
BV9a7zaUSo8nqcJNlYjqDwUCW3Q0bQIbAQUJAeEzgAULCQgHAgYVCgkICwIEFgID
AQIeAQIXgAAKCRAnqcJNlYjqD9xwD/9lAzNH6M2CX04TJTyup9eD5wMCTmnniERS
f/JbUek1mLLr7cLCFa18wxkIEc+whJz50OQNnTfPBAo63pXOsFARG/TReWHT5XKN
yG55ak5z/xPkJiN978iet5RfmQEwrFRnOFUEM/XhdapuKTvHjpYr/4r1ZPNGrWgE
2hAZvi4grsFkdPGrtHNIPPjLj31bKhzvDLQ/b0DokjSKwNNNM40DVceicYt0g+B0
ze3uanERZUkVQU9PRh4NR+7yh7oNYM8Zfws1JgZqISDSyR2+dqbTuLQ8h8kAcxbp
352+xElluoLUcIp+IRv3AmkWDqRC2QIlC7XJQpDSWbyQjabI3FJiCWAaAxVb59OB
Ry0UUU9Ma2g6pb2NbI7p4GtSYVHRFCRMlq7MaZhEx4ll3KYwygjo4pQ8gmkk8woL
xkixzULG78mDes31aq0/yIkuLiA3ObfoD414yk5c2HkCykh9bFWVZwZL18ZZkfbj
osnSKiJ8ozOXYHlG3lgqRsK9piRQeu6Ojf3xXNnCldsGUH+FI0lBTRxihToSs6AJ
7cR7sJ7NKu5F2Yazf0O7KwZampPc+wmp35MYh6uUKxqb9+EWYYv2Yd7oJiR6z2Bp
RO+hvUcsKYNc7c5X/VwakGIij3Vg4Rxl48SybNS7nwd7qS8Xxdp+JzA90X4NRZ19
IVvHwWOWNc7ATQRbdEaNAQgAqBapTmJjnBe9R2wt8syEwna9FQB8XXu2XzjPVANy
AatcqchA0za46LFaf4iSwuoNDOazi9luCfiTQjr9ZuEVtKB7qluGJbTtt5EoOEVu
KAwWQmK4tLGo6MiOAASZxq6JDopyFU6wnIMpCkA4adfCruaerY77br/J2ZS1aHfZ
uS7DNqA/HNvT/JOoQ+Y43FzN5au/aWOYa7EOZJ8oE1mmSWT8UouKSrAswZc6gBO7
lkP+Ug5iuWE0cOOuC7GVn+rl5RdzJNZkftSwheEy57nRimbJIrvK7ZCbK4isar2n
xTwiYDCnDpqz+w/m/D00pbVxNo8UqLkhnwpr+KQnHg+yEQARAQABwsKyBBgBCAAm
AhsCFiEEHXMIsAVfWu82lEqPJ6nCTZWI6g8FAmpCKZMFCRCvFoEBQAkQJ6nCTZWI
6g/AdCAEGQEKAB0WIQTQjtJ45VKdgyoDl6DKwXS4nI/DpQUCW3RGjQAKCRDKwXS4
nI/Dpf0zB/91xWUQCiaA3Eceib7fDStyjlZfcJFe1x6vmV9iXd8g5lcVjc+OYCZ3
DG2BekEhGz4jaeeB8j9nbbvnfaL7z6N2j+6NnPA3ksdyvb8WzevQucuSTvIzg49E
kmRki3j5NzhjSmnKQ5tGrJ+nv4CwBWzLnWBMklkxbl1sjAynt1kpvwGTYlIldRyJ
R8QcXjWBg9VePnvLksyO77Tp8lj40eKXS9Gdsk+vImqX3aJWwTmHSdbX13EsQrYw
BC5R3losZ+TpI/8gnG8yhfFr9GCj3820OIjkQr4E7+qIhF5PkRjLZPIv6dr/A7s7
tnYdhi7K1mQ/rHr1oMZDRisF7iKUvJ2DUzIP/RD+MTpsYagQCMUbp3F7qBszqTFF
jMoelkifgpyGbvzqphYnDd3hfgTdYcaTG756fUjg4NoWBtAf7CBLY0h9iThzsbbs
m9WQdKq8s6ejiUKAJ6T51Sfnm34YqCD4beVK+OaBvg6daUZ0zZvJ+bu/AXrI16sX
RNHvrS6k6917Qsocp7KrhQ/uovEEKXLTbfO/jBgrUECzg3EAhx6XrZoNCLO4R2ip
digoLxxMf66LAyirETO+sUVgpRyrmKHgQpcN7li0JB1rl5HW23ZCtWTCOhoYtNX5
WTvAOEFVYiDTryLayH4Qt9D2Hf0XZCm6/hzDX52U3o7W/xpib/umpHCStBs8SQrZ
xMGWKoxjKN/MNXdni169hKeWXsmDxpTBJwXxVy+VDgSezIr534fRsdHkAVnz2CJS
qfdkmwO6PnWsyeqzdA/D4dQmaOoKJnUh+YtroaDe0WPdUDL4JUfu6IM57ZMviUih
Yo12bJsYaoXtcZtdIuqEyCwvPkx/j4o27yJUZyoyRRjllieJT2fzDUfKSLWqNWdh
MvwXqsYi38PIjVrzmuBCEc4DbrztIOy2HI1yYLexnDZSXRraI/wdDcDU45BsIgNX
YAC+JT2P/xrriy210fOETnlcliDtirnPsWltgt54Qb7KByJs+nFsZkxf+HCBPrYS
RKrFUu7a9/af13znwsKyBBgBCAAmAhsCFiEEHXMIsAVfWu82lEqPJ6nCTZWI6g8F
AmhgJ1QFCQ7NFDoBQAkQJ6nCTZWI6g/AdCAEGQEKAB0WIQTQjtJ45VKdgyoDl6DK
wXS4nI/DpQUCW3RGjQAKCRDKwXS4nI/Dpf0zB/91xWUQCiaA3Eceib7fDStyjlZf
cJFe1x6vmV9iXd8g5lcVjc+OYCZ3DG2BekEhGz4jaeeB8j9nbbvnfaL7z6N2j+6N
nPA3ksdyvb8WzevQucuSTvIzg49EkmRki3j5NzhjSmnKQ5tGrJ+nv4CwBWzLnWBM
klkxbl1sjAynt1kpvwGTYlIldRyJR8QcXjWBg9VePnvLksyO77Tp8lj40eKXS9Gd
sk+vImqX3aJWwTmHSdbX13EsQrYwBC5R3losZ+TpI/8gnG8yhfFr9GCj3820OIjk
Qr4E7+qIhF5PkRjLZPIv6dr/A7s7tnYdhi7K1mQ/rHr1oMZDRisF7iKUvJ2D30QP
/3PeW+N3vwRMCzLygVvATlkZvYAEDjA/r0kR/dznnvvuMjxQ/fjKeTyYP3Z5He+h
4TIhz1YWvLESE5OXt7l+85IHlh9LUTw39VZy95hyHyfxRcUQERkGnIxie13E+kFO
AYvHKdBDrxmOHzgAWVzLo8uG5CvaJ0k1JDC4KiwwJwDyGwRdZ9X/FR+Z5h83U8ts
XwFksTizlh7SYY819yCNDgNZ+Vtj8Ndr0iMHA2IMzNQGXHpsk2e2GO1qFD4dGwTK
HsO+QtjaQrHuDj8/E+E43N/mYsiqHdcJQiSfmUMYH7ogBzQzeq4I9lkFtjUsTPV6
rLTgH2uT9eA0CodJ0PNdBp5j118XGZcaZI1FF7Cco08iW4QtjfMU1Jw/xJtc1suV
eN0dx7j1USimPCDnXQS3djYGLP/dH4fhzt+SepnAnAd2wCPjBF9uTvIzMxZjScXi
1Fz5r03+EgYimYkf5nRAEAJqN/bLxzyFEVywZ/PY3aHYIaYxKy/caYnXWDXknueS
qxg6bqF7/r/s8FODyoZ5c6hF3cs3819gFlrMroeoz0/1o1FZOGMecPdSvCr+DFDp
t3HsZHmHgcz1aenC7H4y/8PWZR1XhOjbAqpqmDyX9NaMWhA6+9iby9xaaA+yABl3
vFhMHx0HGJ/QLp+Bvvmf/Rizu+F3MyZbLwSbLdJwRmM/wsKyBBgBCAAmAhsCFiEE
HXMIsAVfWu82lEqPJ6nCTZWI6g8FAmaCWjYFCQzvRyYBQAkQJ6nCTZWI6g/AdCAE
GQEKAB0WIQTQjtJ45VKdgyoDl6DKwXS4nI/DpQUCW3RGjQAKCRDKwXS4nI/Dpf0z
B/91xWUQCiaA3Eceib7fDStyjlZfcJFe1x6vmV9iXd8g5lcVjc+OYCZ3DG2BekEh
Gz4jaeeB8j9nbbvnfaL7z6N2j+6NnPA3ksdyvb8WzevQucuSTvIzg49EkmRki3j5
NzhjSmnKQ5tGrJ+nv4CwBWzLnWBMklkxbl1sjAynt1kpvwGTYlIldRyJR8QcXjWB
g9VePnvLksyO77Tp8lj40eKXS9Gdsk+vImqX3aJWwTmHSdbX13EsQrYwBC5R3los
Z+TpI/8gnG8yhfFr9GCj3820OIjkQr4E7+qIhF5PkRjLZPIv6dr/A7s7tnYdhi7K
1mQ/rHr1oMZDRisF7iKUvJ2D0hoP/j8Nvr8wvsZsMIyF8TXN1Zgh3ju63Eea+UUG
KxD0eS6d7q89F6C77oEusaiNc4CuPBBVXBhLKgkHybr92uHz0UNq1L9geV74BDme
R+Kj15q4aqtQypUotJ7Xs1uebq+2Dw/v7+GKSEkulJnALf8UdwsTlakcFHXSkG14
jzo38N1DZJ0e77RMFcWDkVSD/jOQxCthGXyeBIxIN67EQSqFJV6Xrzpev4ji1j+p
CpQf/fBujUTOz6siEC8O3POtdL6fm3IljVURNE764UzxY8GJ7ZP79sFdHDa3C8jN
Ot0Tj3YHHB5RTgUtCeC47vRW9pXcqEZ1tzZdtFQ6X0wgkHHUsr+ZDI5dmqQ+2XLC
jkrcJFo1bgUYZ3+RJQbWTx799Ez4rEKc2P6i80URu3OkiwVBzUO/ifw75+c8vCd6
wG/A+wxQdccVn1En6ytICj/9uFWLuPa/qUY2ldNIHxnmQhALAlDlkTm9aOJuYYEe
IWIFEgYDJVSI6NUABXOx2+JgWhnqFT8OcQzoVFkQdvV+6ICB9u17rTCbEYtMwMFL
OZsqEf1OGnxHYX0l8CVlWF3YFqdMfs9H247+nSvSmhlJeYGmMSKu6MasQE4z0AIR
mPK4KvzUb2bWPoHp2dq8QtAOP+goDf+Lsenw2w03lMLxSEw9Hq4J2+Ndo7ZDNgeZ
GnbEVBiBwsKyBBgBCAAmAhsCFiEEHXMIsAVfWu82lEqPJ6nCTZWI6g8FAmSn/cUF
CQsU6rQBQAkQJ6nCTZWI6g/AdCAEGQEKAB0WIQTQjtJ45VKdgyoDl6DKwXS4nI/D
pQUCW3RGjQAKCRDKwXS4nI/Dpf0zB/91xWUQCiaA3Eceib7fDStyjlZfcJFe1x6v
mV9iXd8g5lcVjc+OYCZ3DG2BekEhGz4jaeeB8j9nbbvnfaL7z6N2j+6NnPA3ksdy
vb8WzevQucuSTvIzg49EkmRki3j5NzhjSmnKQ5tGrJ+nv4CwBWzLnWBMklkxbl1s
jAynt1kpvwGTYlIldRyJR8QcXjWBg9VePnvLksyO77Tp8lj40eKXS9Gdsk+vImqX
3aJWwTmHSdbX13EsQrYwBC5R3losZ+TpI/8gnG8yhfFr9GCj3820OIjkQr4E7+qI
hF5PkRjLZPIv6dr/A7s7tnYdhi7K1mQ/rHr1oMZDRisF7iKUvJ2D848QAKkHIiK1
T0aYB4lZHgSNlggszM4cqyFMKUQ3Jjfq+iC+EVhP0/gKq7IwVzm1db9ySs3C685W
dLY4fKv11cdgyfU6NNMBI0ig5A13MNxYPx0Vi/vLP6kwgogTr52cybp0dUPKAldQ
n6pllnVm7rz4a+Pw+ijefenFqPfLMZHT2FzDORM7SY+7PccEmP0FM/tPWIB1xdQx
a6ZkU/D7NyiKZDb74s+POpNI3hE5zVEDEriA8HWMaZMbqqz1jyXvXKwCxRw9oQn2
nOUioRDV4++C6R6QM349eg+g1wRjDBFqsVsELqSFDgMMxXJim/lNQcolgV6rMUbe
itv6ZJao9G9INHOV+oxlmE+K4VYI8AWuHlb/bPp2fipHEDM1JhvruruGhs2qdLtB
RAMqrwnv6EppbzoSMVr7ZxBVI1xRB1oWSwjjhkQVg+jBuy3zT5xYELECvUYik+bz
yZLxTZSl3v6RHmS24DGo+Hg9VGkv0//IcKlCa97X5+3RBP/W4v2m4LCIFpA3Lr0D
Jl5Y4nWTvEVrgkT6541HfCrPrwLi2/1pVYmZ8+r3kzXyBm81LWMRghYIFvi1wMC1
75quicHv8oideU4ZPO+cM2XvoDMBC8GmZ++ts8B9wd8UNDfyWKlAMgNNsGWkvLMf
l44aH/+sah9UW2uKEggz0s/UwmNGHKkcrhVCwsKyBBgBCAAmAhsCFiEEHXMIsAVf
Wu82lEqPJ6nCTZWI6g8FAmLJ7cYFCQk22rUBQAkQJ6nCTZWI6g/AdCAEGQEKAB0W
IQTQjtJ45VKdgyoDl6DKwXS4nI/DpQUCW3RGjQAKCRDKwXS4nI/Dpf0zB/91xWUQ
CiaA3Eceib7fDStyjlZfcJFe1x6vmV9iXd8g5lcVjc+OYCZ3DG2BekEhGz4jaeeB
8j9nbbvnfaL7z6N2j+6NnPA3ksdyvb8WzevQucuSTvIzg49EkmRki3j5NzhjSmnK
Q5tGrJ+nv4CwBWzLnWBMklkxbl1sjAynt1kpvwGTYlIldRyJR8QcXjWBg9VePnvL
ksyO77Tp8lj40eKXS9Gdsk+vImqX3aJWwTmHSdbX13EsQrYwBC5R3losZ+TpI/8g
nG8yhfFr9GCj3820OIjkQr4E7+qIhF5PkRjLZPIv6dr/A7s7tnYdhi7K1mQ/rHr1
oMZDRisF7iKUvJ2DV0cP/AkqV944sK5WCD1Yrm7i+U+EqnkFshjDWmIy/RDLDfCb
TXh2sLk7k7A3ULJ+G7Tk1y9MzH18GSLBiQboYqHSmciaZilgGvWuRhP4lLfoHESA
0oAYWrlx/C5c3bCWXqenF9DkZhOPCKnVZ1dHlYDkk2swRlLbGxbyPNk4ne6nDmwM
euv8pPls9s/dtX+2KQZNFr6voXTgrx6EwM8TMhEyRdmNdQ1gvfdAigT8l9mpMmzx
KMslWPfqS5LdcF4JpAAOfbkyk68blnirkPkJnnrFxWgsfCQNrYFchXEzwKFTBMAb
Awsx5ouVrMk5weQ2y7Z720Z15GasLligsseCYUogJ9qWhrbh/DCbLXJaXyloeCuj
uKYy+J0q34I+XHFQNjS2mYdq40M1ViSKKMVDAOEhFIMLHKgn0uGB+a9C9kcf5LUx
FyF82/VNSGaN/en09pJFkDIM5B9qTVxJbEhPX3ZjhV9NuNN/fqef3XAbGm2OHUfE
QKuzTUZESDVzEe/+551uE3BSPHWWF0agcJp8Ez742GA9wysNrWPQN6FgBiouydpV
DSyzCcC7EgE+HpZji9gPa1oiHb69R1hhSoYHUMPkhMid/uEWVbv4bzgmSuZQYQd3
mSzXkAwGTPH2yoJGZlSQHLZ8k5cNadNUy+ED9pacdyYwPzMLikscKhBYdaTW+tOO
wsKyBBgBCAAmAhsCFiEEHXMIsAVfWu82lEqPJ6nCTZWI6g8FAmDvQUEFCQdcLi8B
QAkQJ6nCTZWI6g/AdCAEGQEKAB0WIQTQjtJ45VKdgyoDl6DKwXS4nI/DpQUCW3RG
jQAKCRDKwXS4nI/Dpf0zB/91xWUQCiaA3Eceib7fDStyjlZfcJFe1x6vmV9iXd8g
5lcVjc+OYCZ3DG2BekEhGz4jaeeB8j9nbbvnfaL7z6N2j+6NnPA3ksdyvb8WzevQ
ucuSTvIzg49EkmRki3j5NzhjSmnKQ5tGrJ+nv4CwBWzLnWBMklkxbl1sjAynt1kp
vwGTYlIldRyJR8QcXjWBg9VePnvLksyO77Tp8lj40eKXS9Gdsk+vImqX3aJWwTmH
SdbX13EsQrYwBC5R3losZ+TpI/8gnG8yhfFr9GCj3820OIjkQr4E7+qIhF5PkRjL
ZPIv6dr/A7s7tnYdhi7K1mQ/rHr1oMZDRisF7iKUvJ2DX2UQAJwMhfxlZchJDK7+
5hus7RxDxC3ZUH9eiy4w/vh2nsSTfwp7/RWFrdrk2F1+XOB4ZzGXA+1MfP7zhWjP
+b+LHyz6oXXW3Z84qNxw13+elr/JEFxiE7fsP2Bbr+GiCt8wKDplJeFtcx6tMItL
5nGpK1CCYxvsW41O/6RsbFtHqhippYQv5QskXpyI8bBt4wsoCKiJzE6JIOBgoozK
aLMeiZFhLSy60BdCMluaXjPUsEcWyG9PVeKMM1OYkquH6nRsQyRBonVxGWdVN0TC
mDV+8TMrskDBJ9ebqKWL4RiE0ZXDrkXdHJgiwXIw6BfoHLV+TnsDOZyDqV2lEGWC
EQaT6uxYeJtouMyM5sR4OoAw29qAgc4pgiFpRWR2TSS1t9qzzuhcKltkph4uDewj
SZXqC/GIqh53ZU+xm2/9lcA+Q/nh7SIWDVxP33Fxh1zLOKzuQkKVXj8Vrbd/8w3G
f2tUZkIDksOT1iBU6jmX+4GNRFp4ZMdJx7ZY7ckSpMuGlPRK3AkHt9MOP/dNQHg7
M9D/S5mFdBLLGdcTwAbXUExtW7/zQU03mOMfbbOhE3Tl5j8NN796XUgf9mrIz6nH
7j/UTILKYx4MsflUetesAgTdE0PxrcB+aVOZKNiX/d+5HbNUiM9uDbZX58wMSgVU
19FLpVGJlA4f2s968IEsPAs03C6nwsKyBBgBCAAmAhsCFiEEHXMIsAVfWu82lEqP
J6nCTZWI6g8FAl8OpwkFCQV7k/IBQAkQJ6nCTZWI6g/AdCAEGQEKAB0WIQTQjtJ4
5VKdgyoDl6DKwXS4nI/DpQUCW3RGjQAKCRDKwXS4nI/Dpf0zB/91xWUQCiaA3Ece
ib7fDStyjlZfcJFe1x6vmV9iXd8g5lcVjc+OYCZ3DG2BekEhGz4jaeeB8j9nbbvn
faL7z6N2j+6NnPA3ksdyvb8WzevQucuSTvIzg49EkmRki3j5NzhjSmnKQ5tGrJ+n
v4CwBWzLnWBMklkxbl1sjAynt1kpvwGTYlIldRyJR8QcXjWBg9VePnvLksyO77Tp
8lj40eKXS9Gdsk+vImqX3aJWwTmHSdbX13EsQrYwBC5R3losZ+TpI/8gnG8yhfFr
9GCj3820OIjkQr4E7+qIhF5PkRjLZPIv6dr/A7s7tnYdhi7K1mQ/rHr1oMZDRisF
7iKUvJ2DG+oP/1f27xUFYBUK5ZSsfMFrEDkvIPTUlQ1k/ddheQ6BhmNH2+V0wAKW
KQ7rTBAD77VFKpJCF1Kp23hJ+7ZL2+KybN1JdOQkaRovBarpZIK2JDrSrT0U6cAh
o5Vq8o2sjXvFlEOxVf1hnYjpJg5RYz8KMBN1SvoCveSGgHaFh7YTi9e896q0KbCM
jEBRg+WM8ry2WxRdVMSPJ/7LZUuBlxwUXgwnlBpRF6jD5IiTKUjIcl31sj7bGzqV
NmV0OvmiAHTsR/9uV6X7LktFiAbhi7R+gTdbmkeilOtpKJCQmaeFo4dppW2xIDYg
jJIO9cpxw4hoX+h0gbOuCYWSL02fJgiwmLElfUw1yRskfzyxs9ULngmeRKqUSXgy
b/ldd3HnY6pv0AUCtJvmcgC79ri2elfo7WTGu/ZdcFgw5cubjzVWuyDP1EWqYHON
5ye5dyigM26byzI1VuTNgdMR1G4vi1VTCbY5Nf9Nil5T7gXwv/KauX5o67Pg8sU/
ULKUVm93k08D7Tor1p2uG4rAIVClV0LQC5IVjXhw+80Z9L90eAuaW/9BSdxbEdL1
amb0IOnGqiOgRxIeRV4TM9PGNt/dz4acxkWrhTF+RHmA52X4XN8SFibE/jo714Gr
wgVYozadYLS0UVGML6rEl868AIbKpccPhPYPpxmIGLpAJiQgRI12AnSwwsKyBBgB
CgAmAhsCFiEEHXMIsAVfWu82lEqPJ6nCTZWI6g8FAl0//rMFCQOs66YBQAkQJ6nC
TZWI6g/AdCAEGQEKAB0WIQTQjtJ45VKdgyoDl6DKwXS4nI/DpQUCW3RGjQAKCRDK
wXS4nI/Dpf0zB/91xWUQCiaA3Eceib7fDStyjlZfcJFe1x6vmV9iXd8g5lcVjc+O
YCZ3DG2BekEhGz4jaeeB8j9nbbvnfaL7z6N2j+6NnPA3ksdyvb8WzevQucuSTvIz
g49EkmRki3j5NzhjSmnKQ5tGrJ+nv4CwBWzLnWBMklkxbl1sjAynt1kpvwGTYlIl
dRyJR8QcXjWBg9VePnvLksyO77Tp8lj40eKXS9Gdsk+vImqX3aJWwTmHSdbX13Es
QrYwBC5R3losZ+TpI/8gnG8yhfFr9GCj3820OIjkQr4E7+qIhF5PkRjLZPIv6dr/
A7s7tnYdhi7K1mQ/rHr1oMZDRisF7iKUvJ2DM3wP/1XEKNU22GxRl0uODwjkZi5T
v+SGAxb/8oX9xhe17MBXuJenLH/qFms7ywl4GYiRqHzJSA9MVJkDDm0LKvg4kEeP
TutP58zdgeUsmfN83SkUN7B8uJNA1NroRao2mNMvEbgYR3niaxDYg2CMXjK/3t+T
EypvjIzODLHBlDfBwrbcinznwvdpIJ3WgOurWH6uS86XgA6M5nMaDqLkWx1RYlVa
xo8fBGV32oSgL1GGczLzOgkkwN1j8X5mKwj1UDzklFoQ6K4ZOYkpe+ESWAOqva+M
WJmrvZsTBR5FvmeYnLMMwDmOzJ4Zp+7zbwG7CsWotX/FkwR8uWcn0xCmJSvJ1MCU
bl1Nz6HEmMAar8pJHCyd/xAm2TcA+4VOuvgskmwjuZxestasPLzek1LoKxWuTZKr
asQI4GPUpWJcRQRZkuR1Q9rZvqyOpHmEbpxe6diB/+w4aD8bmJ6/a5bTmrzrpZ5v
A7zvj8UFfQOdfKGxce1eIrmy06zGfuEfoRN4ik0pzbgAdCPXphvzOuwDGfs6xr1k
fXfgBSPkVMJgUmtiqRHfG2cmJxiYYAViIInYzrsfjaPUr+5jvapEQuiLaxfrOMpj
ky0nBitDX/sd2w6C+u2fo+iKYDIxOu8kGS2aCUN12s9v6W+BLddkr1FLYWANDzTk
LqtsQKj/1ocwdtafvQG8wsKyBBgBCgAmFiEEHXMIsAVfWu82lEqPJ6nCTZWI6g8F
Alt0Ro0CGwIFCQHhM4ABQAkQJ6nCTZWI6g/AdCAEGQEKAB0WIQTQjtJ45VKdgyoD
l6DKwXS4nI/DpQUCW3RGjQAKCRDKwXS4nI/Dpf0zB/91xWUQCiaA3Eceib7fDSty
jlZfcJFe1x6vmV9iXd8g5lcVjc+OYCZ3DG2BekEhGz4jaeeB8j9nbbvnfaL7z6N2
j+6NnPA3ksdyvb8WzevQucuSTvIzg49EkmRki3j5NzhjSmnKQ5tGrJ+nv4CwBWzL
nWBMklkxbl1sjAynt1kpvwGTYlIldRyJR8QcXjWBg9VePnvLksyO77Tp8lj40eKX
S9Gdsk+vImqX3aJWwTmHSdbX13EsQrYwBC5R3losZ+TpI/8gnG8yhfFr9GCj3820
OIjkQr4E7+qIhF5PkRjLZPIv6dr/A7s7tnYdhi7K1mQ/rHr1oMZDRisF7iKUvJ2D
97IP/jUBxa2LVh3jVTy75IPIy0Y339VIfdnKZFsXtgO0xZ9aIOtDora9GcVWre/u
yC9oxRTbL483jfbzoJvAxw4lDBX/n4NlCbDLCA2D6RDYgy9KTu7r+Tu78KMVD3TK
9KPYW9ILx/P58EBm61jk4brgIv3QgfAc/l1QBtHiGxOslv8K413DFBxXoMf6XuLE
oThHVCAyF2TtYk6xlwhbwucSNo+Qk6dYEdqwq6UZsjlm+nTvk5YjoeuvOXuH8H1B
Wi/jzBq4MB6gHeqgAwYQynUuxtM1w+epa4fqFaM15+dEUmWWAumdU2bydFZFyfeE
rfZCISVGh/q07grdnQchloj7M9qcII0IFOIM2txD9pVzDVHCgm3V4GOwcR89Gujg
cta8JgR94AaE8eVB+NBRa0zaZmuH/q0fngkDUviqtyhJbQs9Wk5R0LhrTsvIHfDT
Zz1vc1bQCL8K5Z0m/Jp5+FPX+AF+MCTgvCFN6sWqIqoAMvQoOKuBoezEyaOguRkQ
NcOUhzpJVdpsDG2hana6y0tc5JV6fgxvFUvR3PImGAmMIxg0hTMHIzkmWDScbMgb
zbo4FqVxcA8m6PNmaX1nN7QyU8sqmKoe6txZgW9PsAod6b08GAB8K+JAx/1OeTVg
Sv7lrYRrYF9fsch3FZTB50DmcvyrH6pKqVt6u/WJ2SjbCqZezsBNBFt0Rs4BCAC2
ypGR7OUEkNx/uBjfGXj14p9yB4KVf70fkf4kHPWPHgj/0te6/on04gUK//1PeWkr
U49jDzqjHfZGz7rAhesJIRRQg8DDzCkb6e9UbyVZqO2XGXhFhYt9daxJbMV/Fx8D
k3JZnN1mP00pusyCVrGIUH/hbIf5uJD/nRajTRuu3AZXj9J0GO1nltk9Vw4JW3a3
DEuIezxq0iv2h8UG0YbmirGMcdOg5CORed4r5Ip7ZGWz423MqjKthc9zqk/b6vLS
JTq8a1l7dFEBclFSke+6ut22wMpFwD+nxi21odw+wgbtDjGELLKR/qDcgm3C6gZM
EIj3pWhjNh4fZHmLDJJ9ABEBAAHCwXwEGAEIACYCGyAWIQQdcwiwBV9a7zaUSo8n
qcJNlYjqDwUCakIpmwUJEK8WQAAKCRAnqcJNlYjqDwhXD/9RpyyQ1+QW9AgCwzBJ
t15u6hW39g+5mCUYmsgSisEyD27SoqwMoZHf2FXHy6Yzxu2NRVzHfHgThF/G9Xth
R1Z/HB3JDfH/POpywL4z+XIksLjdS0AcFHtaxt1OP71k6/P7wt3I3OGlBdyAuhOz
zo9rhhk0W/2kda8f+DoDK06F29+CKUsGEq6UNCjiaRJlVmeTE7gI/iW24qbpSHzR
QvKW2BxwTdCPTy970M/hd76W9hT6kjU9EORIdIoztPqgLOHscoxJGUrz/q83jzy8
ND+cv/8a+05395SQCq7ChIH+rCNzgdRKRiLExOVteYvUxx+bzWX5OhnECaOBdsHe
qFTwzIS9IurmVOB9WNRJWeiM24EQ8nrRPxBIPTs8f0200qzkxZ9ep7TBc7+tCLb4
t18B4XjXcpD7N37CfuOY+wdULn2pVa1lIbLmP1Vy0z5yv1eUPStEwzn8RmClm88B
6I6r+QgO7Lo8yyn6dAvxf0xArLmPc/m9M3wv7AKY9Khr+3Ndkn+Oz+HyVilewDVI
ryy0otLLlJWAHmwhHOKwslFS1qcIOmQXinu97+Zl9XfjjT1yPAIsgGS6YNztjwSB
mhBfVxmVS//MN/X0LKiocRpQpbRa0RdR2/6+lBosPsEL0M4OMuBPqp8b789ULHaW
E2sF9kxslvQsFAKFH+y8moqEtMLBfAQYAQgAJgIbIBYhBB1zCLAFX1rvNpRKjyep
wk2ViOoPBQJoYCdbBQkOzRP5AAoJECepwk2ViOoPjrkP/26TQXZiTAD1migRO7cM
TohdwQ5Umf6Y1U4UT/YGQ2Lwb0EvRROiMI+bg2I26vufboLmt8Pn+idc4zPTCv4G
HBmN0xUOfBnwJ9aeiMWUskNeu9h3/6cZ4sjxh3dOjeWc5AHo1qCYNRY124w+EbJa
ZFqlVQSKT+xgQYnr+AjYeAgTTh0QJ5K50pnHuPe2S5qTjijmCw2VF5nWvEnq0wGA
zpskckOgVdpLDQnJYJHYTAvsPTXxJ1HTceYnp1h8v2MLrWAza0TlXqzluUQwHKBJ
gimYv9gpJd2v4Oilb8QS5icD+mRn/gUxdM53Yj5n/ROx2GeyJuijYtGEg3dmXaQ5
eGpvXTqLLz8r4oXa4dsnB2CYTJMydedLyj7VeIapbX/SF7IBtTli7WA36llZiA8K
TbdSphj3IHtGsKT9wNZ/3ERwmCTPad0x3Ztb2tbxS2syIQ++2EsveB8sh+40rXVI
2iZ4TVu+eMptcgbfhUX0OgP4rhx9I7/yVG6cjKH4GR78qzsxlK8aqrgMV8rwI8vm
m98crzbL5AqZmquBMisAF+MNLHEbt/5J8YprvizWrjjGAOmdboHR7aFo4UOJeKrv
fGZJPXoQRC8xwGZVrnSpttkEve2GlKF2GgW8xjVi8W+0aymYEGcn6PYU5cBsQCOc
VkjuP2iMrbAp6sfTGTvOfzVlwsF8BBgBCAAmAhsgFiEEHXMIsAVfWu82lEqPJ6nC
TZWI6g8FAmaCWjkFCQzvRuUACgkQJ6nCTZWI6g9A6Q//UmZ64wKYE3tN9/PGi7NU
RbT38RKFiJ2Jlt5szERUwfDfjJ1Gy52Q7QFZt/ddtlCWNCwr6/hJN9srib9YhcP/
9w4XdqDV0oH1cBFi0BqHflhWjU4ofO1IgxNyrLuxfatvMTIwgBsS1FhdH2miZTHq
9GsbDNqaszqIrxhAwvzecmJxw8A5xxSkaTyGtZCUNKfzY1lG45/0qTGJczuvqen5
K9+Kfo0OAZ0n/vnZhxmoVNwBh8yF+EMSvGyy71MyNUZ1xMbgIJANppLVVkcCE0zq
F6wJDnfFnG9fsNwmxpVLSEXDJwU/8oI3qPf8kzU3J8nlSz0oO8B51EFcQuU61JG4
uqD72AIG9XBCAM6ebH8ArNa3Garq3KQFmJXQE0CSwcXL+Thz83L3u3xDEplJpFAr
tZ46SyWkcWIawVowak4o+ln+LC9UP2ZWJR8EeiKnCMuULCpat1dwqGkAEsnduZg0
Gb97Ro1hl+PvUWRz0dqXAS/ia6zVP1Tyx7poRkwOZytEh+ytBjmEsKoa5/MI0QZ4
MG14Dd3+m/AIPlBWdmihQMZFPucPNBC3kSz2IGqMrw6thWnjMQB7tHWeh9Ydfztw
RMhfk7F+3ZLzaAmDTeNunvVVZHvnpclJLeZRBRj5yq3u0bWkkkQgcyLp3FF/dYJ/
TK7j4NmXwHfpkonc0k8sVSLCwXwEGAEIACYCGyAWIQQdcwiwBV9a7zaUSo8nqcJN
lYjqDwUCZKf9xwUJCxTqcwAKCRAnqcJNlYjqD1OPEACGGN+UI1DnqUnaSxQsEbs3
EuwQl2aqA1Tx1nF1ePv7n5ORTFOjUrp6MeHn954MOczBzJfd+dZZ5XJsZ2F9iuBC
wpuNKmxD7u8HW7mcXu8rN/mLVs0WHQ9V7tOnoPhuXDWfeSplJwHhYQPEstAOpqSQ
5rvvHzL98OIWyjTZTvL98t9fgra98G542vxMPHWt79CRBLEr4qIi2YSl+UGzv+U+
WQ+1O1pzv3FfRLncNrCrP1c6Ox6IyuWloB8+Ha9giCF8IFzDwPzDyy1GkvY1Cv7Y
YAGV02JwzZwKfZ8mtQlcjzUUYuzFSIpIZst+hd9qze6F6V614pY7FGewP6+Ntj7E
UJliYa0ButGgTyBQfR6AztxftAJ7LuMsAFPjU2V0kVEpCIUWnNvrlM4e7hwOXsQv
+Q3CCg0MgOzqMRa9pDiX5fIIYGM1HeFedDefOlDvGuqSx4I0lB2CXun+mtcX4gBX
WqE5JX4i6sW7qNK68ctlaLzegodBN0b/tJHia5+FajI95DhatbagT9rdM195SUEj
9kmG7H8KnZvBkI+t1yQmA7qWrsN32KkXoMUxu5yPM0p6jWy+9hYwAPrK410R3A4Y
GSFDhIopJhAyqQZyrj0IBYRf5imiOz3KRjBni1x5HlNoQM3jlB2xbegxmRx8VqT1
jRClPW9Nz2X/IXaiWgo+ysLBfAQYAQgAJgIbIBYhBB1zCLAFX1rvNpRKjyepwk2V
iOoPBQJiye3JBQkJNtp0AAoJECepwk2ViOoP2MoQAK9WLAaGfnxNzBwGYIWv3ZQg
HtInCj0clnPP6ZBRG6ScKd5ohGnfJjleagrSWYH/j6URLeHDZXxDGkKM06JfHjm9
oqgd48wjFlwhHMH/4yxwdAT1fQkt5cZq49dBJYSZo4G2YURFUzCoU/wXZVzubckb
GIHtIs27ogRnRaWzZglThjrAWvX+R7YO33qERbkgIGB74Bg1moNH0pt2PFni+tWb
bhjK6sfzz7iLpxwzMiM6hjy+8sI2QMUIfLFRy6loUXsn/MijPMRGKQ8bed+CVvhd
AgZ0AkCKL9h0/a0C+NiQAQ7Anu2APltXGLuRqID9nxDhJmIFTbGsNtS/5KTinCHh
GyEMSByshSa4cTyqeVfgk2/LlGaQNOqpYgpGw4moxvMcwCNYHMGzQGijzf2urSrD
zmQ8KBUbxHTFPIcV57CtS4aFrXnkKVq9tQEzL9alvIZaqv/vnfSrSjsu+aEMO5BU
L74PwxMUYhAGHqkvBn9OfNLg452yE8s8CiKKdXd0iTPLGbiwaDArfu3Jw8l1tB+F
Nxr3MdSF6R69uXA4X84+vovS9Q7MVN6XgHaAGa7dw8fWoItwsTItMYYN+spy9a0W
YWxIxHaGwm3+jWEXxaur+DWGHt0aa6jjhlaHzUGKbSQyrs0xVFjP0atDweYIACLz
bmFKxszIqlUDd+A/QdxHwsF8BBgBCAAmAhsgFiEEHXMIsAVfWu82lEqPJ6nCTZWI
6g8FAmDvQUQFCQdcLe4ACgkQJ6nCTZWI6g+2RBAAmMU5XA8rgq/XIF675+HQgbRm
JauVf5HWEOMKrXaSThw/zMrwIET/yohIt+TqElGSg41xaGcGDuzYNUFxg8bXXmzn
Zf2fN6DcSCi0k4pZ5kiPoSkGmSpDkcM+nes9Kuv/GUvYitbsNhtAkkAURCT+saDZ
1cWz1QUxjYKtu/D+IP86dqgtpa0lCCFeDtGpQZ+2Kx5eXEhbAw+ghwhZdwt4EZKx
zUTvQ8azY5m5PDGKdreGrY3K3QReKt2alJAjP/09SE0XszES4oopViQ4MwoU95z2
jN9NW9iXVM5Kuu5BoeQNDOEUsdWWpAiaepJ+/yfbNM09ra7ErLA8C1bn8rIgbfuE
9DJKEr6SQcuoTWcDVoCDihdI2aGCnVLW6pzKqwmgFDqdr06hLw4KVmtPvP0k5Hvd
YoqQm8sXTXDHeOcijeSKEiv74GKL5FC9F9+0x2SFGJZ6q4KNL9GHnC8N8pKPxpC5
dDyNMznAC+KmBHrczOAj4UBbnWuPsLGA9CwFnh1q0OFbpe3pF9NVcwbM4BaH3soe
q8nVdEmx8vNMXwc+rNPR95MaeYcNzkIC8dqSPtn5iuguEAOM8EvWLWkDX6cqN2uY
u8Y44Hw++5FrVuA2GgznPBbxEn7EW8tIB8zxIBABKPd7PQCmNOKn2bZ566J4HHI0
CLTX3R72kjKuhmq5OCjCwXwEGAEIACYCGyAWIQQdcwiwBV9a7zaUSo8nqcJNlYjq
DwUCXw6nCgUJBXuTsQAKCRAnqcJNlYjqD3acD/0UYE36P9EHePTZm5MuDezPfWHe
DyEzb52Xzp4DgtsMjVKSrkHrgl0+TI90eS7L/MhuHRx/ORouVQ2u3PDaYo5zHw12
Cu8WhgzCGPYc93vLTlpZf/7Zp6uPO0OiQ0scMZlSrI4aXZKnuhJf+1QC8eFMV7Q0
NNd1jhHJKHrrcps3X8OKPpr9LSOu9RT2BHczBTwr4LmFWkpRSLv9+Y69bj0MH6Ip
FxeVyXUJgRy+ugvO6M9p9j1zZOjL9jO4ZwdHqKvVD8j9wK84Y6eldznzCioYOG4w
EVDGupDnQ4/lyjHmQojwSG5uLrcqQWnHaFMzW/bJLIMrJiOY5Uk07NKcCe2emx/e
2GmIEYvhnw7dAhLjXL3Tz38g4qeNlH+nU/HvhDXdCqmBrFd/LHBY9c7ELuCEps2L
lsbd8vRE5Pp+C7Hb6BT3bZ82Iyt0OiFhrsSYgAuaRxBKkazOSLTsLC+6I1Hu3sn/
4lmgSDpaNDZ2pVSbnB8u0Tl+4JPvmQGqTrmQeDcy1FehwH52G9TQfiC/0fTn3KP7
gIVBaHSzPOLvyFPqmWVgmPoBkPSUpZAp9PxXdE2e6rIOLVDiLT0eOwFFADI0FWUk
K3Yn3JzEM/ldznUVmudfqEw87ujLEMt1A4NPGpW6WzjkuQJNCFFGNoq/Exg0bZ+M
YzvwXLDxCYSPVBiiI8LBfAQYAQoAJgIbIBYhBB1zCLAFX1rvNpRKjyepwk2ViOoP
BQJdP/62BQkDrOtlAAoJECepwk2ViOoPpOUP/j5tl9SBjlLhr+Y0/CqArAP94ZGB
voaCHuH4cicEuWM5+kVYn4ijop6DkBMvUN5NbZfYUxrRia88N2GMqoPstnbkOGnO
ymug9PxoeKwP7a1OQ5ZDmajInK3E7wCAzBLrXLCHgaIxe1VqxZDt6EVOqt6NJn/p
ZR6HKG2SCh6uVVH1MccbEp6pP4YC/Ee0bMXc2ZH6RmzClFCoWDuBjr1mFFkW1iii
bPt4YJzZVUbryhMYEFi/XGHfeOQEFmifAw6/JlLpbKCkyRw8Gyk1DeptaKYxDyvM
miqlt9AUHH9hUo4LGH0lIF3NZDEoP93OaBAVoyt9NbN0zTKn0GGrZqaYAqlKFwe0
nOXPwQ1cUQR/DDq49lIKo7Iot573IrSd91WDPYW5m82b5WKSXcQulhwbV7nl9ozB
9r3vPBOp1OU7ctBrm+2rBZZA+nEZgxJuo7SsBfKnaf+Y8BtQ7yDcDxT7eAb/bYX4
u2PoAUegbBcSaWEI1G2SILdNnvXUISD10Jb1XadHDqD6jLxqBg7tZuZ7t73dA+zg
TXwQaXCgZkFNa8Pf3pDx51HHBPghtaIAGcofedV2+gebh973zMmcxsKUZuFsNZ70
keVUZ4sAYpIthGue/SEYCOyxJ0pYbRkxHxmitNEkeK8FzTmdmZ/7PWbuixcACbWH
v23M4RcS77Fg3wySwsF8BBgBCgAmFiEEHXMIsAVfWu82lEqPJ6nCTZWI6g8FAlt0
Rs4CGyAFCQHhM4AACgkQJ6nCTZWI6g+QPA/+PkuPL44A+Snfp9D/lhGawuOIZnsp
uNDmD8ee9wNj8GI+xq9/D/FC9yIJy71sTxoHiaCWYfEJsCCZXJlrgE5f5Ujxx8R3
6YITdU6LGxeSsNbQbeVOcj+ZNKG0qKDzqbOIVGU+yidSoBJuCefQW2/BaOlQIwiB
x8pEBoJSvipoCJcw1b/QOs/hAr66wN43XJ+7pOCHjrTABwqbP8WxZlzdIe8SGdbw
JLY2H8/Upip1uk/Kz+VgHMoQDhwaYmZXcvhZ030ud4ny3/lQYX18tp/CT/z+V1Nd
v0nr4PjzpBngPfme1dd7TPuXc/menc8d7/k+IJF257wYbjcj5zb5MAzeQth0JbNF
t5psRGwP0RWHCWNvg/EhMZsWBQnjGXYW8sgCsx3D00d84qAo9adHMBgE1YorcIiD
QiikdYFgow1kzeiia5d6LCw9K26/p6W9M8SCtT6bsD6bLUwgzvRbIbXwaV7WjO+0
OObKnx9OkwLdctUuKuqzpGZtS+FZ7ojslLVFOkTzxlL799Up6GKymftqOj0OarYw
Qbyc9izw/833+Vkd8lKhqIBvFm4w7HqA10NbpwJtshElPIp/L4TnHu36jTUCD73P
olyRmfpbFWyTSxaODH0V/F5Sik2L5CdMVPhCC+imYAJhj72IJxMLl7PZEfFecnnn
etdcyM+dMMPwVbLOwE0EW3Q22gEIANeCoBCUKErxUweDQvdToUM/JYa2JjNak4vf
dOATiOHp6cRwPhDIjjAd/bhyuB9FXwaiYVvj96eiUjSvOxm3QMEZ7M0BNMw3R45G
JuSGkW35o6cL+Wvv2ILcDP9Ku85VtzfaEEgsjDqCo7fPxdWIHHNWeJcDu6VHUXL8
GOH2VXXpjrKc6UEP87AGD9cL6aeV4qobUvUTvR6NJ6vxaImodDkja7zw0GCuYPe+
9j1k9E19we7oQHdsTcshMwVUzVUwHiM0frcfs2dQr9Rmq3LWrtTaOcBIPYsmASxw
BeKhGF6kPhbkveYaJsRpl2DuxjnX55PNEcWeLLbioFpCCR/mEFcAEQEAAcLBfAQY
AQgAJgIbDBYhBB1zCLAFX1rvNpRKjyepwk2ViOoPBQJqQimOBQkQryY0AAoJECep
wk2ViOoPgy8P/iFOuZC3mpQhsKDv69gJxp4+ba3hb6+gJ80LOd68CeA0CSaciSLW
yZvsvKdhqblNJ9ENtUbCJPHg45RDnTFcDKuhWBKqSyeTAl4PacfY35wyVugty60w
tPfsSPuBy6XYaHXO03FPqKFHMlWNETL1Rx1Tx4DgLPZPSNbVCPexqGHaTU+2RIIh
tUvM6tRxBeYQuZ4OH2Kt3pE6JIdcnOOYyHwwS+pJmIlAadcFGEsBQjJKKR7t1bga
RZQn5KTcJtCr1t5X6SHYUdFzZd0Ujg9NftWjXdS2W/AKFMkWBW+vtMDT/+jCgsYT
VSQZaTbpLFi0rw9938MysXbk0di/Abnm8PbxGGVDriAtydMpUgRQaLeF7mszwL8I
1idoz9wWqMmdxjEyzrp3XvrTMf37f5zDxIYRHpZxWYEUP62RaC10IwJoyQ4mAShR
QDKLXLhy4/Zwq3oCzbcGP+e7/5PQQd3HEGSw5pUxLqJ4IFdjT+oIP4Sr3qSkcU4b
tG+BKJAfiTDKYQVhLWXEFAMsirdMYSW6hi4vbAmzk3xoQ2v/BhFWT/tNvvN8OL4W
hORf4hPKt3W0JnLKA4I0ioTQi8aUtPx8tTBbDfIh4P7UxN8teHin+Ot8deEJ1QjZ
YcDjBHSY23PbtY0vdN2xiNmL5gqelqEuUCFdrUFhL6ICUoRwkRSIrFzMwsF8BBgB
CAAmAhsMFiEEHXMIsAVfWu82lEqPJ6nCTZWI6g8FAmhgJ0cFCQ7NI+0ACgkQJ6nC
TZWI6g9OZw//Y0gooY0/NKrO4CuxY+afs1fR6vnKjPN2NG2muS/7lyA/j8JyYt7n
hYW3N+BcI2Cs5owMMMcvYUjcD6iRgGvXGWXLotnkV83OOWVUXHORO+ZZ5NEASS/t
BmxHfxk00O4KqYJR6JcwGBxFfre9ikE7MadSzuMw95Ng6whkGfSMLaTtxXOr9+1y
k2Jk7Cbmc4NODf5xp59v1ovnlps0fu4LDOWMdlqKBPeboJO7j9iyRZkAI/IJIjgi
RtSeZ8DWRMNQIkk0hE0fUo36oTx52xabgB5w/Vz6oer68vpWcNOXD0QqhGS05QZL
ioANWYeJd0AO44BGG1+HhtV8hY/G3HTsn7YHaEYsub2+8oIq5mDQ5XmY10Fc8Nqw
FXBKgVOGyz5kWZJHiWwbGH1JORXwfUZj2zQM12rtLZ7PHDFtuCYmsrz4ha0Vrmic
i+wbssMxrHguJKNIks2x+106JHvKXsKh2YSWJ6ZDre2Y/4Cid6MxY1V40Ro3lBpT
eBfftTIWlw2vQZ6dnkEt7nr6+B5hvZIr3A8ZIVPIIG2cYNGQrB3Jr/CzD35kkX+z
ItE6llzQbwe5pc5KwJdUgqJ26wqkrZeeYAjIpcG8WDtxv471OWS1Oxudpg3T25Ve
8+ktT4fyvTJUSC+K8ou1KzV5uqufvERQWQPV8J9T3nrU9iRavecTee7CwXwEGAEI
ACYCGwwWIQQdcwiwBV9a7zaUSo8nqcJNlYjqDwUCZoJaMwUJDO9W2QAKCRAnqcJN
lYjqD7kID/9YrmFWObxQvLMj9dcplimmWgl69QSzqsGnFlxGVKsRjW7R9/f0So2+
+eF5Qp2jaALlU7RZmFABQqzkpBra4YVtittmhlXU2QfJVWs635cc91+JAjHynPXc
oQ1K08SzTkUTdldtALJEnHv5vOjNu/epMjhBrpVqxsFoTrgiszgTQE/uJpfTCpO0
P2DpOrru2K2FIduUyEP1iXIZVHg1AKzoJBFSVDGMnZF+KKYsmHZ6hC4T+knS5a2/
csVHen7+6o96KMjHgG71eXm8/bOi9Az1j2vyrstLnyHTdKqA46dYfAq/xk1e/0D9
XsYpDXRg2SljXVqBNZlk//AVtxbzONzUG86ncNL0AWOs7f1b8mawKtlEgDnpRYyU
s6ODsNspVFuilzcvLfaVpY7YNZsxyQWYf7TozKge7frmWXm8WlakuW9yMzGA3fVu
gviV4Klz1kt6XrIyMRmmcOs1+HjjYI4chRd7H0tfAWab+tWIroayK7NOtWHmtHyS
v8Bj9QUTH3roB1/fDt8OXSB3vyI4bmlln0NyfK7sugmHg3o9gbi/RqpKHTn+3XNX
9gcig6IMTRbZbbPiOxcjUl9UhPPg6pjKcYSW7X/Rk1FNLaqJZzlnWXYKvkUy/31A
WL1GXwtsZy+mOALMj10z2yu1vVoaxr3E38AZhwJ3bOxAvAbyWtkJxMLBfAQYAQgA
JgIbDBYhBB1zCLAFX1rvNpRKjyepwk2ViOoPBQJkp/3BBQkLFPpnAAoJECepwk2V
iOoPc4sP+QH63RYU2h0fIjqI2B3o154vtBSl/Eah07lBcr6Tk13KkadJXXFhPoZT
Vu8Ou309JBRDUaNFF1e2mZkhfdW4k8ZB5zudqG8P1jJu6UblFPPVRQDLvEUtsViV
Ta3ZSFyL9CiM0NllWRiJ7NfdTluPahRTXrAq9VMZwIpI0ZU53C5rd3/rcDdQkFqU
Vk4Vo9lwrUMF4zhxDJgyI4dXkGy2sNKWdBc80/K59st8pPQPXRvayGRCywSMXtYU
SqYB4AeW5mE0xSPi/hpDE7YWb7v/jISGPSIscB2VBI6STCiqYDQW7Okx1UIuDzLp
ccooNSKtLKAvv5hJA/cZswr43jaJI9lQyfj1fFizHcywA9s2t7CBLmpmzX6CVXuP
kBQdszFEhYSy81QaM/Yqvrt2FonoahHwM0I/DcIZbrt6XBSnYqDFnxHY3qQ+0H0i
ksazF6m00pUdpVqTkBNpa6wdyfJo54zkcBuE0NP23NRjd3k51zhO72IIgZdsmTiO
znyTVfNDyejavB2ZRQAGyBVEzefFoPNa5ToTJ85pyvzbbT+ZOCL2gXkjqqv7TNkQ
VHNW4zGseLOdpjVjqTYtgx4x9YPAhCZFeBYwCRQSFPF5lGDOU8/NMwUeAaIxc6R/
IqNJsQIz3xeB8+UGBX/JLIfBY+/GqTH0jDGDPCkvhvHEESYZ0ruUwsF8BBgBCAAm
AhsMFiEEHXMIsAVfWu82lEqPJ6nCTZWI6g8FAmLJ7cIFCQk26mgACgkQJ6nCTZWI
6g/dIA//cpLL6YX0AyGRyCzhHD6leB8yGabho+pYBOnzzw/BDUFGXYASZm1SQbRD
+cM7a3S+2Pf2S4fsbsxwqCaaAc9HaomKpLVFUAbzz+CmfY+ybnlsUSbH+xX63td/
aEvPJb0c10QE1mFqG7xNWTPaTH6dGqWRwCnghMtWXJBCYJ+K2F9apF5QaBc4KnDG
GyqTz1okAueMrxwftwtrnBmru+FZ8xDBTH56/TOVsZIynZwnz9bfpnlHbaL+cxKE
CzTEVlzOd39TyRZVyC974cMV5icNGZI6RP6QQNQPrAda2L/6Vglt2j4vZd+iGN21
6MnmoU/wsMUBg8wc/bPXYILo/KJVl6NRyhBG3pKVj1IlVSxbUgw5XFqsMU4Wp+tX
1mCGpN1t6DWwcPX6hCFJRBeSL5FhDeuK+pNE31Ks1u4vPgfnTRnvVhN36xj+nE1y
EzxcaWyY+KLtvzWyBUvlNyVP/+5NVmvkMe9/wtng8TIKaUfD4zBc+kZwx90tTZBk
9uc+hPD3GjKOvV1vl9Rqhe5gqJHyRp7ZpW/cYZVBFBLmc9DvDMowBLoCyz+Qx5X7
xiuoxEWWif82t403nVGLnKgTdPSRFCJc1BfEjwxS2D2IrIPL7TSZkQXeyj/8/7p4
XpudfkESQbZWB2A8gg3O2OEgwdDLS/DM5iv5F7oog9EvQETMBy/CwXwEGAEIACYC
GwwWIQQdcwiwBV9a7zaUSo8nqcJNlYjqDwUCYO9BPAUJB1w94gAKCRAnqcJNlYjq
DzVWD/9XSLgsmgg2wsfQZB2nhiD1C+1vR5BjPwqTAwIY/vWnHWlnbEitcS96lrQ9
j0vN3sorTqaYiJf6CPT/+N4uDCAg8SbaskpncoCIPBUabJRqxU+D31iP13cOPvH1
GtqdUC+XM+olfqE9OFfWbXuHGyuwb8PD5xXQntEmRokn68WaMNnshO+HqlCma4xq
alcCQN7VrYKEAV2uk0nMtJNmD2nzifSH5WptMZjImSSM72g6qAN9vvcSeolmUO12
pBwoqQ3ywXwF2Y4Z+wD92Ssz+hhjEp6huy25rtmFDpU8g9CmYF8JcmusD6nfGxdG
qCV+Czys8ukI/8Mji5MDlkt7aVB8O+4spWAqx0gDTeLbWNFeURg1li++nL9MHO18
Nt95XoIOzQAgVPgNMzQmpI/YX4bpoOJ8IPE26M2YPtXrJH33+TXKK1KMemxyIced
TjIr8xTBeMAfixzGVeyXHm3kqUCbOkCVC37u7a1/VxvBT8PrQaxe6NR3mbn1XMfX
mjTghXD2S4CQq6vWgP393URxiZ9dnf5hVB6t8Kh5tL9DbA/6eJq7fys1Iwp9Ugv5
obUweFV7V4EjleO3kC7ml30gX84JfdC3suFgeu6TGBInHLIdo6cJldDlDGY+lWwc
b/ihDigkKKKFtVWNIPIeXQk8892AnOOk5siHvFaU2GJf3DNcJMLBfAQYAQgAJgIb
DBYhBB1zCLAFX1rvNpRKjyepwk2ViOoPBQJfDqb/BQkFe6OlAAoJECepwk2ViOoP
kJQP/jxVr3XQDhH8mboQ1Ufzl/sFj+UHe6ucoIiaF/KU6TlOa/sjNwAGKcBWKxBY
XpHyk0vsLxWaLq/OlFMptM1hgM2TiyDnJ1Hpuu8dWl/QkUe3+Pkyy4Que1C5s2Al
VrCpXx74247I1Lm0o4oZ2Vcb9YXOGfwlUSpHlkQxhhVQMgBguW289F6t5KEvXlep
3DLs2juRk1cl5QpInrGXRQnHXR9I4STBTG/WbR1LH50+ikklTr9p4zEtqQaTHsOI
qFD0VR0MCY6mMa4pPYx3mdHX+nsTi6aZNx3EItUCLbSz5roreGLKFnU7cyhGb/62
TrGp7ffm61JfBQmUzeKQBd02qAPmrhaRdOMtWt8amIUFwPiYaMwx8RTlKYHnpNba
Ou6+NuSNW01ZaqXyncbTiB7waaCGv05K38XOkViNKURwiGKuCpFWcK+R36I8QVT2
s81Q3adnLzEfl2ViKwdHl+FVFTFH/Buqe8Lyzg9b4J+5/0pSgMQQNolYBrukRAbh
OcvyN2ZVqGFUZeCL90T8G67vzrfwpkGVFW1sIK0241XemvGqR3Z/ySEtY0A9zA1E
Hu94jGFxqQm9eyR+t+GpKsDzZtWGIAqUPUTJEu8Xjdd4Kw5GWE4HV/NvJ5KA8hLz
YUvyFWF4uc72npmLSGRUSvRr0ZCvV302DKq8zxa5wOSPuLIcwsF8BBgBCgAmAhsM
FiEEHXMIsAVfWu82lEqPJ6nCTZWI6g8FAl0//doFCQOs+oAACgkQJ6nCTZWI6g/l
Ww/9E7eJ1NVfL8jj0NmjYv/0sNJI+lFqsHN69II5+dPM7lDYmt9MTQojqUteVRig
POrXIn3E001JjDeO5fXsWwij2Ya/e/B3gtcACXG5AXy0h0RfQlxOPt8g5WAS9i13
gAt63z0bb3May3kjA5/uUdbhigBrt+CGjLQuxfgLxeo+crk0AkMaezwqnfKnm0aH
IZCmU/Da6O/g6Il4ado093BaO9huFWdOy3jBJC2yZfis7Y5kI5ntKU1UQu/bN+uL
FiolVHJqmu5lS9AQv9ZbaoFYC2eOfoEciM59Et97OOZTCmHbgL5goCS2owBMYMMj
BmA6mWmYSmmA6Lz+IhjrGb0RGOOm9KReKg+LeAXZqf7x6xgMAoG38ODOGF5UxO1X
xBh9lyNOp5gH/NvIB1crJPCwYjvkcRjiO26snWCyX5wYzMSM1/MYfGPs8gFhxhYm
W9CvIfw8LLAmc5HeXXKpf6uEbC0YW1jf87bHeM1wWiMTKPvS8aTbwtCURpV4GI0N
hUBsHxCq2agzRVNqbSHjyt25fQmGMtMAfpezyQwL3hPyxdYRStdJBm0tLXx0GLhP
jX1bQO3C2FSbnkgin+NH9O0RRncSk+licgjcyEyI4iKGrStl7nEfQRTFcCmzktc3
9OZdk1FPyd6swYJJ/AkyfExCMAz9vkUAfy97xLBK7tf1RZ7CwXwEGAEKACYWIQQd
cwiwBV9a7zaUSo8nqcJNlYjqDwUCW3Q22gIbDAUJAeEzgAAKCRAnqcJNlYjqD+DJ
D/4lkVFT7GP6wVXYoLlW8yDCYLwDtgI+P2Bp8TVWYTUPyTt5dv71iBwxCxIlsN5V
EzBYAQZoEQLukt1tjpcD2EW7BAS+0F9+dTuk77n++Vyn6DFWCrDEvVrY/kPemnIk
catVGg+AE+i1aA86H/kZUYq+Q4+KsjyGuzbvSjAUBYQiSdBH37b8imPpvMCM7d7B
hDwzWpbnTlpdlgLRS9crIqdKTmeectZxdZ8KgdP2OnRfn8Xf5HIlB14aMZOiyj44
M3tzIci2tKVOVKUiS0ne1yuQkCRnQQzutH3X1Ks/mHR0MSrX9bNRTo70FZbX5oRw
IKZp8a+NY6eTp108cgmsNfq6HsBOXh5Vkq8pMCyGeUpsHHhFb4J3Is3SVjIa+tVk
tBtOj7Y9k5AoJlSMtE285/qcGvqJ+xE61SYP1Xb2TreNX7N1bLEsNmCim7jLlMpA
4TS2m5R5d6qX7VFdyhx14njOnq47DZC5Qf3CKEmv5ixbyGcGuSLZcxqZ4ZLJ9K8M
LROCvxiWW+RfqGrLMZxOUZcUIREsDUDnVBPSZQVu8KL1/fJNT7mwPWMp3/dt4JaM
IIFFpsJpP5KSdigQP+GQB2eIBPXJk4EO+7YR+zvK5TacwlQPSG7sOFVlnBaDriSu
2MtXblXmiULSMfmmWkZ8H57UG9Irjt6gYji9RQOV+EGrss7BTQRhaY5HARAAsG7p
9HV+8wXYUmf1q2DXZlvF8T68KJ61mK0QK39jYgFuHUrjc7QsJ8fnlvWDnZmHp49Q
ZDjEk7ibqJma5XEw6IW+vr6HF06075VZegnV7t376u0CHMcSkk+xE9CNYzl+Gsb8
1TfK4p7VbQbWYtnct1JVSGPSgs11VmeHxKCVr/G9KvMVzA9TECjLQfJy7vQmlI2a
5yK+aJZ6WxcBbz775fLZjAC8vTVRQWJSQJU4kwgYj6+ytlBa3MzKSU5gsuojtdg+
1BCsajwbh+N+RE3SLead1AajZ5iWuNUfsTQABSZOX1nQkQyDHo3Yk+8pVXxhqI+X
7fJhO81SL14nJNJghJNGdyZqFo7WC0CN5NgUKHbrh1dyMsPiDbJBA40T0CPuN1fc
v+qkcqIIle3BN2UhiMzeBlbyZuIgbuAXM9VLaHswrr8bAvIiBnWTjYRnyoAxVSv1
E3a5TiBHGOvXZiK4uGTtLA7GOLROSXJ2OL0iUelb28+Mz/FtiolzyGb5MsYCAbHr
14utcuIppUQK1XR/mBVO5LKCeOq+99lD3W5y6/a1YJe0dBgsXOfVBe5gg6YACAWd
ayiqblPe2+ABC8LRJtMWLWM3G3G29XxNXWzXMZQ4seNnCkN6+g5y+TWm9ukCv8JR
Bwqm8Bp+qvgaX5jrR4xHai1hRLDyDG/zDESwrhkAEQEAAcLDsgQYAQgAJgIbAhYh
BB1zCLAFX1rvNpRKjyepwk2ViOoPBQJqQimjBQkKuc7HAkAJECepwk2ViOoPwXQg
BBkBCgAdFiEEqM4WeRTu4jK5I3tUEMrEli4Dx8wFAmFpjkcACgkQEMrEli4Dx8y3
Pg//UGxB5ABE7dn3/DMj7vqqDWvBvmJTw4Oj2FiIyt8mSBT/TkNRheRljhn0K5h6
Dow+Khyc8EzKRpf/XaW3E6ucAPXkhvO/eL+NTXVuu2Hwnik+LE0xG88q1Dvhnt6z
t82UoesHgfxp5d+VdVl8IRIrSopwlfMF1Aee/+aBHSQw5gusr43gKnP88OsEB7YB
6P6aL67ZXtExgnV65fl1R+cAiFHCNlGrJGGRQl0QOY0PtWJSqSBtYy38QnMfjxH6
V//JcvBGs/akYKo3saLHfeknnyeR17YlZO42F14dnDPbVLspmeFFki2srODz2dqP
70akvxarC66mXQIcYAIR3KcbEvTLJ2L+4fmqkmy/9/jfmGK0ikVWc8S04AB6GyqJ
/tS+eO+bmBqdbJsJ3ZLMtMPineXXgaVAlDg/1hAFjizMdwfaTpa4Spglce6sYv19
vdt21dgEYerdAmH2Wmx6W+3gY4pAKExrKRRGLwkiA6iDX/xXk836By25opnAHs2N
rZcKFEAunx7PICbWOjhz/xNWVWv7oVRI6BJPtGnJYL6pE0TXE1AOByBVCy3YQW3d
H58wP0xM0SSbSuVb/eRGnrEozqjjFLZd4t6Z96l0pJXgoob3jCiEaGV9a/LAcWWw
gkyXukwWJU3GUe8xX3LN161AVezV8ZYDDDrwxJr8dTTuDLBm5RAAkIHIxOhuAFX5
xAvcjrk2Vh/dQhYAICyI28HOKoY2Ankcv9IJL2nUj1OeU2U9/pAnaX5Mw2KNATA/
ihu706D8pcW+8Vc5267TWsH/ii33A78p1RCE3b48NfLfBlWVlzOi7Oy+/2nBlzt7
GaAPsjH2znjHjK0j9wWVnnbxh/h+Jw288/s0PlqOWTV/42Uqh7pTwX/qTSRLBwOv
nKeZz3TL1nfORo5iIecutdDgY88Oh73Ce7/EblRGPAfu9G735zcLM3SLrAJ2hdei
PgghwBoz6bXjJ7uJ2cfjaEc68qsTtNOoTsHbVWL7OOhAFFesoyyBfvn0GByAl5rr
t3huyAioKDEbfeoym68LKS7zKs+Xar7S90awjTeLHwZUg5Lz0yaHoexwoyqjr9yv
LMG4Exu0zd7ANJ6gEprjbiNVNSw+49b31bq/wWyDjo+a1F/wlHRcbHFLTW/3b30W
VstkZJWF41i7SkUx1ElywIpQVu9aXYFd5bPMd/mrsb/akRRWnq5NjFRgsXf/hRKu
W4DOK3hXiSKlbkLlY8g7JcjVmO3vZUINXPUjwGX9A0gS4NTfyu6dB3RDDNL5Jo/w
Ff9JsDNyr4w+tDinXOorphvTZdGNn1I0nHDE7VPsuoWoQVEvTWZpWKFlYKtkuOre
R0EcE2viVtZs7FSbOP8zyGYiuqP9szbCw7IEGAEIACYCGwIWIQQdcwiwBV9a7zaU
So8nqcJNlYjqDwUCaGAnYgUJCNfMgAJACRAnqcJNlYjqD8F0IAQZAQoAHRYhBKjO
FnkU7uIyuSN7VBDKxJYuA8fMBQJhaY5HAAoJEBDKxJYuA8fMtz4P/1BsQeQARO3Z
9/wzI+76qg1rwb5iU8ODo9hYiMrfJkgU/05DUYXkZY4Z9CuYeg6MPiocnPBMykaX
/12ltxOrnAD15Ibzv3i/jU11brth8J4pPixNMRvPKtQ74Z7es7fNlKHrB4H8aeXf
lXVZfCESK0qKcJXzBdQHnv/mgR0kMOYLrK+N4Cpz/PDrBAe2Aej+mi+u2V7RMYJ1
euX5dUfnAIhRwjZRqyRhkUJdEDmND7ViUqkgbWMt/EJzH48R+lf/yXLwRrP2pGCq
N7Gix33pJ58nkde2JWTuNhdeHZwz21S7KZnhRZItrKzg89naj+9GpL8Wqwuupl0C
HGACEdynGxL0yydi/uH5qpJsv/f435hitIpFVnPEtOAAehsqif7Uvnjvm5ganWyb
Cd2SzLTD4p3l14GlQJQ4P9YQBY4szHcH2k6WuEqYJXHurGL9fb3bdtXYBGHq3QJh
9lpselvt4GOKQChMaykURi8JIgOog1/8V5PN+gctuaKZwB7Nja2XChRALp8ezyAm
1jo4c/8TVlVr+6FUSOgST7RpyWC+qRNE1xNQDgcgVQst2EFt3R+fMD9MTNEkm0rl
W/3kRp6xKM6o4xS2XeLemfepdKSV4KKG94wohGhlfWvywHFlsIJMl7pMFiVNxlHv
MV9yzdetQFXs1fGWAww68MSa/HU07gyw6EcQAKTo+DTXXMV8bRuuBMVsdLXlI7js
LedAoETHv9Oji3jBI6U3TW7YSzRc68eMfl4Hnqod4qys/MURNcKGVbFOeWwoZ3Pb
qpCYQganmqcP0+NwBMFfYMEwGXq2lTB9Sm/D5H0fZXblcCopfEpvrszKVZW987tt
GN6evpIKD28TSz+G+vEDe5qwSRjeZYN5PcMA+TVHWC1VWdK03qoP+EkMPOa1RMWx
H0WQJ1q/MkICfMzu9v1fljmIzwIJoD0sQcyIwjiY6BvQjF7U41dmDyWx1t3NeiOx
iDw5GQSAl8ztuP+rE9fPxkCF6X1cR0IRl5duX7KJEirXbWD+7hrsmZTluiBcPpSc
srYIXCsUto6jDpAxqSySe7RlY4qIn++lVrq3GYHfat0ZloNU6LqwMXh9Iyvx7XAK
lL2EqCM/i/VRZHqIEzDvN9P46jpJDRL+pYBlKzmNoGWUfZDM/Y+nkCFA0JKvm3Oa
kG30b21ktBStQwmKR0U0sNA7lq/D8tMb2E3MCB1iz693znFDC+PII1vCA1Y1AGw6
YuruplK+A6ukjAk35y5WqX2schszSXe2HnoVBKWeRTsRvYcte00+j5KPavkbS3xF
9gBvjR1JV1CrUZwdfV88eL9Jjl22n7SUQimL7ZLC/04KtTbFj+lYBmZ49go0y1jg
E4WA9ONjeQ/fXY9MwsOyBBgBCAAmAhsCFiEEHXMIsAVfWu82lEqPJ6nCTZWI6g8F
AmaCWjsFCQb5/2wCQAkQJ6nCTZWI6g/BdCAEGQEKAB0WIQSozhZ5FO7iMrkje1QQ
ysSWLgPHzAUCYWmORwAKCRAQysSWLgPHzLc+D/9QbEHkAETt2ff8MyPu+qoNa8G+
YlPDg6PYWIjK3yZIFP9OQ1GF5GWOGfQrmHoOjD4qHJzwTMpGl/9dpbcTq5wA9eSG
8794v41NdW67YfCeKT4sTTEbzyrUO+Ge3rO3zZSh6weB/Gnl35V1WXwhEitKinCV
8wXUB57/5oEdJDDmC6yvjeAqc/zw6wQHtgHo/povrtle0TGCdXrl+XVH5wCIUcI2
UaskYZFCXRA5jQ+1YlKpIG1jLfxCcx+PEfpX/8ly8Eaz9qRgqjexosd96SefJ5HX
tiVk7jYXXh2cM9tUuymZ4UWSLays4PPZ2o/vRqS/FqsLrqZdAhxgAhHcpxsS9Msn
Yv7h+aqSbL/3+N+YYrSKRVZzxLTgAHobKon+1L5475uYGp1smwndksy0w+Kd5deB
pUCUOD/WEAWOLMx3B9pOlrhKmCVx7qxi/X2923bV2ARh6t0CYfZabHpb7eBjikAo
TGspFEYvCSIDqINf/FeTzfoHLbmimcAezY2tlwoUQC6fHs8gJtY6OHP/E1ZVa/uh
VEjoEk+0aclgvqkTRNcTUA4HIFULLdhBbd0fnzA/TEzRJJtK5Vv95EaesSjOqOMU
tl3i3pn3qXSkleCihveMKIRoZX1r8sBxZbCCTJe6TBYlTcZR7zFfcs3XrUBV7NXx
lgMMOvDEmvx1NO4MsKkoD/46T/mKFOrHLky9/MPmNSeX3HsQttskCqvn2nbYgN9u
kkpkjBbGsFYFEY64/DqsDy80VaxXKUUn3i4jQhJvXb7m/tZ9M8kyp69J7wLXlBMx
FIe2hzODRf37ZABkD/HLNuYPARSF/i2FKKGqLnKKOiNXvJ8alLgg41sJOXLyt1Fe
0C8kyB3R4SbhcTyhLgXycDOdXsl96/XSN5slooMtO0y3G6fdN1q7UvdjZJ5CjxPh
Y5E/rRM2jYw7m0uii4sYFPBcTGwG1/oMf1JYfK0ZWNclOgBQ8mfAT+p5tf4zfgRb
RGtHmHCr9hHdBVrTB5y0GGX90u5U+zNb4eV/zHMhU4b2n+R16SBsqaLPWXnVYbEj
9AyJjS5swQabsv4kMppE7iOUHmKvGO9PhyVrVsl6hyDSKqhJ0IywUKizWkHQ0PoH
n+BIxxuZmKCEfViG0GIfWJVA7gSI3++HfNelmzEp4OkSoVamSGf5pYyGtTfZKu4C
qtWvC1AYE62SWfb6/P5nSlVFW1rdUGRi+epMh4OwNVdVDOHxqTCO1wot4Y9d48Z6
lDRdVZF/oIRxK/6IoQ0ZL5RizlJ2Wt/VDFW46Wx00EET3BlF2x5hfLiiVSiGna6X
JKoXrO8orgqurF5hJKmF1a0HXaDpHo7A5jQrzr8qVpZYi8+PXajTB1mPuZHbCkto
t8LDsgQYAQgAJgIbAhYhBB1zCLAFX1rvNpRKjyepwk2ViOoPBQJkp/3JBQkFH6L6
AkAJECepwk2ViOoPwXQgBBkBCgAdFiEEqM4WeRTu4jK5I3tUEMrEli4Dx8wFAmFp
jkcACgkQEMrEli4Dx8y3Pg//UGxB5ABE7dn3/DMj7vqqDWvBvmJTw4Oj2FiIyt8m
SBT/TkNRheRljhn0K5h6Dow+Khyc8EzKRpf/XaW3E6ucAPXkhvO/eL+NTXVuu2Hw
nik+LE0xG88q1Dvhnt6zt82UoesHgfxp5d+VdVl8IRIrSopwlfMF1Aee/+aBHSQw
5gusr43gKnP88OsEB7YB6P6aL67ZXtExgnV65fl1R+cAiFHCNlGrJGGRQl0QOY0P
tWJSqSBtYy38QnMfjxH6V//JcvBGs/akYKo3saLHfeknnyeR17YlZO42F14dnDPb
VLspmeFFki2srODz2dqP70akvxarC66mXQIcYAIR3KcbEvTLJ2L+4fmqkmy/9/jf
mGK0ikVWc8S04AB6GyqJ/tS+eO+bmBqdbJsJ3ZLMtMPineXXgaVAlDg/1hAFjizM
dwfaTpa4Spglce6sYv19vdt21dgEYerdAmH2Wmx6W+3gY4pAKExrKRRGLwkiA6iD
X/xXk836By25opnAHs2NrZcKFEAunx7PICbWOjhz/xNWVWv7oVRI6BJPtGnJYL6p
E0TXE1AOByBVCy3YQW3dH58wP0xM0SSbSuVb/eRGnrEozqjjFLZd4t6Z96l0pJXg
oob3jCiEaGV9a/LAcWWwgkyXukwWJU3GUe8xX3LN161AVezV8ZYDDDrwxJr8dTTu
DLCjOw//U5kvJu+vI65uh0QeOs9l9/KdJbHov1aDQEbAnfezGR6i6qpkyCdqy1lc
yWSlRzAZXCHPlh0CKP3F2cf1Y40fra11dCblWJc4E3U4NktBhi3ItJ8FgIKK5VN+
TlDtLvyMI0RV6LcDYfnEL8kSCYvvzFH8+hPO8QEMDPy4F6uTa5zIK3dtjFzHK39o
wt29SwSJ7GSAOr9NSgRWbwfVFoUxc5UHT9rzTA1QIiyzmup4CiLWPQfPLISrmn0D
LIjin4cAHh+lICfAwT8mVBy18xxOrHCHkPficr3hl+nZ4Va7XHB7rrR4mR7D6q8m
VHEJz1ZHAzcWmmkHIw8wdkRDM+lIY/v6ozN9yBciZ+yv6L+ynx9tS/EzraClV+J+
YLqilFd2vW9+BOtKEHlR5e/7BUCbnZGB1Tg/jTgnYbDjQIpKEhQgAEYhaHgsME0O
/4hjbbdeYV60uE3wL+LCBvQqd0TovCTqaUF1lS7amFQzQLMxNm8LS5tptSSIO3i+
R7DyAqJKZi4ibgXY6Q9FO80IrsyMESUkk7g++Ll8S32zh5G2aHLMKbXsBDtIuNVb
EXQS1+r/nAnOniaJlDHcMxaZF/fsDRyKLEOLYv4Jug7lUE/i8FE48t2QpIo1jeaW
Nk3tbjxaRgymDKLA1JTRAhH3vJvo/lwxfPB+qcErEb+HBBl98DLCw7IEGAEIACYC
GwIWIQQdcwiwBV9a7zaUSo8nqcJNlYjqDwUCY2EkYAUJA9jJmQJACRAnqcJNlYjq
D8F0IAQZAQoAHRYhBKjOFnkU7uIyuSN7VBDKxJYuA8fMBQJhaY5HAAoJEBDKxJYu
A8fMtz4P/1BsQeQARO3Z9/wzI+76qg1rwb5iU8ODo9hYiMrfJkgU/05DUYXkZY4Z
9CuYeg6MPiocnPBMykaX/12ltxOrnAD15Ibzv3i/jU11brth8J4pPixNMRvPKtQ7
4Z7es7fNlKHrB4H8aeXflXVZfCESK0qKcJXzBdQHnv/mgR0kMOYLrK+N4Cpz/PDr
BAe2Aej+mi+u2V7RMYJ1euX5dUfnAIhRwjZRqyRhkUJdEDmND7ViUqkgbWMt/EJz
H48R+lf/yXLwRrP2pGCqN7Gix33pJ58nkde2JWTuNhdeHZwz21S7KZnhRZItrKzg
89naj+9GpL8Wqwuupl0CHGACEdynGxL0yydi/uH5qpJsv/f435hitIpFVnPEtOAA
ehsqif7Uvnjvm5ganWybCd2SzLTD4p3l14GlQJQ4P9YQBY4szHcH2k6WuEqYJXHu
rGL9fb3bdtXYBGHq3QJh9lpselvt4GOKQChMaykURi8JIgOog1/8V5PN+gctuaKZ
wB7Nja2XChRALp8ezyAm1jo4c/8TVlVr+6FUSOgST7RpyWC+qRNE1xNQDgcgVQst
2EFt3R+fMD9MTNEkm0rlW/3kRp6xKM6o4xS2XeLemfepdKSV4KKG94wohGhlfWvy
wHFlsIJMl7pMFiVNxlHvMV9yzdetQFXs1fGWAww68MSa/HU07gyw90QP/39mKJXc
CpGhLSePFOrfzXSk8V1m9iNSGm6ecLIiuuNqDRGzzPYEI5FA0Lbd0ZkfaOtx7Lj1
d66KN3xD/VgEUsqeDz9HSjWyRgwYVcjzvCT/vLWeaokq4Kc6bX8u+8JRBqLHi6c1
i99hF4nIEITUZESoDdDP4sErRaY0tHLBd4RK57khScWxPYXHthpLn40Lh8q1+6IH
HM0iBCbx/cTZfH2Beh7/s8/njlKSh6rodhjT/Cy5Nzbh9lrgTrxqOGAyF+pT9Xpb
wrSoKQNp4IKXd7Zj1kp9mn/QjXtLxiA8iVfDX2yj6F4u7Pa0wqvULz4V/tgw9aJK
K+zFKOhHdkEzLxe403bRRJSUf2etXuxk1PR4EM8o9FOQ4gNiHs+p2VI9l9DhoYHK
/YHJxYqtnnF7YXfeyDUwF25cE+oOu3SUi/yED2xOwhC7+DAUqoGkleWh+mT0kLLw
95Py5Cxwbr2moRD8+vJQ/Rniylax17iKci/bSO1f23SXsL0ezdiqWHaVq97MKDmv
6GP7P8yjWrToe7Z+0tSbqZ/JVSjokU1X+nQRs7kqqo8728boN8tMzjFrd50Iqc0x
9tR4FW2dPWGK5jeLrUvOAl71NYltLI5WqgqcCxSWnm544fnpTicKW/qR3QR2gATD
RL0+jMmgDjK461Y0YJLq0GQ3d/NKYxaqlBYIwsOyBBgBCgAmFiEEHXMIsAVfWu82
lEqPJ6nCTZWI6g8FAmFpjkcCGwIFCQHhM4ACQAkQJ6nCTZWI6g/BdCAEGQEKAB0W
IQSozhZ5FO7iMrkje1QQysSWLgPHzAUCYWmORwAKCRAQysSWLgPHzLc+D/9QbEHk
AETt2ff8MyPu+qoNa8G+YlPDg6PYWIjK3yZIFP9OQ1GF5GWOGfQrmHoOjD4qHJzw
TMpGl/9dpbcTq5wA9eSG8794v41NdW67YfCeKT4sTTEbzyrUO+Ge3rO3zZSh6weB
/Gnl35V1WXwhEitKinCV8wXUB57/5oEdJDDmC6yvjeAqc/zw6wQHtgHo/povrtle
0TGCdXrl+XVH5wCIUcI2UaskYZFCXRA5jQ+1YlKpIG1jLfxCcx+PEfpX/8ly8Eaz
9qRgqjexosd96SefJ5HXtiVk7jYXXh2cM9tUuymZ4UWSLays4PPZ2o/vRqS/FqsL
rqZdAhxgAhHcpxsS9MsnYv7h+aqSbL/3+N+YYrSKRVZzxLTgAHobKon+1L5475uY
Gp1smwndksy0w+Kd5deBpUCUOD/WEAWOLMx3B9pOlrhKmCVx7qxi/X2923bV2ARh
6t0CYfZabHpb7eBjikAoTGspFEYvCSIDqINf/FeTzfoHLbmimcAezY2tlwoUQC6f
Hs8gJtY6OHP/E1ZVa/uhVEjoEk+0aclgvqkTRNcTUA4HIFULLdhBbd0fnzA/TEzR
JJtK5Vv95EaesSjOqOMUtl3i3pn3qXSkleCihveMKIRoZX1r8sBxZbCCTJe6TBYl
TcZR7zFfcs3XrUBV7NXxlgMMOvDEmvx1NO4MsB1vD/96S56PU8vgAr8dnH4n7i/2
kqQcAGTurEX1RksR4F+TCUiyKwo9I0mJNO8Gmq/yj6XPP5ARY3w+PkGNZDLaUiJd
3CAZS5l6T0t1f+BnMCOCvQQ+KxEWwD9FK+vLBkQranHAO8z6eqC+iD1dulMnXwjh
cPD0AcSJjdx2TlJNAVDAhVPtVSk6+nZIPs5IOyabLFmMBFM2VXlVGM9smw4Ieawl
TYJFBmiMsqeEtno6lvbzjrLmx3/kcvfD9l31GzYwVjTO+VNhd0VBcuGdIlKGzKiz
vzPdyJj4NMBR0ow+sFy/ldIGO0aCmhPQ8W6EzXgUP1Hj2U1ebGdGZWktr+p2ZV3F
HZ1yShjXINhdLfVthLa+xSQP1gHTh//V7RoYuiv/Rb0xtlAxucY9G3hTTvBrmB9c
KNEEw3y9uFXDkKP58zVZbB8z0Yz3dpX+DDpd0TQwBuR9kiteE7NBj5rxZz8rsfy/
2K9GQIeC2suzmXkF4TH2uw2ERc1+1+l5aozZslLRx4+QsrT44TY9Hl63AIcQ8LWg
I2sR8tncz3JgvXAmFqvDt0mPn1PlbVacpkh/QHZrWQ3DRMOgDuwTI3Plofnmnxve
LGynEwVh5hc30Hlbc9HxOZYYjPzjD9xQetSf//6YRkL1utBxJq2C75zCPVN8Vd48
/hQTf/5wzpxUmxyPvW0zP87BTQRbdTd3ARAAuKPbjBFXv5rnvV6uXGfjGf73Av3Y
PcR1eWES15Whnc9DzvKnSQr9KFlv4LqEOlNFK3xNGZZ8KJ7Noio7EHv7W4lpB6o1
JK4JZJXzldrncg6u1PY0QWZxLjALdcWCUF2uIjKGyIIId7a9/QnTiXvbWL9EAYWo
2P61uC6qAG0TVRMWSebonYX0PBM7Osr4V7Jw+3dqeZ/uLpFq3vtxAQHLefSqDZej
aqVX481oEMfUDyLSgBFkApW6773LYN3XXowqX3XGVRnn1VS8CqtFqQuTUnt+XT2X
xcgPnZXH4+IjjQEiTJaP+tIRf+tgTw6qNzYtV/oMUQoTHVJMiAN1nyOs+gU7dcL1
XOiFjEDbvyyOzdFEs19gd0mLoQNb7tQ9AsLMlZf9H4B/AWBT7iIUY8hFS/MYwiwr
XyblfQPhcWxGpGxTFcy1CGquBy60krq03KlwQAd3tuGMdZld9AxIF/A8nAEP9Aqz
vX9/MkMKEKmYqVuEPnRzVXWuLo/kpKbhlriUIJRP4qnr6e3fNC1qDSy0Bcag0lSc
ZJ+wrK+yJhK8HK3ZuvuZGzjPWbhrI4yAc0JWJredE8SbQpxGERq9E12uvB6LPZ95
FRZwHb1FiiF/qujKnvGwb9Lykqda9UZXMPu/KLTjpzXHzP6o2mzRyeHbJMQCrFKG
FK4Rpm3O6KVEjdsAEQEAAcLDsgQYAQgAJgIbAhYhBB1zCLAFX1rvNpRKjyepwk2V
iOoPBQJg70FGBQkHWz1FAkAJECepwk2ViOoPwXQgBBkBCgAdFiEEcNcUXy81xHRV
AYKaGyFXj8Roa/4FAlt1N3cACgkQGyFXj8Roa/6xlA//TvrqtFW8d7W7M2z2VLOf
vtsXet0F0fWkz9IsaMU7uXjnNvSnZB+CGVm/rQmVT2myy6JqcatEXISZ8bLTomTx
tsNt5Ica7BunXYHRRCQOpwpLEmG2WsytZTCsn0ojrMvQ03mxzUhycP/pvVU6GnTy
3acV/noey4d+1tIWmsqW3IPNZ98ctVMiu0/TnVSullVNShFqQzor2LzhikPkmcBn
9XuTzaHZh2ex1Ie6eLnl8U4l1VoY6lB8TLIQO5QN8kQaU3YG4u1dt/Lrz9TKrwxo
tUR7wcc3jAWS8RviaO2DYnro4V840FMay4OCUZQda9llNyWeGFZreRTpkx5IjTzm
fs2dTqVzbcnzRqDSoekVZVuSa2lnkCUxIAbuiaa2xQ+f7QTiaOQ6E0hqKiVIfXMH
tTpsKXTv2Qj+rHuxHgqPSWoWKrXzhW9maLUspz8bFnnpJZh55lZUB6P56XMyI8Mi
eVjWMK3LRmLZ9cRTlENJiiAzlMXjlHflNxWCjAFVfe7hT9O9RmLAItRavZCtklyU
dlz9lOF6rPQZ0uvxS49LqSK0GH9RFugxmwkU9LxPIYrUwNUlQsgyJgXllP5hJ0tH
eHqI+fukX41Dg+wfTXukHZm1h6oe+SidvNFfbaTOmTxclO6eIn/Hy7o+Ds6GZ85I
wy68a6Wyu1Zy4KTA3K6dSJmc8g//UaG05Mf4JsHdEXB10GMh+WevzFlG8VsE0aKL
AV7Z3NdDwo0rjH6U1I2zVD4ON81YZ9LkucggYTsvPfuBmCq6l34XWj2uQGOirgJ1
IiDx5wv/xiYOr4gXu8poGV71iGNdNHM4K6leKlRzpm0QXKBkzrrMxG2jW4QMHtPW
4QBHGyELAWpo46iVBSTSSyB7/bPMY4SWZ+RClLs14/2+/08yZXn8hVUNqT9QZaLz
MQsNJjK23J7o9iWIs3iUOQQ6k/P/8lxikZUQSKley4rVm2zv7LLu56KGJhl+QKNt
NhCdQcowIHVbPIBshT9v8f6I5nV0fexhbDSQnj142EmiNxkYXrHqu+0mScBU7vMo
nSTsALceC5oQPVJM7KbePpdrlWxEkw2bM47L9xyk+j10hlIZN2JG3qgl4SHlfred
osUvvuZhIasasqOV3OXmqwp2aDR5g/uQXnFUcfeHwSDxt1no44d8xbkI+R8TO3VG
DN9IwpBCiu9HkRz5Sb3J9L0zcfBQoUqP1HRaccaCukELpOx4MMhBVNZuyrDFDTuc
oP+dVPRjCST/qdChHKll3dWzcQi1eCj4XzJ60jCPmT4ktVN8vlppeb+onrtjiyvK
esKl7axipTfyNpioUUKeWm7sk+bAzja0wNgPmHgHFn4mouchuC1Le5sReRFIb5Qg
l/utTz/Cw7IEGAEIACYCGwIWIQQdcwiwBV9a7zaUSo8nqcJNlYjqDwUCXw6nDAUJ
BXqjCAJACRAnqcJNlYjqD8F0IAQZAQoAHRYhBHDXFF8vNcR0VQGCmhshV4/EaGv+
BQJbdTd3AAoJEBshV4/EaGv+sZQP/0766rRVvHe1uzNs9lSzn77bF3rdBdH1pM/S
LGjFO7l45zb0p2QfghlZv60JlU9pssuianGrRFyEmfGy06Jk8bbDbeSHGuwbp12B
0UQkDqcKSxJhtlrMrWUwrJ9KI6zL0NN5sc1IcnD/6b1VOhp08t2nFf56HsuHftbS
FprKltyDzWffHLVTIrtP051UrpZVTUoRakM6K9i84YpD5JnAZ/V7k82h2YdnsdSH
uni55fFOJdVaGOpQfEyyEDuUDfJEGlN2BuLtXbfy68/Uyq8MaLVEe8HHN4wFkvEb
4mjtg2J66OFfONBTGsuDglGUHWvZZTclnhhWa3kU6ZMeSI085n7NnU6lc23J80ag
0qHpFWVbkmtpZ5AlMSAG7ommtsUPn+0E4mjkOhNIaiolSH1zB7U6bCl079kI/qx7
sR4Kj0lqFiq184VvZmi1LKc/GxZ56SWYeeZWVAej+elzMiPDInlY1jCty0Zi2fXE
U5RDSYogM5TF45R35TcVgowBVX3u4U/TvUZiwCLUWr2QrZJclHZc/ZTheqz0GdLr
8UuPS6kitBh/URboMZsJFPS8TyGK1MDVJULIMiYF5ZT+YSdLR3h6iPn7pF+NQ4Ps
H017pB2ZtYeqHvkonbzRX22kzpk8XJTuniJ/x8u6Pg7OhmfOSMMuvGulsrtWcuCk
wNyunUiZuK8P/igKtIbjJU0Zea8BlWuzuf6LrbxT/JZiL8gDL4R6t+zQfhr7fhVY
Gw1Ei3Ixua/wJ4C/0rcC/0M9+0MZq4zoKGLRGXFVmYFxdH7t8ixHBOfgOOr6ZCyN
rWV5GlScCQ0hCQ9TtE5B5j7g/gV8xRIzLef10EiueGcVDLM6NmOeAgTBVAAg1zqK
mvd4jOwenxctaXhT/oUyNStc+Yh2FzdDnwGka3aVGYIfAuwwh1HkvA8Jb9bqIAta
qIzxeH7ig93OKqrHebR0VxIy4+Ug2rna50kd8YPAvRHaEYyTTz8jFB6UVdoQaNDb
XFU9aSpghkEA8TBFfyC8nTplQHAqEYS1hYGbkb1lqVV0N8oOi0rCiWvNIk7UZkk6
Uy/uS+O7X5xU0r3TYKjP34k/rR26zaSVDsjusC6LJqoiCCOc7L/OJOpvHsqbzWL+
Y0MxAcm0rUk64mFWUjr+EqMjUGvfByLtQHKdMqyak4plHcZzvxe6W2hPhzk8Jo43
h2aqqi4qMEVR1m+UGwmJnpV+VTglvtJYpKY2gwaQXdxp4Xlsr3TxAyNnLkkvEFYg
wfPwLfjUnZn7+fn0RuPYR6/NsWwGjBPLuttIVqGhKhCiP0nZ9y9lnZ74gjRD8WAG
P7V87IB7swzKcxZayJ2zJvGntFN27vZF8yVGCu70ShiGEUiD1/5rFj5gwsOyBBgB
CgAmAhsCFiEEHXMIsAVfWu82lEqPJ6nCTZWI6g8FAl0//roFCQOr+rwCQAkQJ6nC
TZWI6g/BdCAEGQEKAB0WIQRw1xRfLzXEdFUBgpobIVePxGhr/gUCW3U3dwAKCRAb
IVePxGhr/rGUD/9O+uq0Vbx3tbszbPZUs5++2xd63QXR9aTP0ixoxTu5eOc29Kdk
H4IZWb+tCZVPabLLompxq0RchJnxstOiZPG2w23khxrsG6ddgdFEJA6nCksSYbZa
zK1lMKyfSiOsy9DTebHNSHJw/+m9VToadPLdpxX+eh7Lh37W0haaypbcg81n3xy1
UyK7T9OdVK6WVU1KEWpDOivYvOGKQ+SZwGf1e5PNodmHZ7HUh7p4ueXxTiXVWhjq
UHxMshA7lA3yRBpTdgbi7V238uvP1MqvDGi1RHvBxzeMBZLxG+Jo7YNieujhXzjQ
UxrLg4JRlB1r2WU3JZ4YVmt5FOmTHkiNPOZ+zZ1OpXNtyfNGoNKh6RVlW5JraWeQ
JTEgBu6JprbFD5/tBOJo5DoTSGoqJUh9cwe1OmwpdO/ZCP6se7EeCo9JahYqtfOF
b2ZotSynPxsWeeklmHnmVlQHo/npczIjwyJ5WNYwrctGYtn1xFOUQ0mKIDOUxeOU
d+U3FYKMAVV97uFP071GYsAi1Fq9kK2SXJR2XP2U4Xqs9BnS6/FLj0upIrQYf1EW
6DGbCRT0vE8hitTA1SVCyDImBeWU/mEnS0d4eoj5+6RfjUOD7B9Ne6QdmbWHqh75
KJ280V9tpM6ZPFyU7p4if8fLuj4OzoZnzkjDLrxrpbK7VnLgpMDcrp1ImXNcD/9h
RzLo4SzfUF3/J/roKKJB4ZnrHPxF8SKBf6fbvFwTnFpGiTgkKUZ7H9Fg2xoKsY+w
Z498B/Ipu8l/GTiAMSXD1dsYBS1zmYNUaCnVq60A2UwyKi6sHqZa17dAz3ZycXzs
q4EIEWuNL/mraggKzmo2N7LkjiEQ6UVDdy7yQbgLo5OFz8rDd35T1QLHwKEuDYFG
0TcKWii4kxeopmPLv1IAl/yT4XCEUlFKMhL2EIKtwIyBV59sqJqbHmwf94cmOKJn
3GPyY5c5vY2rq5dvITAkei+FScWHB/vzGzPtG7xfnMiAPkmeb6qVVLhbheEFvdvy
2FS4ZB/hEWJNGgekwAXiTUiPD0x7NhbDtcY0HtFT4TazXxSfL2wHm0+Oy7J+9lIN
2gyDhFhw74KMZLIyYygCG7ZvJir/4jQulUq6fcnaxSsrDNS6knXWru3B1XuAqgF0
ULAc14rvwfeuPXTXj1+qhMvjk+HdWjJsdjdLCKReNj+8NQFqs+BaGgZlhz7T05tD
JM7/4lMVaF7E0p2h0+8cwiqwHLLhjfi5QgdtDavKXdyZVqPEtZ8VT2sxWJcMo7Mg
EETPbYU7SWaoYAgpHN5Q3jon9oXt7JTlyn0uzRcPPN41ucLpgC2THnWB3bND3FQ1
deQ8yNh1OwEpwdix5ny9vx5VrEGaodVmqPR4Qa0cf8LDsgQYAQoAJhYhBB1zCLAF
X1rvNpRKjyepwk2ViOoPBQJbdTd3AhsCBQkB4TOAAkAJECepwk2ViOoPwXQgBBkB
CgAdFiEEcNcUXy81xHRVAYKaGyFXj8Roa/4FAlt1N3cACgkQGyFXj8Roa/6xlA//
TvrqtFW8d7W7M2z2VLOfvtsXet0F0fWkz9IsaMU7uXjnNvSnZB+CGVm/rQmVT2my
y6JqcatEXISZ8bLTomTxtsNt5Ica7BunXYHRRCQOpwpLEmG2WsytZTCsn0ojrMvQ
03mxzUhycP/pvVU6GnTy3acV/noey4d+1tIWmsqW3IPNZ98ctVMiu0/TnVSullVN
ShFqQzor2LzhikPkmcBn9XuTzaHZh2ex1Ie6eLnl8U4l1VoY6lB8TLIQO5QN8kQa
U3YG4u1dt/Lrz9TKrwxotUR7wcc3jAWS8RviaO2DYnro4V840FMay4OCUZQda9ll
NyWeGFZreRTpkx5IjTzmfs2dTqVzbcnzRqDSoekVZVuSa2lnkCUxIAbuiaa2xQ+f
7QTiaOQ6E0hqKiVIfXMHtTpsKXTv2Qj+rHuxHgqPSWoWKrXzhW9maLUspz8bFnnp
JZh55lZUB6P56XMyI8MieVjWMK3LRmLZ9cRTlENJiiAzlMXjlHflNxWCjAFVfe7h
T9O9RmLAItRavZCtklyUdlz9lOF6rPQZ0uvxS49LqSK0GH9RFugxmwkU9LxPIYrU
wNUlQsgyJgXllP5hJ0tHeHqI+fukX41Dg+wfTXukHZm1h6oe+SidvNFfbaTOmTxc
lO6eIn/Hy7o+Ds6GZ85Iwy68a6Wyu1Zy4KTA3K6dSJktiBAAi7+GDJLPYJElJYlY
6iMzAXLDc6va+BT4tEBX7r9vtq227DcVyxsTKDycqKIvPHo76yUM9W03nUV0ibqf
GefMYtjdMN1k2Vc2Nb9P/Ef7h1t/maS3UAqG0y0SJnisgqqa5QjVB5LNTcnN9OpF
anOaZHHZqPdkSEzOhGLOsmXOa95Eh+ecXLaGGxXRCz1Fqy1BbJVGutMjXL63ot4G
40Mii0GXDfcDVdwdhsaaayv2LEizAztumxfnzLO4fdwW+4lHjxdsmx72IP8tpwMi
xrhZqkliSgZmWfTsDi/8MkCFQrdGwR5jmjbmnwJGjaZdCpZfeHLtpOM9HV24BEip
dgAM5DOLoJcm4Km7didyqtlYJY/wYzHeNOEVLavhc9I6tgdBZ4mjqk6cz6unqqpu
6E4GI35N3mmWu5mQHIjZ9t643VmFEtuBRdhni0v1PObxl0LUGmtFWalAX6ZNnTK4
15F7GWtBNj62wF8IMmRU5BHadvXIudHXXgKV71DQCIwPyztIeQNoSfr+SYCGrL7M
VA1xd8jC8rOwIuy3v3kFq4KVLi/AMF4WeZR0FFAOtLzw+Yg06jaz8H1Qn1dr5daU
S7wZX+hZtBN1Ls/Cfyvjn6hv5i8arY6OifZTGuGsE/51NzkijjHOfKEhDer4WXYJ
TMa9ZMBwHGOg3zUJdOyyr2oBD3DOwU0EW3U4kgEQALmVbqZ1ETE2BbFFsFioPeK3
p7k3UBX0ZT/nIczPJe4bEGAHYf4ItxHgIXjBTj+QfXVHlQVObj3twj21YgKKATR8
b9M2gP3pPkLfeVOX0VYjY8skBqkoSm9dxKmep8vFyEhloYfAsEhcyyG4f71nn0io
71V5QiOU3sicEUfjiQsErdB59e+PPpVUcjp4yO1dcrnIKZno3Ag/cuCAVR4kPb8s
VgIcdqeHzkJ02NLDOfEDIYLMYjLQK4dD/dROG9yq5M9hxaQs8LqXe/Os83UDzyir
8HJehsfmAUoUGQYfiPC1NPknj5A07UW2HFkU2cVAUuLomAgAtS/qVEMJemeLPRT1
FrKN4IXHCVP7u12+5XSEWHqPEOoFy67h9HUA+SdRNmbgHUxXHFFkiGZaL8HK/qT7
OwT/PsdY+kqB7laySxxUTOq4A0hupb5pXsgZ+/Wkrcdov9r9FP9Pb5T8Elo+jHyx
XHBGgzfdC9VmioT2ZG38d54RV7rGbOSRc93OWO+1TMTpmlcibYHBKq85UPPXxufW
fJgEtYtELo6SZ/Mm1e9fcCOY6laKUQgBgbc29dFYpOLNm+XSR0vJNbXglI3FVusc
Of+pPlyqIRT8KpQ52XvcsAbfPISPNW9De1vNrnqEKjTWjKKDER28H3ak4SMk4R25
CrPKkHjD9hlLBt7zOK1fABEBAAHCwXwEGAEIACYCGyAWIQQdcwiwBV9a7zaUSo8n
qcJNlYjqDwUCYO9BSQUJB1s8KgAKCRAnqcJNlYjqDwNpD/9kchmspmi38JMl4QdD
tgiagDTx3qYQLcB+8yLH2s/XhgoinGhaeyxQ8bAIPn9U66Zru2Fk/5TjBub6CYEO
IsnQqR6f4FPz9bOdPS4+3L5IB1KbynUUyRX6iPKvq378ABJHy4VubKeuSLFTDWLY
aZDqmgKhsjJEGQYXYSn5oFPgqZ7S4MrC9/ezclIcCotitNf6qZD0+AyxiKqtRVJv
61YM34f5vBkyfacsrGdE+dg8qR4ckAISZWLKu2KbDoCcG2KS5P8oq/f0fYT+E/kA
HwoVKtyZfw9b9EmGEH++QmsloCybaLTMEOF1Gj1Xu7pdQGS1ERt+pHU8fI3Wa81f
lM/DKUc/VH++pQSulcySUh8Mtl1cwZ6C0GSDy0D42FGWun1Q33gdDYBFhMVxySWL
51BXgfHKiuX9ZFz6QaE6+Hom0SR5Mcr+xehFeLLDMd1aGOm4JhhMh/AbWXelMdO8
nv0Tny6U28FYEJdvc1vNCCw1nmw9xzU+15CE4o28Afyx1HLuSTRhlVa0xzKyoo7G
1w7xfYKdSo+rkdfdCmHcq0jYhTyJWJwTtffqQS4dxkt+mWpOY+X+5JiBM7WQFMrw
nlO72QnnDPj2rlgJ/w6peHvxPUPNJFVRfmmub8Cmq4BTTbUKwwLOEU9ghBLnXnre
51ltZPF12c10W+dOfr3N9/d1zcLBfAQYAQgAJgIbIBYhBB1zCLAFX1rvNpRKjyep
wk2ViOoPBQJfDqcOBQkFeqHtAAoJECepwk2ViOoPOVkP/0DP46Q2jqQ3OHEq6DDo
3IYW83sKo0s1WbdDD9R0vvsa3NfNi/oKgByoRWHySl1JaSjc2KDFLL3xSZwwvW7H
MkgsxxjGZQbX9i/4rjKl+YN4mlv8ClyKrGSp+kjfFEjYJEZwDTvrlTAzg0jfFRcH
kGUYnIdgEn5cIDpqlf3unVdTzFgLO8kXQBDeMCfVd4mUUNWbukahgyVBQdXm5guk
KOBLwTgyUzR3RJLJCHVlG9gtvw9USlkffIviZsk0TrfEr5HBHtntqGqF+oTmjMQi
e51YnP+twylkfP84XWcfzRHY2H06JAHLgY8OLE87/fBQ/Lxz+UWGNhj/DUuhuVvc
LLu7H4nYigRQ9clb7ieCpfJTqldC+JtRqdvvuQoJi+hX3yPcSJBJHnJl6PddJYl1
Hp9lrWLgfebDer0y4gAfAYXfYtjp79K3a+WxxG+eCL3S4wk0kOi8i36pn4WmFZ81
9KgU2N1Bseu4wlpHONykM7QMrzArLQ6GhAmAtK9t/jntckjzV0CIDkAbQpPBKeoh
bvFfhk9jOn1TXbx4K5mpUTJlM5lDop6MmqvjS50SudLnhMklLS1tLKBuSi34VQJw
evqQtt8OJfSuxsH7e0Fpj8dRjyzaUQqsRoNdZroFWUPThhIuoevd2F8s6GaYoWii
8HHHvggZqxxeMGUJFqPreRovwsF8BBgBCgAmAhsgFiEEHXMIsAVfWu82lEqPJ6nC
TZWI6g8FAl0//rwFCQOr+aEACgkQJ6nCTZWI6g8AxxAAm9gnkp/Mven0xMucUOLg
nhKguKSf8vCngXTvSOBKdF8tFTU70v8vplI/rIE1BeEsYLE0i1J1bClQLUGC+MKU
gQ+Vicum6dL5qpimy/bzuL9nTnm85nV1aq+QpRtgNoon8hiBkNiQ8TAfQ2ljW+4e
VIPvK7cTYnpR0M98o3IZ0rwy3P+al3HOsocWPVu4jMNQeDiL/AiWTFQgijktfwKr
kRBiyjhGQNsROcNAscS2u+9KO6XfAAttMDsD2IkCezr4OuKcKlK8o7c+GUdGifAN
Qci18uzstMi7lZgWxDgiOcyQu3c1q4ITqt1YvA92iGZjB+NsVEJXswsJIhB+diYa
lGd9EmagIpfe9NbWoGlK4228qtHsDdm3xQZZownsUSX9pnPQ5m0kZ8HZPcZjkPuy
ou/CKgyq1u3QqkaUB1o9bNR1r4XCiLNeGA1k4tVbKCyAU7hIl0WNjUAGr/g9EU64
O3EyeZvKpThQayddnJgam3d7VjhNW/LgjuCursIJTodlqFvT7ClCXFVNgsfuQp8e
OBfhrK9z0oqETmr72vXaClDW/k0ixJS4utlzvzUi+r4JcbokWoOLTlhbw+tnOzPt
uIESrx/liyUEPFyl0xrUbJRoEzYXCQnixg1NxpxenP2yQI8dM7U5QQjwOmxMoRHf
Pn69bucmkhyMv6E7bFgntWXCwXwEGAEKACYWIQQdcwiwBV9a7zaUSo8nqcJNlYjq
DwUCW3U4kgIbIAUJAeEzgAAKCRAnqcJNlYjqDzziEACqc/EZYZhFU56tTzWAXvso
vDkAnqjx4oZqUWubG65uTpEFeS7vCs/QUbqqmfaGkuIZy+dojWHvV8QxgAiuptWJ
Kd3khRXIEED+EQthOXuR6Z4/7tGGnLhlwBDbdYmxVU6td0IIdbOdT8M1JIhBr4VO
Jvv3rC/R6upsjgSAj08LgWL+KXKkUng8x+5J7cKh5c6HCuMtvz0xZBN2OPWpbiWB
mvykzHS8dnNgKZsl1WfOcD+bciHloadkRMk6bwbTh9MwEz5680bnMkU4CJUCiqGm
gM1osPrHwH7t3nj90ZCjKhqvKYiFRwn7lNP4DLa7SuYu2yGe768/W4HR5TEOZ7/6
MsVo52xGipNs5crxkhregcdzbuXLNiacDExlZp8Fia467/tojYI9jMiEtHCNV55Y
O0BME+WtJHs20VtzwFiHxnwZBp7dL9K8AJivXMT4OKHPQfqxVd7IOSvkuOtvA+C7
+X06WxpmQSH+M/IULUXvqhAiK4N7+Hlmp27PhnnnwbSleztp+Fry5eWvuFhvIH/W
J0dVQ1eoaECfTNQJ2lXHyj0SSJ21LZC82DNRPmJTpTsfMVYf20aVe7iZfh9G/O1O
B3djAP2pi8ys15qGvbmRz5Gu/YoiDkSJmpJY9u0GDFfdA8e78jN/svvONnjwIQom
LD3uafkMkiE/TYVbW1vV8M7BTQRhaY6sARAA6JoiYJCDwJzs9c6bZjj/eLJnAhZs
H/2IFrr1w5WKgJLVdanmMg0959h2dIGgaVzn7VHYHdUCISxpIJSX2b0W1W8HNSea
IlnYZb7ePPgbGpFIkb856hN14xMIkZ/JzlPM8Ign/WI4kTAR13uL1zJbf+V0peQr
Q2HDntaD4rs+267uSUXL1apPo3zHRZjRHdRnoo5s+GVC1dQYPLt+Gm4G5gEh6flA
HBIow8AUf9PDSw4b5qEHoS5mqJlMUShyh8Web5ytAgP3Bm35tiRPxM1ctGWIFfq8
sBDkRXoWqQg2lhp3CLDDoy5vtgUrtyzc9oUBl2Iadkc+Y7U5ewyI9K4zz85mIzR2
bRaurWDBCL/BPVK3NevbyXkCzWMxfHxYX2J/gy4rKn6It2akLEeF6qS1Ex69ENv3
90WKyFL+NsZUrFjT+Qt41u0Qfy6LfpuL0S30JZJHmuoX1mxOu+kRSbKPsBPy3SQV
XMnR4vniwt0fyl5+U6T55UqHrFaQRttshaabruuEvM3oQImgpsolrJ+Ll+wI+iSM
0XntEobiD6E/n2GaapUiSCaulRWi7U78wDSFGZf97hx5wbFi58HkGKFRBkkzeIFL
KMMoAz22qPdmPPyF02J7zGdjDHqw7S3DSZRbDfQvAgnUCPbOA0boIJroY38pSgA0
5TrfKiTxymhGFqMAEQEAAcLBewQYAQgAJgIbIBYhBB1zCLAFX1rvNpRKjyepwk2V
iOoPBQJqQimpBQkKuc5iAAoJECepwk2ViOoPTkwP9AvKcL4uUWrIK72rAlr7LWHs
4D6Vz86BS4yV7M0vjMZa2ZsgpSJcOq2lrFmhRIM9BKoY6YbXC90P+LJqy2aONd96
GFww2/7MoD65cX09SWn3v5EybAsL7R2OJrBOVyapX5A9/xDeTzSYSDGt+kzlB7hI
S6OVekP3iGv+JuKBcNsw6OniSAzQvg5mwVWOS423lv358D5ZLXgrQrMqhsbWfGyQ
9xMYP7teAtuq7TUOj5+txlYgUPBRX8XL+rvip3N5xr6Ae2hSQvNDJTvzK07L0IQz
i0DnU8+ZCL6zBvQgv+yA9U90pqTtPHEI87EgilNj+hLuJ9O+/7kLioa4867PiiZE
tCfJ2wuMHsahrEOpdu1i/dJolpg1qnAxr9qLQCN5thlgpJ6PT8QBibZf9AHdzPnX
nbBOMTwamxnX93e9SeBRq/e5eNqTA5x0kkPIOaKR0MdaZkEDXfw6DvZGGUhzoww8
MPu8eFY6qx/KJMKag/vlUYs85i7W6fLAnh2634ugpqvALeduSsCjwjxwk2AuHy91
9fAWUkX40f7uEnjlUTZH6PTifJaEARblWspW7atsVX33SyC1mgyc1uxg6n3nEJ+s
C7EMfOqjXMGyTBHi//swAfhF1hHy82Fc+9s0cMX7s245ia8MNEJly2KX2bMy+UZH
I32pP6hQz1CyRnVEUsXCwXwEGAEIACYCGyAWIQQdcwiwBV9a7zaUSo8nqcJNlYjq
DwUCaGAnaAUJCNfMGwAKCRAnqcJNlYjqDxo6D/sFvAVFDKutozRUcoGNQRaZNf8i
6JUHAkkhKSuZC21twIQlkA2Ee492gAVL5KCVWCeviKyORsKJMlbpasrr7r7mHTxC
1NjGCqhOEBPuZbUEEmxK+HigUuBRmzycd4ha7/7twFH8S8BWs/FarTde2PGNsRHV
ROhIHR75wSUf9TQemcQ4AzbSptQmKFku2YDDFPjdF8rxpCcrmKk07dkC3ngsVh/t
RwiJqBtSeAWebUpmYfipUcFmKwFgiPsuQlnYb6SLR81ACwiXWWerCb3b9FsPsP/K
XmmIrcHll4K+mnqC73IslKipcPAdB9LIJN3R0VxyNHpZsD1FR39hpBRYE6kUmRk8
cXbK9+88Rx1xEVswXJ4GDZNcnGJA96JBNOg6ZmLJMGFTAeSSS5E3SnT98JvDtloN
pVPZWBXXF4yd4hAUNzE6bi9aDAm0RT6nCYpDRj62nlv+M/v9xsWGRec9ek79lkG7
WKlV/CyOvzID4IjCKAckxI2/ChVRvHQ8+WlBz6gUs1iSbsky8BNC2xslgInR92Cl
ZvUXdqnl/st+FROqNABIaLxq4t6LAp+BH/s88Ynev010+erVxJn6nuUmreJHwheT
YEaByQ4U103KEj7yhOLXELSDwkZkkIXWsuYH3Kitv2wSrLE8L/0DkNZ31tkf7PNG
rjs7g0PSIy48GUrc0cLBfAQYAQgAJgIbIBYhBB1zCLAFX1rvNpRKjyepwk2ViOoP
BQJmglo+BQkG+f8HAAoJECepwk2ViOoP3FsQAJyADVvIzdTx7ogkxpBhSiT0WNFN
6AHWwjkpIvDr/e+zPNzheOnYzkwOwiXlj7+wnfhdK0wH937f7/1IaMMOGnjg5itY
w52O9/zOuXqEmrweJc7Qulh05uzSBAOLOXSDBH4FKE1F7sNgTb2r/ElJsQ/Up+cr
CdMwNg5NooezhrJHDsCllcpG2eROGs6AY7AALdzm7If78ayb1kvsJYenhwtNuLQ0
jysEa1vueksh36OZjtp7MaFfacdhohgomL0oZJJZIKD0e7z6kWc9vvKkD9x5foaM
2JU9rG14siGE5rx1wlEP5WFeN0o0zmnxDpZK433pncubt9/PutM0+zDgFwNdSk2n
w65vdmsh8WZfHwdpJyogLMwqFk//zWNlBAAI0T140WBeY8Ys4TFy3Vtubxaim59a
RCE6hXIQKr5UbUKna9cbLNLdfeK7BUKWEvgB3igO4tPXgFntDE+4SaBgT7+NegYj
Z22XClRx+GnweioqbgwPtJo+XefRuBE/n5fTrsuBCFS1kaaVOZ1gBuhoDMOR+DhJ
jbux7eXMNJXRuBJfuElA4Ugl9gJlmsJGr0vY6Yv0V2jQRew6USSGUM2evXbqRo1T
31OR512+8hXdBtozO/CcgCzPj0UKo5YwnOUFiXsgTLsG2+YhHpEG466NA48oeNWS
QW+Y/IuTM2AKRO86wsF8BBgBCAAmAhsgFiEEHXMIsAVfWu82lEqPJ6nCTZWI6g8F
AmSn/cwFCQUfopUACgkQJ6nCTZWI6g82NA/8DHeP9B8rc0iBZGR1vcuge38EO3Qi
71/ypnRaENX73JAGbZyhraUEqoPPM/UZgO3v2gi6unAwKMy+vrQ/j2rtWqksE0eT
bONWYAK/Lbogc8ogzs8y+B6alavxR6CRaGzc/vHXF0BnpktYC14iAF1e6nBQ5Q5/
MI23o0MxaVbfVPiJcQFzvBAY0Oz/01GaGeLtFly0DzbBPBAHrWH8hIRrq5eRvmVT
vMIr23iIZYKTrTWaYxLOg5mVTK0q4hmzVj8MmfOWEix1kwQSXm/Tdsw0lPVyjz4/
vBIvKkXjltwH833k4GeamakGanAtdgKbdYr0v1hEvbnt3I3O9dgILLhiBqdpqTBG
gyb0rA0bcGiL4N9O10fCbm1eYAZsLFNr69t++S+vNSYKFCYUf6D05SqdpY0w+Bc2
pUZI6GHQfNIIkZmspirNgtAu06+zsyyN3tjsdP34y1BfwTagqWjK2ZI/V2HJS9OO
IM3xKP6dAsYdZTCM3o/LvTj4VCOparn9VbCY6iChvtvtbHZ+Wpwqy977+4FA6R6T
UlwSbSP+90VDXMYsmjDYWBeylKqvSEiTE85IdijjyqsvzNg4olZoc1z/v8CrxIV7
1XE/u/RkVCbMtMiyxBEegN1Z3bsuQ3kCNSwVQ6rRk1uJeoYEofHv73pScAuh6f1z
BxA2s/3JU+k2TNHCwXwEGAEIACYCGyAWIQQdcwiwBV9a7zaUSo8nqcJNlYjqDwUC
Y2EkZgUJA9jJNAAKCRAnqcJNlYjqDxDwEACTbJik/JAXNrKDWTkNJemYEMikoeUU
eNcRx+WnTkDEWaVfNg5dQL1OCJWhDoSZXGjUu9zrVeP0VMT3nxkFehgLR7SKDAJt
67W8Roz5kbqu4RMMkVVBmAhor/ErjXfu15n9Le83WJa4sx6uB83WKDSGiHjp+wMT
Dolv280J59ut++OrEgY1m6mg7MVliAkbrQzekIqVtKG1mg8YjMe+TyDwFGfWOmUg
ogYRDMDVuLv4z7R4BHzjdicWHtRYgwfUyI7SM3xf4L8lk+PUDGnElELmI53txHxe
EtLKkcEY2BYeeXjWPFjhh/gaM/OIzUxRKvGK+FIQzPrmHEtc5hmlCQFkG03cWFRB
eMQpZ7mvtxTsEBMKiyKPmttlIJ8/JfsPYyooTnolVp5HdlCOWI0KdO6NUd02tHxV
Eykmm/bQARdfq54N0emu4FKHuETrb3rlUVS3jylguaD5YSEUpbLoI6RyPvDljIOE
3CvlcQ69U3415qWTN8KRhrQq9tKidqk0w/eadrXsyx2lefJxWMujZlLHuuLGQECi
vWgeOFz96LEOn8PYoT9TGwPaoEQIed2xru2ckKNonXFGS5DpzmwZmc/1jGFYlwFi
mFeDyFXkubSVzEsC9GXjYYMEoW0s3iDckADxQYB6N1oC1e7+jIHCmWsKXCPLb1Lz
AXUsdTh+MlB4RcLBfAQYAQoAJhYhBB1zCLAFX1rvNpRKjyepwk2ViOoPBQJhaY6s
AhsgBQkB4TOAAAoJECepwk2ViOoP8k8P/iTHKCf4MFOoPSlhsks9n/8d0yoc9qh7
1f875DD/cJUkJARykiRAOpgKfdSsZfWn8IEI51yu0X420pp9aBM1wcqMPvB1k/mL
FnIZPNgSo1JD5ClsmItYhY+xqb4ZaOowIJtQ05/Lk0WVTSv8fJQG9HsMr5gCO21e
Imapq0mZGdeAXTp3NO3ItvVkG/VVagVuyDZin6jGWPPejJt2JRM+//FGyTdcCwrJ
dVwCzOem0H4BzSUkHvguQ9sb3W4Yn/cPPAn+6jvzOKNL9/2rENt7Z11PlCUvDJSl
yEwh3OEIjylgGwg4AKdG6HUBRwMCHfbdcCVNw3lvTlR8q1R/eotKrGhD2fJyzSe4
3MYjlvbxucOJ0y7u8DQ0YEgXZU83l6Nyyby2q5CIW0aPnP6SgN16lyEZ3IxQuQUm
BNdYr3g1fwmBC4ZEL03hlC7TdU8Y7ElEtdasruSc9hm5j92XSN4tESGgUU67cQvJ
ifJiOavVm/k+HzpsH8rjabH8Jg26mGw3OUUBYWSDZykClKAqoQDvhirYOtnXvJiA
PIlfKgQ0cctpFgyke8GIZabk1w9rdtqGzpZGX8RKVD7BEmuNTgIOmiOkA/G9G9SI
NAzoNA6vF/c9QnUXq+wyZf5guvHumG5c6mmeCD2fGwBFs0f9hjxNmMWwgrUgqsdI
CvEqdXNVpyZt
=x0PK
-----END PGP PUBLIC KEY BLOCK-----
-----BEGIN PGP PUBLIC KEY BLOCK-----
Comment: 20EE 325B 86A8 1BCB D3E5  6798 F043 6709 6FBA 95E8
Comment: Dain Nilsson <dain@yubico.com>

xsBNBFLP7UQBCACbOjmf0DRdtSjxFpTk+a5+Wa0syMbOc90IyRB9BXldK5FhMESt
EuGw2uuXqzu45VRGslCl3h4Hyo2ogcyNT1dZQT9IcG/k/m15gZRRnyIiKftIqrTE
Rvp3Kt5ykoVe1UuSh7jmc9W6YYBuaekOgCFdOZEdGQ6cdZ3+y4hyXDDnLikR+qFd
Aywxvw1V7+iN+mW72FnyMZ0ncPfjvn1czjQGZ2mH1fQ1e3hvganPKZ2296J9Osuv
luQ2O31TSHpeH7xCIzDoctm7AiTo7xxsYzLQV8gG+aRwlg23uW1g4A0ef5cS3t7C
oyNEjToB+ub2sODSAR4qvRwsTrYAOSTxCHzpABEBAAHNHkRhaW4gTmlsc3NvbiA8
ZGFpbkB5dWJpY28uY29tPsLAlAQTAQgAPgIbAwYLCQgHAwIGFQgCCQoLAxYCAQIe
AQIXgBYhBCDuMluGqBvL0+VnmPBDZwlvupXoBQJp+G1wBQkZCbOsAAoJEPBDZwlv
upXorSMH/jJd1AB347y3WunzMrZfcKg4SnVCkr5O6cAMOD1jtP92UfTEJyYEzSfD
zExfkoogZNypzYcH6r9PR9JrKIAlEEf+xh1XfJ0HUWNkudrw2gLhBo3pjAEqFj3/
lw10v/FsN0YmS9TwV0UbB+lDwQiWKPyicGYCOq/IGP+Kby6xePUqoq3/uM3VCZRR
9wDLS8lXGXkA5vDsscqwHSwOfCQSXBVDM7OyCImaQJuxyay2OWZj0qleLOef80zs
fQErfyBYuSvxQ0iTlVs72+/bxV8dVqLG5Stuecw5INFEW/M7+0YBzgbX6VlLobEH
jzvcnRENiqbynoxrmPcsXCzK0VUqhGbCwJQEEwEIAD4CGwMGCwkIBwMCBhUIAgkK
CwMWAgECHgECF4AWIQQg7jJbhqgby9PlZ5jwQ2cJb7qV6AUCaBHWkQUJFyMczQAK
CRDwQ2cJb7qV6BTuB/454K22xg+PV+/9NWnfqNaB3Dst8IoLSHNwthjEr89kYyZr
KQFOYw5iLawimqTMhO2KkUHIdzC+m/HwpqMJRlb5DN41j5AWVpNsBbGlPYxgSw9m
p6rtxQ+TWGDNtuM/XP81CFiFL7b37cTSUmTgFDxO2ElyJL0tdJHl5X2Ep+F0yybv
WDOKL9zB+2ZNUCMoOfZzEqOl9/+OPi5pWdM785Co2XNGOv+G22GbrSFyNLfC9oIs
BS2cA52zvYMZsV/ThNp3knFHhx7a9zgrIoZWPNrKCJUEL2Srbkin0p0jvvMojwz/
aSTCqw1VTYR3jv+Sx+NAEwWH1mOQ3VSO5Al9nN1DwsCUBBMBCAA+AhsDBgsJCAcD
AgYVCAIJCgsDFgIBAh4BAheAFiEEIO4yW4aoG8vT5WeY8ENnCW+6legFAmYvv38F
CRVBBbsACgkQ8ENnCW+6lejmUAf/Rx/GCJ40eBgoiofhVErosfjHVIknTcL9jUdq
4YflqvjFVm9nc8SzkI09LROBdfoRCUh/E6vtb6sRd/042bt1d8h4ClB58alI4tBg
CdX5+jSXqL+Av73Wggd6Gwf0hjh6H6qdnD4yXdWGf7MxXU521DBJDUzBTkxwhFjJ
UIPJ8t1DXutaSPJQgbDZqr/h+FCr3OukK7ChBovz5sEbMgYjc/WePXlCH7u3L8Wi
Ouog1104gB0RpYsOCJefwTj4YZlpdyroUpMvntjG+9Vm7hb1Pnu72PMzf+qnvjER
RAeEL942MCpDbDd9s12+cb0fzNb/ByK+nB3u3DFfftO1vldSgcLAlAQTAQgAPgIb
AwYLCQgHAwIGFQgCCQoLAxYCAQIeAQIXgBYhBCDuMluGqBvL0+VnmPBDZwlvupXo
BQJkTn9zBQkTX8WvAAoJEPBDZwlvupXoY68H/1URJ5HXJyNOQBtoIfEIeb0earjS
ENm4+sDTXZ0HchaduK/NgCiXg3BHuWeG/cHYBA3Bprnt7MgJ04vvHEa/qtFn/q4C
7ahtXF0FGaqqlkOfWsMkxDsjnGFy8u5VLSLcL2AAAJkVf/WlHBO/VSpJB1HNfkbN
vHOIY11UEXs3ZKeP3U5dS/SwM+qWREhY+Ajl78vuPOJeK7vISTwaUqmdmtelSTxE
tKJszvSHlexyuPIR0Rqgpwugr/OCIV2BEvvjvhzETFUYwZKWlUBo2aVpvkF1WqFS
bwIUw1EOVKWeaPR70owUipte2hATkZa7i6TrF2vj3d0y1yWAChu7O8fSLxjCwJQE
EwEIAD4CGwMGCwkIBwMCBhUIAgkKCwMWAgECHgECF4AWIQQg7jJbhqgby9PlZ5jw
Q2cJb7qV6AUCYmpxagUJEXu3pgAKCRDwQ2cJb7qV6FNjB/0Yg8HCpGZUW3MhGWjf
E17rqZAAO5vwWdHld4OP+rO5n+l/15fTpGOblZ5j9WgXnK/ow8gjTtOFYSne/vX4
4ziCRLGcKcpAK8mJa0RvRnnvUBEZTVdove3lYIx21OCiHpUj/Pw8jHOFucwzl4JA
nABqpbK6VDPVsPfUP7IRZtS4U1qHoRVCPgzZ/OcvTmikfXeANib7uhWqMyvsp8ah
/+eyP/uRCc1HIAy6D4334Wwxe7nFYw87dSLVaaGe3ejBSmEnUS1eNWfMch4Y870U
Erf0ippKtKyjWX49fkOXXVmxr/sOmSHw8knipE/+K42Djb3IzjexIR0ee4wXEqjA
FHA6wsCUBBMBCAA+AhsDBgsJCAcDAgYVCAIJCgsDFgIBAh4BAheAFiEEIO4yW4ao
G8vT5WeY8ENnCW+6legFAmCIASIFCQ+ZR14ACgkQ8ENnCW+6leh+CQgAhll6QeJM
cOPL2SFREWLZgjt+A7kKDq7S11z/yX2CLUI101ryznTW0+FlF34l+fEZJdD2Pris
2xnSSMoag+G73xQYnNhdD7BZNDo8531M+X8djUNNu0j8G1LPz4JVAtybjHf/w8T8
ovldQBateo6+oa75mc2bh3Pconc7YzgN00Mpn9zf+Y1M3EyMnQiEH+DI8nYDzXLo
6KKO7lhC7k3ZZItKu4F0E5le8dhWZavmt/X7LTdw88fBhGPaMvbL0DGF30fWB4FR
AuR0UiLgnODjERKsBh5FJxQhaA3iJ1MNG94w7dkQT3x98Zagk3QFZTCCWTHXF8Hy
uK+sLYl/xBAk3MLAlAQTAQgAPgIbAwYLCQgHAwIGFQgCCQoLAxYCAQIeAQIXgBYh
BCDuMluGqBvL0+VnmPBDZwlvupXoBQJepoTwBQkNt8ssAAoJEPBDZwlvupXosRkH
/1G0VKh0CNrhNEyEqtls+2EYPN+Puwshfw/crEGpq/12JZ+ehExAj5Wut0sGvRQ/
p2VhANsm5k9qfCkuVtENtKUeBZgvYCib5M1BsiM5TSTvMcNltCniwXG+dTTTOfYk
1+a0vOUX5FjgNk9RVr2cD6QmCFiN9mfrf3dQPZH3xQM7LkFxIMCbKHDCQU6w3HID
H+GVi7wYWQEZ3eNZn7tzHKOpc3KUnXVLCig5Z+nRgJTq5oI43HvNOEtlKDWA5fBy
7BNxCdu35L5WvwYiYeKhI/plPwH4eQQ9sdBF6ynRQS6TK0+atjUDYWOjsqwRntzd
GlD0GXG8bs4MhIRdWs5QpVrCwJQEEwEIAD4CGwMGCwkIBwMCBhUIAgkKCwMWAgEC
HgECF4AWIQQg7jJbhqgby9PlZ5jwQ2cJb7qV6AUCXMrPZAUJC9wVoAAKCRDwQ2cJ
b7qV6IV8B/97k9uMzI6VTaq1JUa5tDac6bQTnf1Vj2SiuWOA1oFV1GQA4sW4wUFB
/m7xm83CGD9bemRCEd+HuWz4GN93nRykGtiRf6xxd7BbPOFM80NC90Ls1Jlftm+U
5XER6+9XrwU6Djr9l5nboKPu+Oiu0Uft2uGNUTg2z3FezgOxmhhYSK67/vEvV40U
9mlq0LY/pVp9P7RPQHLNrqfEbBuNjpCT6uB4afoq2L0y5jV7T5gNrWTTCaSWf6jf
I8gD5P2MqsG5y09BEiQjqxzll0R6t5kniijplx6zv/CgSR+LUXkSmxIg/Tja+E/d
4enLFQp0L/tiadVNRmBo7D2B6DufmhzZwsCUBBMBCAAnAhsDBgsJCAcDAgYVCAIJ
CgsDFgIBAh4BAheABQJbVuYwBQkKaCxsACEJEPBDZwlvupXoFiEEIO4yW4aoG8vT
5WeY8ENnCW+6leiREQgAhab889RDcmoBebRXk4unDGiLvIO1e9ogOyXP6oqqDLB4
foIzyWMKiDhzX+NzU+Z2jTTcM638GX9gOVPg7tVr9lTlPXAFt1ULCnDsosCj26rJ
Np+uGeDQKvAUIGtXgOKvPRT7izG2x2tVR3nOR9W3+qrjA979Ty6R4PtqOVh46Nxw
WXTHJzMICf3euuk9wS9K4D5h0Y2gzkTTcbUqLW77b/sbINOlH0FjyEcGhcHpQGSl
LghmLYYLrM4GlDcq73PttRKMWwyREOYSqBOXhNXv4O8ERCLytbZtpa6XfdcVbRHe
xmln7Hsiyg4PKCE9KohMjFUQwtBWAGWYFqgMfSaO4MLAlAQTAQgAJwIbAwYLCQgH
AwIGFQgCCQoLAxYCAQIeAQIXgAUCWYhdFgUJCJmjUgAhCRDwQ2cJb7qV6BYhBCDu
MluGqBvL0+VnmPBDZwlvupXoGfcH/iHl3cmp4Te9yhLHM3rsr+tnjWMVPWZBnPsD
n5AdvaXKG3BYL8gEL3YDyhDJe3oJ6zc0td9WMl+y+EsCggA+YyhL5UQOj6zE61xu
wVpYNp/TBStuYtcpVFwdPvrG9gmDfmCH2xrlYFF3SHZFQcHlVuNsbucqRORnjUdg
tg51+9uNV5v0KjS8XvlXyfYWw6LPtl6TaszUUpc8pjegRo8lrA0HxrsG590Ikuwv
znk3X4vwDCQFyQZeKEgjVQxQWuLb5Xrsz6qfiALmPvW1JngdqjUGMU/M9pb1270/
Jq7aynoOGl2EgWHiYXwEF7umYNmQJlpi4P39x2+xpzDqBXyDAVPCwJQEEwEIACcC
GwMGCwkIBwMCBhUIAgkKCwMWAgECHgECF4AFAlfk7J8FCQb2MtEAIQkQ8ENnCW+6
legWIQQg7jJbhqgby9PlZ5jwQ2cJb7qV6Nv5B/9BEkNAg+W3epF9ybki3ZtoDF7i
B6dw9rOpzhBTzDJV/QATR3bDqBQ1JtcnwWCp9A6pk/W5q/1VFkiNxNfBsKD3F35G
gasBG8eHEiI+BGw4RTEZjoAAGhQPkoQWV7KC6foubR/UnYSnJTPrm8pcNU2NsrEG
NrgDq78VubGhmMQgB9QF39e5/PECUpvRpjc+S12KPBw1s9BwQj6WGAfB92Ce6zAB
KFrcoWmzR0cksIh8JXMC04ljI0bGdRQmIzrzo7DtYuGfHwcKAej8RNoOh3m/d6YM
6ObAs5MNGyzTSt8bK+keMGvrPSKx/CImubrFAkaUDnihcZ3OOXjp13PmNShewsCU
BBMBCAAnAhsDBgsJCAcDAgYVCAIJCgsDFgIBAh4BAheABQJWFkhQBQkFK4LUACEJ
EPBDZwlvupXoFiEEIO4yW4aoG8vT5WeY8ENnCW+6leg/Rgf6A4SM5CVkvGyr/Aii
WFHbJsTnjcgR51qnFJYCKQtyVdb8f0GX7AAOH0VT5kCsKnoorhiMddETvos5nlJg
a/BeYpkGkSTalk/W1rum8zCQWZWHaucpb6Z2sO4YF5MIdNSgF6+U8Pnv8QOpUO69
KT+7/jQv4/c6HJaXLnmukI86K7TSGy4JAazXaK4lKeivMJFWkzIMETPPNsqcnbME
1BV9vNQ4sExd5BwMFnGWZ/AeiU6IEi7nMkrnkBCcr8QKV0jAHUsqMAE6CzdJz5Q1
LOwq0zuOogT//wFTLIKal+/iu4OmuQwfLDFQta803eQUNoAtLBeWhqZge0NyX1v5
sC1ZksLAlAQTAQgAJwIbAwYLCQgHAwIGFQgCCQoLAxYCAQIeAQIXgAUCVD5UmwUJ
A0+a0gAhCRDwQ2cJb7qV6BYhBCDuMluGqBvL0+VnmPBDZwlvupXo5fQIAIYzwBko
DWYmbMJvM/biWE1H/fdCO61BM49HS6oHfxRCNHCO6HVkuEViITjJtjaCZ60saDCI
JACPnIi0HoSiFJyrBu150zdj2L1z9JHBmLkhx5nVG6xAZ0hM1FcG/mvo2uL6qJuN
1Xjy1xRVArDQdwmhKQKfxtXcsnnk8j1VaM6BDnFOHsXuwkJRhay+kXFxNkh+eROa
lJMN+raHMyr4KKOlo5oy77e5SkQf/6oVCMGg/tHjCxlRREvCEEDgBYjW+u5t3Jxe
bGpwZsYnrcp9PQ4eM1kN2IXBdSbPG7QSfEKs6RGBYDH3ix2jr6pdTwmbdkisRDd8
QUQQxcab/0bl1NvCwJQEEwECACcFAlLP7UQCGwMFCQICKQAGCwkIBwMCBhUIAgkK
CwMWAgECHgECF4AAIQkQ8ENnCW+6legWIQQg7jJbhqgby9PlZ5jwQ2cJb7qV6KKj
B/wJMdXrSvIthIErNnQg8bR9gqHL/Ke6Q+hwA7hNn7X2eFVaukNoAvEa4SlYXAUp
ydH6TsElXTxxglNMu82RDyWXKaALe3XSgswDRVJeRceP+Ejsf4dfxAprzFICcShZ
j5HKZilg0taeaHPF1ZWKDWe024kq2DfIsb8FZ0qClgCxbPtQlo58WWF7p5ce/byL
PZVPIskLRM0nxTsQk8y1RTsGM6rIOZVqxoc+zDLtarAyR1d6kycI6d5nmtxzuveM
K2V5LrvV6+Q3apLJqj6P1mCLy2Dsu/WRwanFvyk6U+B/j3sS0BTLe/GxvBQIaaLe
rNLl/CIRqjtUadF45CSxOBX4zsBNBFLP7a4BCACwGqAesQOb1+2B061WnY3H2K2P
pfVxIErJCJhYEI+s3GbdZjhnTgdNl9VE07SUV/8nU30rEmvQKWA+Vi+PPXU9+aMG
W7kwmtI8YvEZmCn6G/tzI8PD23rXs2pNbn2ufLCXRYkGDM5eUPUSLsc4FvVFYFVA
C5d72aHIezLUEFFWHb5ydl4Fj19IVY3Nm8/fE24re+kiIFjqCqRhZQfMPG0y91hH
RsyPlDArUE0d3Q03iHRy5VVA6lHb0YRWGqK69X3FaqyzPdcxVdToYVG3+F76r6Pc
r5JQuycXFH6dWlgbKHwk+rQIaHfp0XQPL80WWgxMPUyfbD2bvOyh81ZpZU9TABEB
AAHCwHwEGAEIACYCGyAWIQQg7jJbhqgby9PlZ5jwQ2cJb7qV6AUCafhtkgUJGQmz
YgAKCRDwQ2cJb7qV6CPrB/4lL1kVdLb+63OzvBph8jGEJZzrWEQsTl0qqfyzmVXz
ouPM5brsiFvWSjmwDGEqJgpeejtzuXGj8iakuKTHREuZQ+zcEOp3g35F8c98K9Sn
XWEG8i1DP/rB2CMDe08moN5rJPDpWkM0IgYWvrTv3tXIRA7bIOfrocQUE+I4thu2
6QhOWZFAuMX4c/aW/MKP6K6CGjJ+fEEx5+wmpJYPGkbyscy0wZc2/kUXtWZPkova
IA/Xv0/cF2bfpVZYLkbYEjAl1ueEb8LMIY43Nbnte+s83QmHMChX/VyrvP7mR2s7
Prw3mfKSqVVsZ9KPziXbb6A1nsgMJBFdIMDc7s17NPIxwsB8BBgBCAAmAhsgFiEE
IO4yW4aoG8vT5WeY8ENnCW+6legFAmgR1ssFCRcjHJ0ACgkQ8ENnCW+6leiKDAf6
AqssbRIR9hatuQUp8rhTc5ZRiBraoU58NQNLxjHpWy3d7zoqZRjGh7j+k305WMcw
LzMxHQG4Y+87xTj8+c+3L509twwutlBb98OIMkPAIcVJptTJK+41+dCSclaXNvL1
+ywN6rI/GP1T9seUL1tpbOEkCxJC2usB2aRj/jADqXdUKiRcCSDXuks4fdl3QIXs
9+JEXi+O/WyeNCr1oKFNA2oQnUb78e0GEwMU0kZPLLWlGqSAV9uE72oiq21h/gN8
10bghILQhYWyJszjSWqiCIADsEjQZAex0znI6ERO6BVf4tzLgg00hffSSK+KDbkv
8GkN+d1UADJajkpCDkTyq8LAfAQYAQgAJgIbIBYhBCDuMluGqBvL0+VnmPBDZwlv
upXoBQJmL7+lBQkVQQV3AAoJEPBDZwlvupXoOhsH/3/cBJ2T+Yrk1y9JccYw3Jt0
RjLlyNFBRILa7vpmbEEnDGShWo6FREXXxmbGZbszrY5oJX97dqR0BpDnlWiDYQhK
PN0dl3dHmxLTjblr+UezJMONLRjm0hBecgA9ngks6fY5HZpRSIWO/bg69w8M8gHb
iEPmlwUbBxMSHFIFqh5ooIvCm3wJcanh9JqEIVvRhvI+egu+WIH3Sl6gV0MjXJwW
+AFy9xy3lWNsqeO8vDCYS7g0S5HyUhHcvqiuH9eTYPYJ8YCrmXVZ3T5SKMMZcNMg
qC6dv2DngjNCyCoSqNNlc4VNh0BdJovHaTkPYwKyeaG9VVynp9FbEPIRKMuckvnC
wHwEGAEIACYCGyAWIQQg7jJbhqgby9PlZ5jwQ2cJb7qV6AUCZE5/mQUJE1/FaQAK
CRDwQ2cJb7qV6J3OB/9ij8xhSpkBlH462Gi59pGV7xReePPWykugPmdeEXoiE5i1
7jNLcX0WDwZACoj3IbOv2StpGGnnQGzE/K8QmoGFOcMZUj3CWovy29eD7tYp0vPT
wWv0XlNmg9tBIriMrtFHmVxgqQhuZtw87nynclgpKeXK7cosn5WtFjL1i3rhivPS
/2gP4Vpcuj2T72GT6SBqq3p6n8+a9j6xmKTO3npag4SokNAlMKrEkC4wGr4efkZO
5iEtS5Dsq6bKDXFp8qAGZVGDhZ9JNAv1pFSXzAeyUy/c00Cres7Ao89uKFq/+SFv
2PwzTPFmFp0Z6WTJcg7ncn0pVlrAQhl/RqwsEL2fwsB8BBgBCAAmAhsgFiEEIO4y
W4aoG8vT5WeY8ENnCW+6legFAmJqcZoFCRF7t2wACgkQ8ENnCW+6lejurAf/aq0E
jbp15ihHzN1ut0VreqGcM9T1UT01we67cm0kMohsL4I6bF8xBWPOh8Yk5nUOXZGg
sisUOORrUVdhUmdCqNZRuc7HZ20afdq/iY5IVTATg7TgQrBJ8VuGW99B0V55WA62
sfj0tkS/qZ9jQHYosxgv1waV12Q0OMZZx/+JXogLDSEDye2RbGgD4AGHf7AZxJs4
CR4AUhxay8zCWiQqQxFSPqZ/eNC0vdE8cRZ6SLWBbdS9lOFpLTT4NpR/RK/nDA0Q
vlbh59U+1kerAFI2NKr+h+NSp8oKkVQVZAz0DDqQSqlFbqKiF/kaNTkIJCd1hfNi
hUHtbURpeSNnpgljDcLAfAQYAQgAJgIbIBYhBCDuMluGqBvL0+VnmPBDZwlvupXo
BQJgiAEZBQkPmUbrAAoJEPBDZwlvupXomR4H/0lJ8adIsR+dwJy8Ju+1TT3ZPkX4
1wwAuS24cD2ErM81VnXv2cgOFthB8ENZPky64ZPoL8x+swj1smaQgCdBgWQa/CEb
bwi9BKLtZAG9xxzXNJl4MeQjUFLiwraFthexMA76HEk4TKVevVXwUAcSnEg7ehrO
AgTpQ6sApO8Gj4ktP3zgSCd9rt8Tb2DovpPiwNCez0QOVjWcUXbQ6eSaqynADLRi
KbvxOQz7h+r+IZjLI96sR+Dc2xJJnkADIgxkivHtud4elPsCIyjtElN6joXExo5q
1QvI6Y9vzJlcXGqGnjUoIpDcgkRFAjyOLdgL2Bl3UGf152i5BRjX4+Kh2IjCwHwE
GAEIACYCGyAWIQQg7jJbhqgby9PlZ5jwQ2cJb7qV6AUCXqaFHgUJDbfK7wAKCRDw
Q2cJb7qV6CX2B/9adVqqaVVzZKvnv7dEdZTNB6+J2vN3cy1D1OLo/k2bJ0TFCJ5o
6fDGQ9YNDidN+hj+dRHqcjbQqLwhOB4raTFmo2nbOmuOk5Z8eBMqMA8CNZHOwPNw
wXhyK4yIVuWgHX5B782ypQ92x1FY8yC6I2l47nRpN6F6s08x1X6iKmGzl9W9oFsO
B1rZzZx58khBA0DKJ2aTEGQLL3Fq4Y6N1Kd569gNCemIQbveB86aGVe1UvC9EC+7
SUKdxVOUvYQEjedOe4ck1mQGunrM+45Z4rykHi/f3dS61yhgMw7PQ0nY4s4eBoUm
vVBF3RGRQwSUhzuJp9Awn2PEF+qQYoxeBrp4wsB8BBgBCAAmAhsgFiEEIO4yW4ao
G8vT5WeY8ENnCW+6legFAlzKz5oFCQvcFWwACgkQ8ENnCW+6lejkvgf/bdvLHRZC
z0SYkF/IFXROu5Kp6k5Kubejj5jCP/MdpWTLOHzgh01ORBcnis88hKzJ5z5I+LUr
KpA+KXHG+jIb8zumDIObYbgvdJ/Mv+CD2VCVO+Sq/HAJb+OTVzO8xluA+zwPgbBd
/Z8E7KI7BvLtdN/tv81yyb/2clIiCZUytAvbsNTfpXl0V33Lc1RBZO/GQ+fJ0xxx
F4lLNQT1ZvjTRihx80raCqcNCn0uw5InBeen7hdzBgw/FPi+ja9ZYLr/Mb+iaKnI
i0qQPPML1Kc5SyJPDeBlsyqdiWF7sFKYYyGxUCnSI42CeCrCAGAzKGUsqkNYAstz
w9D3U/w8/ZjmX8LAfAQYAQgADwIbIAUCW1bmUAUJCmgsIgAhCRDwQ2cJb7qV6BYh
BCDuMluGqBvL0+VnmPBDZwlvupXo/OIH/RHAQHXdbxDejfeWSTfjet1Dns8vPwob
g/DqhaW/zEaK6EHGsmK+mWqz538SIMW8Rw97e3azD3pyYfS58ETbUk5vy1a5vYii
BURKalCFdGQ/+Qu7mtL3A64YdKzkQN74kRjizv8xmdafi7UN2NujpN1N7YIswwk1
b4nDKQ8rIMwHrmNQmFx4ZejfZOPP8F9vYxb4DhwKaxG4mq8pn+mBXrARpdjFjvUv
jrNR7Z2TAoJxrXYfBEo258Tpb+UhvDS/NvDiXuVVIzFUoUAhJmIzmdZYyFFAd/oV
SOmDPqvkjXpY5EP+REbuGzs+xaxakxOPOxP2dbRAD8azCLcQbIaLqRzCwHwEGAEI
AA8CGyAFAlmIXTcFCQiZowkAIQkQ8ENnCW+6legWIQQg7jJbhqgby9PlZ5jwQ2cJ
b7qV6JAoB/0fmKrQRGwEYcjaPqqDI8JVVuy6JCYaoAfVMi+gSa60jKZ/lLhwBDwo
veDmA729FBpEkzCdsUY2DgZMipE2AH7R7QRTbPygpXrAdf5C7TsWv9FyiFkeeWQy
DjGLFr2y6IS9AO7j20VhRdDDU892+9Uhz32aqDkT51ReEbEBLRmgSnnfXYmbKgDT
/LjsZMHPhmr0m58rC06+tWoPDwd+RJivpgpVOyDCmREXf/Aw2DqkGSzCdTYT9kAl
qvBPw6SZMq9qYSZYnD4o6+9GKPRfOTxgkl6MWaXsKMYZXlRBEeICxHaNT+qlCOkM
5V8RwTyBxVYg30lj8rQFz+P/JY6Tk11iwsB8BBgBCAAPAhsgBQJX5OzQBQkG9jKf
ACEJEPBDZwlvupXoFiEEIO4yW4aoG8vT5WeY8ENnCW+6lejjCQf8DDzb1/YCgn1H
1ToWIDbvtGDirL/frWDENPwYtXHcm33wvWD8U96CEwDiC/ZORpYrRhlUTK3G+S73
OUAlM2TSQd23fTLtP9P/0d8lcPcz0PLJA6TNWYGhHM0L1iztVHj0Q2YHM8kEzwUp
5JwewnQl81u9VoxbcGHpFmC3KlfYAn4qnu828iEcsaE2Dx3//1NbHx603jZt6xSm
VsSs93VWvuHXy6gSckY9E8MLVAqY44fQEysYX0Ln5LCDu40vThhcrhSjhw4VF95U
MYY0pI7HHr5rSzOdJS0RGHRJDS+ocbpJOpnvcdVoiHvroFQY/iRUftHrgnpmGJ9p
AxukGda1L8LAfAQYAQgADwIbIAUCVhZIhAUJBSuC0QAhCRDwQ2cJb7qV6BYhBCDu
MluGqBvL0+VnmPBDZwlvupXoTHMH/RuRhxnvvBLq77uYqPUVAjokeSq49p9TcNx4
YTxfwPztop+hk2DN84sHj4G7agfsD8neuYpiYuWZpxE07LkKPCNJAK0JnBSyRKSD
InidsQ/M62LbZGkqkM0OhM9YO89KfPXxj82qSh7tRrT3McHJgqX6hSFsBrMJ7N2r
2q59T3PmudA2Xyqj+VMNVXK2V7dyFSottcXvUqEJttye5Qy8fjfhe0SJUUXm/v7g
1XNunyM4RTJuGK0c33OZbGKvgIH5mZPhgs/9hFkoqBzb/f0lQ3OoxcCendkAMcgd
W2QI9CDY5Z53OcaLEzfC/nvsxQvcEz31qimHZnabvAMiE327fMjCwHwEGAEIAA8C
GyAFAlQ+VIIFCQNPmlEAIQkQ8ENnCW+6legWIQQg7jJbhqgby9PlZ5jwQ2cJb7qV
6EvrB/9jfmTRdMHpYgE0ccXYFzKtqFkqA+8ynLcHPidAZeTcTCDVqQHO09fL5zBW
gqK2QRzl60tc4qlpFOPrxC4MaB1SgSJcXYUyoK7Cfz7TNN/fTdnQ2nkRIobO4hAO
6WgNiA6esHPpOYoTs4gfXINlVfXeYVyQ0tAEsvyt5ppaMZH92kjTZWKnS5n6xOF4
yKhF7nmGnCsBmshMYUZPmZEmWRsSvTF9wOMz1xY+Lr7QcIBvm7aTtNx1XVyuDEf5
tMklqfTcjOQzBLEtRCh5JThSV5ftRrw/ByqgSvCs55in+vvdgA03lxXZZ0KZ2QnV
XZjAP0MPFUhzpqSA7wbdI6961nktwsB8BBgBAgAPBQJSz+2uAhsgBQkCAikAACEJ
EPBDZwlvupXoFiEEIO4yW4aoG8vT5WeY8ENnCW+6leiSBQf/UOoEc8CVF+3DXQhn
rXOdYoalVvx9sM3BvkOqEND7YR1UdRrFbeL+Uza8ABw/8iKC0OQJa3tHJBKKC5UO
L750YZPRu32tQRj3Fkx8loSAsWlZeyRkKOZnmAhJ/Unqu0TjvOtMTyl90sBld95E
V4/UYR56W1Dw7Hgb/d1SzfMAR5G7GJECdrPuEQunb0O1xaNDP2f0YT/8PXw0UgxF
k/oz7og5Q0j1bS3utNnUA96rlhMM7dJ3S5tX0XKv4E5GGXzhuA+5qcch57XHlASd
u6qNbIWQxnnhZ9NbavHR0FcrRFOsKItW0lQhsMG/m1frVVESDqKXmzniJaAGUWNK
WVWd7s7ATQRSz+1EAQgAwvc/YF7AwvjwoYKkB6h9uKF1TC3AwaTu3i3btnBLsZWR
OHvuxZcAbOnUt4kM+G1n2hDLz94ebw9U2QkEkm0xUV0JtlgDI7D1egGnSQBPt874
iPf8wwQET2B7xOE36j6BOkjQoziglIwbZbg3tH21kazDx/DxxUBeSvehfqUnYDHd
hJr8twTIUPWdDIR8V8FwRG4cGczwkaGe/Za7CgTIi9LWfk2HfIfJS1DTPEzmyReN
O6N1w0Zdka7p80W8TVRkwAQKgb1KsyF2U9qUGfDeRdgwJwjZgPEPmbcRaxsisXsw
uNPveFLfJnSNiDnKFFdUVIjzfsPTV6OJA+9KecbTdwARAQABwsB8BBgBCAAmAhsM
FiEEIO4yW4aoG8vT5WeY8ENnCW+6legFAmn4bZAFCRkJs8wACgkQ8ENnCW+6legL
cgf/bQGedyVBrxeFG6vVOY29l3CiVk1t8dI7CDQq1he7rLKetxREqIML0AgE6aCF
dc7f6/MnAAmwrl5+2rs1yYsNUysgv+KQ8FNfy9TBC6BwPVRnAEl7XJtGlpxghW/G
yqrVg4PLRwW8wsbPq/GOSjJksfI/EStmuneidnIQJ3GyM3wv/KqMJ7VuV2eDl67n
RtRsU11UtnSQ62VZYy8etrmeIKbLR6elG2k5ETeQaDLEV5rCUU7+HaHR86HldXxh
oxOJwtqRaNxkw0I+gYFKIebLs1oQVAUk5mk6eegmX283L3mMzQ4LkCSndAf5rT0f
c6HQM3eATCyeaQrIoqp2m9d5AMLAfAQYAQgAJgIbDBYhBCDuMluGqBvL0+VnmPBD
ZwlvupXoBQJoEda/BQkXIxz7AAoJEPBDZwlvupXokoAH/jukeoF9uFf1tdLJUUIu
mEDyQWYNNJfYZJYCKWUj5honlfFAHZnOjiTMsO9F0LutKVHSXj+Wm2MQ1C6LF4LE
MnjDNWZ9T9mJ0+ZF4PQ35/WJ54b5LYGYfcJltCS581QxMiHgfL7whK0VWt99thRT
0ajsWa2GWSphiU2EP/C+GMh2Biyn0wJ/QKOVagGq9nkw8kJ+S3bDJcdgxHjke7tE
nU4kM5RWrv3nhI9ogaEbKkf/CmiZLXIFXhqDqZrBEPcWrcKoZfvK88A968E37I5R
+4VM5J5uAPue+dnDslNXS1lOTv5UlvTDbKs1YeNAPt2MTtLgtDuZuEMF1cZsNibg
KXbCwHwEGAEIACYCGwwWIQQg7jJbhqgby9PlZ5jwQ2cJb7qV6AUCZi+/kwUJFUEF
zwAKCRDwQ2cJb7qV6Kf5CACGBc3wDWz4LUwrnB4mJD099WuGKZonGmPhPihsgGgW
gnGCGcybd1Dkz7nEEN2rAhivSoplKf7LouFLbeWdf6KcSBnJLdjsjZiyJkmiwNOi
WV0t82S0CAzphwe97PQNJITC9w3rVE6SHQ/3AfqshrfDns0j1v1/WiINyPUF4mdB
d9OT2+wGTAcBhYFL1EHBsBYzP1Gl+L5L/PlpdexPfq++qd0DyKXdHnC+PZ2tPiSt
kfLk8Q/KrsEgknrUKECbqdtlqsf2RQu9a92vDHhvIXA8fPjSdLtJNYgMipg1Yt9f
FIMNpzdiRedQGERKs+JbwsKy4fKmnVugf9ovu9mlIOF7wsB8BBgBCAAmAhsMFiEE
IO4yW4aoG8vT5WeY8ENnCW+6legFAmROf5cFCRNfxdMACgkQ8ENnCW+6lejNuQf/
TDoJk9TwXzFsntsriccU7EQHljZZcaHE6mloIN4yRRJ3IPxXUhSGJpjCZAn0ucJ+
mava40kL429snkzC8ZpWfrN/qxa2c4OFKKpB/G3/L0ZiMNy3pjRQBGcJJJTRFPog
lo/LZjFX1mbpZDWnK4y0YQ4ehkdYHoNjUgsYHdzI7hMiivUfbvpg0SJNuh/GchiG
kN/eeldBix8cD7Ac/OLjD+jaBlx1ieOXbeaBuN7adf70zHL78I4LhMZOcwT5Lpxk
NjHdAL9+ITlLIRSBRI9Hchd0LP3bVlWNNTlReCKr5q7dXZVatCyomGQV+5A826Pu
QPLb3wbMpCbv//MB2Hv1HsLAfAQYAQgAJgIbDBYhBCDuMluGqBvL0+VnmPBDZwlv
upXoBQJianGDBQkRe7e/AAoJEPBDZwlvupXoNCQIAJekNZOdQ2lUmd6IDbVr9TWX
MjX5LLbra0e1r7kr2xBAXrNu5t7u8FoIdXQg/SSD8kvK/jAWNXFO2As33HKU6Dea
HWrbs107ACplTgy+Rav4zP6fBZc/py85TNZFC6uGb8P1AEtAavaK3kJ+pc7SMGHs
Fj6PO702vKxV0GLYfKR2/zkJCvELrnSY2CrujW1dJ0660NJyHjXqhlePO/YaanjV
PCw8zL8YiVhmhrsfb3EeuHDYSUC23QBysi6ZfcU7T82XOL6zL8/9v53FNWZZHpe0
TphazMZ5t3sPXepCQkrrK3oCtUcph3S4WHLK4Ya26V+zQwZ3/qJjWD9pKyH2xZzC
wHwEGAEIACYCGwwWIQQg7jJbhqgby9PlZ5jwQ2cJb7qV6AUCYIgBCgUJD5lHRgAK
CRDwQ2cJb7qV6DkUCACDs0hLvX0ShVuCP406twD7MVO0+YME7sd9LCCiRMtStCF+
TrDetaYqJGR4Jvxos0tHtv3J2dX+5/Uun22tnu/OiBUzdDAjuN5wyxYsvV18CEbx
uGyg3okAypmevnxWPNE6+FmhmARe8Z7ZuIojsCbbXZ89Cf7zE9PEqH7UiOgGbQrF
Vkj0+X+1vBGtG136Gjv+nRz1ZQysfVyXtLJCzkFgLl8rSTgAedELC4x2pqtk0JaG
LPONQVeTeHkViFGCVt7sCoqioC7WGhHwdWUA3k3gYtEfu8AkTikxv9AsSLPR4OBx
QS9vZepMe4coYihM0ji0hskN0dlOepHx03qYy7kmwsB8BBgBCAAmAhsMFiEEIO4y
W4aoG8vT5WeY8ENnCW+6legFAl6mhR0FCQ23y1kACgkQ8ENnCW+6lejgiAf/cVp0
4E7jsRXLBqwUwXJKmJJtnpmKj8FMvmoLHU5gsmpM7/ZXMpAq/CB6H7ygdXBBow0v
eMAM0O+ky1HyzdZ/OCCDPHabEsaqvOYcGG49va6Ka4ARMPQWiQTZmPuJ/rX62H1i
KDxk2+X5YMQyodNegGxKUckCWO3ngLx5iUKGNKyLsfTAApT2a2HBpyG6nsWturmZ
etLS7uwZQ/pV6MqZ0dtH4eHCurAHZylbLlq5/la0zRgwIeKBwsnuebQJVU7kZ9DD
o25guNMEgLbMLxhLjoqmkA1fHzHwgALm2Iy0+d7UMSgFdzLrjt4DgGt42ntHKbVc
SHBKw7r+4aoo3RWOH8LAfAQYAQgAJgIbDBYhBCDuMluGqBvL0+VnmPBDZwlvupXo
BQJcys+EBQkL3BXAAAoJEPBDZwlvupXo9pEH/08XJ4x2jkv2IAjMTl1wNr0EhxlY
232HyT2shI2k4c7CfxN9y5yN2rKmXMZVUoi2yn7rRUcOZEhDrXOre4oQx9JBILk3
Oz6dIx9ojSM6JhV/3H0LCNeNCLVCOgdSxE2WRqzgs3qmPcZNNfAaiD4uWCpUOnDj
jOw8g8eX/HO7FC+JuLQ0hweRqVz+IlXsjPdKQHVRiXqn2Og4wlH79NlDCz7lAOoP
qyaYzTPhTc0Vi5wmFfqXaTHTAsYXpy6lkiakZ/FC/VFM+tvX7z/yEICgO3EkYW33
vylNS8hww7ivdznyF0NmciI+DdmN/33MQhCoBHC9QEj5SOnimbiYdELtNaLCwHwE
GAEIAA8CGwwFAltW5kQFCQpoLIAAIQkQ8ENnCW+6legWIQQg7jJbhqgby9PlZ5jw
Q2cJb7qV6IeEB/sHHSpRDuwP7ovi63tok67cm14n8ove/BecG8tijLvIBgmJCycv
9SgJbozgHTC7Rc1bXLk6qrCZwjiM2/D/pGMEis/E3JZuGhBtnVq3V6HmGSuVdpNu
o7j4sLNfKi5SQGoaMhnaAc9pWEQJohCYdftZTA+ryW2N6/7gOR639MTIqwD1n+Hz
1qxBJiLOSalobQJirBUh7X2VjL7oplHChcwwiVb0u0vKlic9RqAA8XR3Qvkpts3J
9OnkukqVD1CEYBY9ChFIjsBnzxEJVF4ybNqu4PN1sOnwDZuPHAUEHhVxNVIYF0mE
rKeU0yL/U34c866D6D+jGaU55eO6MEmDJXLvwsB8BBgBCAAPAhsMBQJZiF0sBQkI
maNoACEJEPBDZwlvupXoFiEEIO4yW4aoG8vT5WeY8ENnCW+6leiDAQf/UuiE2LD5
i9p16LoHpfkFbUYopnhTfZlebuUNa539rbev8EIeiJljTFHVqM54e/G//EjjV8I4
wdp6Oy9n0hsERBPk+vOjl3bb39wzJGkqAGSz7w+Kkqh+wBhWn4Kn7mlpucfdhys6
tFzlh4PNXkjPg6PEBhzD6LjElTho3wiSiA665BufC/Sdj5/poAUgaOh4KYjvDurA
FBx+Rhz9jNbKckKoOdL56yIsw9kbPVt8uUMf1+tb7xk8syGAkyC3MTPZQspbANbu
6LHmRXAa4MkPJDG2qYpWCQuOZRRchsMNsDujU8XDXxD8unkRefw8pRNspoYqP93o
K+StGLTSx+tJAcLAfAQYAQgADwIbDAUCV+TswwUJBvYy/AAhCRDwQ2cJb7qV6BYh
BCDuMluGqBvL0+VnmPBDZwlvupXonZ8H/1KNY39HhGpOqWOnxib4dZE1v0I8eZUY
pTbVpGeAsMDWVRqRF/ldwcRBGqpPGDmMarjteEj6/LeB+xGVygABXV0jLoFCVxCT
lsCZp69EIOZmloI6tTbKtEtNHup21oQvVA0tCim3mPPpCvTEgzhGUNtCKa07bWfb
7CdV4tk2hxfn6bcB1UkC+aHtyOfH1Bq6UGDtpYZ73zaYnMCE/n7zvQ5OmqbVt1+s
URI4C1OEjto8YSx/H/9dJay2v/uK0eqb1GcMMXU5ICEyupdKSgY/7S3KxL/HXmcH
gYmhC7Md4Z3X5ne6+SfesOpBb7z72sWwVTmD+Q/MXIU/CGTFj26LelbCwHwEGAEI
AA8CGwwFAlYWSGgFCQUrgx4AIQkQ8ENnCW+6legWIQQg7jJbhqgby9PlZ5jwQ2cJ
b7qV6ERHB/9ie6k1VuGmNbuaKYWF6qEdrCeYItG++GifjSdtQkrdcOS+Z2x4duu+
UPNHs5UQ/pdCTE4ZQtVhnY6ZBoys8wgXsoDmtBtdkdU+HwvHyaNut5EDJTwVLNgs
eCecc51PUDdx3RVm6kz1aHl8XrhxUA6SMQKxhsZrZgWdAJ+uR4pkUK4MLIoUBv4b
st3huBDIjtIzdfWhjKchvQgNB+Tlf8Mkxl23ftD7NJKue2MCbURmtdRrjpmiRkzU
dGhaFh/0LkWAhV8qlspgG1Pkx3qGUwKm6hQySkUbq3mD7+MkleoJnE+u+W2Tl66T
0XpS5HwHr7mHpR93reRmonShALaLKo5HwsB8BBgBCAAPAhsMBQJUPlN4BQkDT5mZ
ACEJEPBDZwlvupXoFiEEIO4yW4aoG8vT5WeY8ENnCW+6lej6zwf9GeFqRj9De9TS
5nCK53qNESFxlzKRaOk95MOW2bsVFB14qcDQnl/L03hc3Cjx1EquK2Ux+B5SleHd
anlb4D7cxftk728WYSH9/oMfKhOOtbAe0b6agRr91JeW1PTLuBDy2z1kY60h6DWK
icuyX5SE49mffusM651ZNu4VGkjLAJbvdv+kffZi2Bi1kUFM4gvQ/Rzrbwtmis4+
Gvbkdlc8DV8yZsq5NDmRLWa73EcxGEdUP7Ex8i5Tl2sgOrSqWjRxDap62Ye5KvFN
lOJWNHbK6+YR9kMVU3jwbCct3dAiP3Xyenfa2EieYKUUTF4iLWTLu0Qz3g5BIlii
dYZ13uAUbsLAfAQYAQIADwUCUs/tRAIbDAUJAgIpAAAhCRDwQ2cJb7qV6BYhBCDu
MluGqBvL0+VnmPBDZwlvupXogPsH/1WocveGQR35eLTPzd+g3DB3/LHPcozYHHl+
7QUMc37w9gjhg02GRVK+cq8CY8YBn8i9X5Bp+es5B424egADX+nGdp46yIpGIyHN
FHfOu13sdyDVYBZwHYT8cdr2GxqpArkswY8XFDKH+g6gzW4MgaMJaYY/0CrvJfyg
Yzfo9dZfWTw22MTrKR/yfpN0DaLIES2NvUVRyFI4lhe0GnLMbCVps53FKZJWvypV
5az7RhXLFr3M3wKLI8QAOVcujC9oxlWS9ieppE/e7mwRIxelmqkWhGWe4HeQIXai
3rDLu7KaheqsLiVZJ28QLGIRP/XOdoQgG1e++8U5MlaOfZh2HGM=
=DSK7
-----END PGP PUBLIC KEY BLOCK-----
-----BEGIN PGP PUBLIC KEY BLOCK-----
Comment: 57A9 DEED 4C6D 962A 923B  B691 816F 3ED9 9921 835E
Comment: Emil Lundberg (staff engineer) <emil@yubico.com>

xsFNBFmDJlABEACu3H1u/BuJ2FPYhT1L56f4G/HOxvtDaFLT8WUxgYPeOZB4J/hF
moLfIcwWAVqy3mUamCFOEwvG97a1yHpG+biyGo23D6YqHc4um1ijGueNQC/AJmHV
+cQUHCZ8vrqpSmY9dh7pybcW9sGxpYhCLs+u0GLGLtZXpgLqIiBQP27tsV1qdh28
2vTdblmB830zmSCqVOwWcaDiLRwaNu6OmMeqnI0QRP8gdfAeR/Du0PUUaug+I4If
4/Yp9pbbKxnjKBbl7k3pihJlfK68qtcxsEVmvdfDgOjoPHRSXWa4zFX4AIIoiF6W
evELdb/DoOfV3ssHHwEqDX93lkU4hCZ0jS/QmmuOxw1KXKO9knV0DQFdx4oSRqgK
zbcCY/FIjzRn/2ndlLNXYKRktvsCnpoyiuvM0uLR/M4Qza/0bm4OnLHuAdOnVcb+
GCAwUiaFJ6ZYU3Gi9u5k0+671KBj5HpiFVwtFk8b9rZsNlxoFLlvKYAuCdRgkIZR
m85HI295LpQqa3q9w9mvxkFH3YK4TnQXs0dPcB+BWB78N7VBN0uBQI2F5YpgGerU
KPS7TGbpTDL5lHwc855VCVeyqHbEIGKe0ruzdvtJXlc7WdnFVFuflKhSYreO3MS3
ymkGMs0yZAoGB5vx2MDkvKHAIC7u4GoWM3zAcP+XnDF0tyZAJ8+KY0XueQARAQAB
zTBFbWlsIEx1bmRiZXJnIChzdGFmZiBlbmdpbmVlcikgPGVtaWxAeXViaWNvLmNv
bT7CwZEEEwEIADsWIQRXqd7tTG2WKpI7tpGBbz7ZmSGDXgUCZo03BQIbAwULCQgH
AgIiAgYVCgkICwIEFgIDAQIeBwIXgAAKCRCBbz7ZmSGDXoJkEACXs//AIWWXxEtV
0YP5+DQ8PsDXK47eZy3NIqWbBpEtIysgEeyO3QKD7x3En1i8pwh2sgutmKvTUGsp
f4AtQ4644prdnX6SCRGGk+XO75lPDZdGT5B8b+8JcjLN3C1LFsMuX3cuXF3gSJr/
DR3migHxhdF28glhPSLftUAWDDIX0vFxR7RIZ+A9Eq9by2SfwCSBiBHEdN8GZb/Y
Rlk8FOhBWgaN+/I6sUBq7Kpr8/bgtUSm51TEwubYbZQ6EsmeKl3RfNQ4HWxbZEix
TaMtd07J8j8npL2iNywNnyGt5ybxCW8iaQRzOnObIFrPhwJsVfd+epCzu/PgP2Gk
UFEbqEny8hBXEVsaStqDuC4qqvOsd1IkRznE2UWopOI6wDEF9rkXB2fTCUzvAzXm
/XhpBkP+JcIItw8S4tM2sRPn+FHYCSNqmg4tv9X+PGYRuePEJgevunZhLEI9udmy
QiQ3tMFk8sxtjTZDLPIe4X94UJcDI+CFKTlPH5sd5vd5gQfPYmE4mp2OBjuWhuCR
QCgORMcYEes3buUk6wa68N3ci0tm/VdJaoSP0aZBzi9JpOJ2Y4mv566D/qAqtAgN
n+QztH44jqbhscV3HGOn1MZTy74JGDNA0KB0rKYeYqzajiJpoXxDz2rYYWMRI9mS
cF3FTUh6rePFZ7yj8Xd59TRroOuBYM7ATQRbloIEAQgAn0/uFSb2h/fEYTLZqh2Q
dRRsAVVoa3+WB8tpL9cIEfDQAuNg1rkxJgHCuH1WPAv/oYuUjcmQ35sRx97RjWVQ
gkmKFWIK2qqRhBiIEgkkQycwCsHmYmdSrHP5NzBgRUr2yFc6xdy/k0TI438BfYnK
YElNxW1LYrMmXmREa50+9r+v6BFXtJbYljPtbkCZ/BhVvjDT5fzMZsP6Yw8Cg47x
d+z7AsBuO4LkN7GNXq+GDooA97IdnTT0ArofFBsToEDSCEdcV575eylcZyD9PvPZ
xQ906cxkV/c5kYM3xpLuxj3CgY/Y2IJwnwXLwG/lVXqzTZ1j9ksstBo8VeUuSKjQ
YQARAQABwsF2BCgBCAAgFiEEV6ne7UxtliqSO7aRgW8+2Zkhg14FAlvhv3kCHQMA
CgkQgW8+2Zkhg15Vdg/+KNn2iiqqGGIDBTBQUyGDlQBWjUdiGfCjeky+BLZvm9lC
eqYYoLyfarIxNLmXHD0Febqsx00lti7qDw1xToiDhMtbM98NUfExG3OZKukL7OCb
1hRWU70gzBVTO4Xw3GIZkbZzfQQvSEAmPGaSWPs2iMKhdU2SaMd0ZMT86eCMPPLg
mK0/fztd5co2hYN4k7M3SklU5DbhQGVFKmW8SqWFIERMoOnhUBqqTEtVutLNUw89
cn0h19hLj/9STmnSOAbXpw70kNZtdpCxslrtDYkz3j+Gi9mSWfu/NY2HmcqBdjjy
CZuk9kjOeVQYYcGS32rQ28y0grLzdcQZaGicYz5IUndniNRtN4lK9dPv9HBz09Vh
Y92VXLHHN77aPh8JWddH7qmRLIBvNpxLra7cb5f5JptHf5zOXT2ZvRHVKk6JqPKc
DR26MGYgFv3faFK3VT+OrAj8ZKA809bil9HjB1Blhw/N09CuqT1g1TTpge49ZP2x
XCVHrYMH3Lowxc/Vlg8fb89AfoeTE5SC0/1x1ATltYwexKPfeivkdq2UrchmeUGO
URNOfjxiF7onvoLj3UgQ+bgFWC65dDFbFYm6B+6672x5UeyFkmPuijqesuFCTjlb
ofXEG/nwWQ/Q37zxy7WSaLnKleMS8jqVb+a63MkdrH8B9/2qyWekGVgzlhu7UZjC
wXwEGAEIACYWIQRXqd7tTG2WKpI7tpGBbz7ZmSGDXgUCW5aCBAIbIAUJAeEzgAAK
CRCBbz7ZmSGDXqboD/wLADLm0KmH2aKcpUMneZQGrxYH8GWhMJAT/ITo1FaLUfje
hc6rMtIeK6YgWRjg9JG05GQapsEdJXdDtwNJzsvK9iJW3H9teqaroGjaGwExrxwp
6GHpjmkZrK+HF3ASa98y+y0YEA2nhkDV4ub8xJvrfgdX5ggMp7tTeztUzudQHR8M
nawLZLP8AQ+55yLEZpXx37i3vu1TFB/B9SHNqAve6nPoFnZAGCpxDAyoxYcxcil8
VeKwCIvsDat5VjcDr8YStNdcoKxP47BZs0/MmJNAFZCsPDzNn6T9ABQytGFZT5KI
Cu3pryhU84mzOqbUc7QadUDHUVN+XeOGQDd14TvWzIOWr5Y2YK5JsEw3ZiEaik7E
27ycwDh9X78QEjiafmFh962jlIQgYBlDktPlVFc4bb5jjKpbMADPkSVGJWtKAsxP
loOTuUnkAs2/Tx3tHqm/hAFEsx/oYqqqrSY5UPowzSvO6A7DXFvcOzdMrnQuIwWr
vQ+xOZh836J00nHukdRiOipEup3LK0Lz/XCdVwqwSV/Hz5fhCivcGyEgzzRcfMo+
3FOz7WKR49CaYxW/iksjIqRcBVEQQg5crZ7A7jGxfAJJEaGMjr+PF6NekOuMq/f/
CwqbFJrlw0vKozj8EbW59ZUssBFHbiJNJ7ZKV034cWzuKGffj4yDjPmWSO23U87A
TQRZkxg4AQgAoHJT6iaR/MaD1VMFD4at0ypmflimHNYFGX5Dkya+yl7jkF0Rb77a
Xp8vnDm65jIybwXEuADGYYY908V6pb0ngX7WzreZRVh8T6okftZ+1oKomo0386f9
VCYYjrPtVjS8b0Tx78fmNoIDIOIXe/d4icc31I1j1TRUNXgIAjli4u1vq6Lg9az0
cfPXoeMMYd6ivkPuQ9aeQWy1hqRzCov5GaTUCuE8vLIIv9GfEeuH/16f7aVG7T3Y
olsw96PpBVuheOgaQJGPI2Ihqv2YRLEZqDoOY1N/ybb4Pz9a2f/9iAYS+GVkvrn0
wq4nYRjHRibHFL/1248+LIfDvxOWwDZejQARAQABwsKyBBgBCAAmFiEEV6ne7Uxt
liqSO7aRgW8+2Zkhg14FAlmTGDgCGwIFCQHSswABQAkQgW8+2Zkhg17AdCAEGQEI
AB0WIQSlpVNl8x8pNIzHZR4TQswrXPhPRAUCWZMYOAAKCRATQswrXPhPRNayB/4x
+vXqsyUmHft0O6M02cPGoVs1xtUuQ/saR4tyFRpfumClNd/CaB3FnPzbfZwHCU5/
yFUAwAAG/wZTAZ4ZvBMunCZtkZw92qphOOo6M5y/1U7V0pV3W5V2Lm2AjoKDBnNa
Mu+SoPEDIDAYxi9GqHa9qvu7pkQfb06yryFpatzLy4QEjqt17tK3IyAAvhWWOKZx
ebvNLX/oyZ5YOjG79crZs3frgQQEM7u/yI0oZttb5SJnooCydroEgicLA/tX+btO
UvNj0JpxERySoKjpLriORToFVJ6Q7OtIvEYGKyp/kfJilQJFITpxVl54CELUy+rH
VUtKWlnzkFkxOCYEll6g7LsQAKEMhv2FK7suq12+cIFmd2RcDihC6fQqhOcDOHBO
8uJrgn3hepOUolRkbwmarCxZvWl96WptgoL7Mt1ZhZWgD0CvEBqJjdkFepPLffGv
AThQOo+0vGVEGL6J9wYfl0Wu6bmjlit5/vkUpclw13OdQ77gwvl13Gy46MU7O/5V
KdnqU+QlCcxQI3AGYDk55UHa/pWL7sEL1JdxiYc6MzeMs0pRPbyxKwtNrAFeTjxz
9hEBdv32Gk+5g4ory3Dlfme6m+PVA9ibdDOx/Iwpim6B7Y2pHxtIHXN050knYESg
eGgeNa5M5Rj0fnYPv5D5cDe6GGo6/rnrlzY1Wo1KbI2UOhl7UTzqTUJW6ZqI7vfD
xmSb1zdyoHRgdCFG4cqu9WtxIpsjAsdOISRZR6JpPmp0uZ+Jn0vR1c5QIaDdkyu9
E7Tk45ds++GsglVJlwNlLMEV2goG9bOtXbv/VQjlDOs24pp2+bMCxVjZU+EBmpPe
yndsOnyJLetCU1cINrL5nREYLPE2AjWmGs4gk9ZPbMT0wdwO3fRoT04PgVEvOOg8
EPR9UMMIomfFQBbMrD928ySkIizRz1gCrp/LTiuOiJjx6CPL7BmcEC+1RzY3dR5m
tGJyayy8lFr7I9EFo1w57xfJXZBMLiP66CmpurxBJP/JciQA5PSQ87G/bGwjjIzJ
I4IXzsBNBFvsc4UBCACiosDacOQbSuEDdAGygiDU8ckY7loaJfHWhQVDMp6UcdhS
O4Cv98JND1b741pkkrEBQKZqW8+fa0F06H6r1r9XXlk8LZK4ypDQ7y8kd2pzHoFS
uuRb6wqpC7YrDc9MkeZM4xr2vWgisa4eZY/94vZlLz9aqh33CayUyDH+Zkvcvy5X
aJNz8zihEkBXWa7UQWNBYuf5NBTZSkKtGVdkmJsxHeQuFspKRQ+DHfBgFwJQWDbM
RKMpKmOr/62HI7g6xV3ZvmnFk7kCdBfEKw/wte+S3l72RsT6KGeXdE5SUYX7RbM4
XuyZ3dFAExd1qam4yfUyXZNBDdye6arSnD7n+B4NABEBAAHCwrIEGAEIACYCGwIW
IQRXqd7tTG2WKpI7tpGBbz7ZmSGDXgUCYUD1SwUJBVXTOAFACRCBbz7ZmSGDXsB0
IAQZAQgAHRYhBBWc1+Svdd88Vji7zdhYilhE4qd0BQJb7HOFAAoJENhYilhE4qd0
9toH/22eUEZbScSiMrEnXndbdhX50AKn+7c6VkUwKWSMRslUc9KQrflQ+smFlUvg
8Jd4waqxNFlzjbA4cGMD2J/XVZbIVbfl7JpdQiVYAK7Pn0mA+ezw26iTv1qzyA/I
dE9qy4ewwnyLPdLAHbU5IlIHRaYveS03YzTQEOi9k04Hm9sBMfNHpaRV4d/UwCWJ
K6YR32awpcqEvW1AHNCw4lKS+IVf3amuoiiVv47VHFNKDHVb41+1k3SJxbw8qmDn
ndNTAeCMsTZZjHEcSJLDYrd8GS6KYSxdgdO8eP5dwZZN3S3cQ2VjyHUDH3zzIEEo
CqFgORxx5OvkQX/B30vOYRNAzvlsfg//ZvzeaHmmEtVCFhzsq+F69KJCtSyIwJp+
hCiOb+dqjU0Zz1ODN6aRKNlHsyHJjQ4Hw09G1okO+gL5dUspEpVlRR0icio+9RD9
7mZLCZJNU7IRHUSyNx+tnlcmzV1Nuet4yA7YeDB+9iviY+5QlwzYiDSkBlJYGjy9
8bGiXJ8xlR6ZPf2x0kuDEXOzEnPFjRF4Rax1+h53z/LgwvzvakdpyijaIo632qae
3pG7iDo3viuNhzIA84IrXD5ZvP/BbgZ4+iAkrwFI4hZTa8S1XrfMyj13j9+8smMG
tZ3/CgF2liwhC/C2LyKXWPKfW/nlGDWWillZZnk/H5eAVmODbTF5szo4TrYLUSqi
VKaQr2BfZ5qPEvr1MY9N92kC5CpE6jNYFpUhWd353pVfuXORH9nUbTydnXbw+76x
ipY9CIvPvafAL87eSU7NeYfseQAMgPAR1jsjHxXlR7FBE73AqSWnIIiBOuRUgYXR
4Q2Q+gAgq1luaGqFv2hxD3xyOKdxN6sDldlroHTBLcPbPOE9M7F08OLEBwO0nToN
SvSM5km8O2ry8yR+sQf9SSpEbBPDULyFzSWqVEbMHKpEFVP3FVp1spXJIwenastt
axcFHg6bDN/9orSxx+58K6JWracx9BWXTQfsyHWG+1XTICftAWW7jg8vyleB6ekL
nbBXw4rUr5/CwrIEGAEIACYCGwIWIQRXqd7tTG2WKpI7tpGBbz7ZmSGDXgUCYRvo
/AUJBxCo9wFACRCBbz7ZmSGDXsB0IAQZAQgAHRYhBBWc1+Svdd88Vji7zdhYilhE
4qd0BQJb7HOFAAoJENhYilhE4qd09toH/22eUEZbScSiMrEnXndbdhX50AKn+7c6
VkUwKWSMRslUc9KQrflQ+smFlUvg8Jd4waqxNFlzjbA4cGMD2J/XVZbIVbfl7Jpd
QiVYAK7Pn0mA+ezw26iTv1qzyA/IdE9qy4ewwnyLPdLAHbU5IlIHRaYveS03YzTQ
EOi9k04Hm9sBMfNHpaRV4d/UwCWJK6YR32awpcqEvW1AHNCw4lKS+IVf3amuoiiV
v47VHFNKDHVb41+1k3SJxbw8qmDnndNTAeCMsTZZjHEcSJLDYrd8GS6KYSxdgdO8
eP5dwZZN3S3cQ2VjyHUDH3zzIEEoCqFgORxx5OvkQX/B30vOYRNAzvlsXA//ZecU
2MF/THgVHLGZgKDkskdWc9Wbni5pKkq5TkWQ/XVB2AM3a2+J6gQOQiOCwfawTB0b
mjI8lDbs5ruW+xJZjJRlYPE9ztB7vM6l2cxWg2Z2mk3rxWbz3cVnzLro6tPV1JRg
TceNymaGYDi+i8qXCqmYVEkREU6BPoR/mYev0124helo/btSli7buPAjddVioxnV
xVs+UjxBNvICESv1pB4doB0GOE+zlgcw7Fq7O3ZlV9XHGZHm0PmzxxO1vhvA6d2I
VZ8KJPw4hEsSw8hoOMb9rqPVq6bmgaXvM965JHMZDSGnFZq1QD8oUqJdTKPvNXFq
z9yKRL/CP9CKl5ssCUD0wcfcWjqtQewTK6v//cydcfte/Gu5cd1eirl9vAFTbjMC
tSrms3t1N8d98nu/rWBTuXuEkg0W1ncRN6LdfHWlFRSodHUYwp5GYxcx4VrBQYlG
jciA7ddIPNEOScMh13ooYOs/HhEw5GP4r1VR1gA3U3WMePtmI2TR2Wt4ws15gL0w
mqLjk9viJ/xSc+x1T/6CVEkR9DYX0LmO9FtLHcGRP3zaSbHb59voIeBtMYgRqXVZ
HhWiTL+WN9w/0PjAn91CnBsdewCpWfsgEcPnXYzVDtZ4hAADjcwg1rjpZlON0rM+
K8CdYyt+Y+lIU05S6fq3I9HVkTaI2+icrX0Bi/rCwrIEGAEIACYCGwIWIQRXqd7t
TG2WKpI7tpGBbz7ZmSGDXgUCXc6YAwUJA8NX/gFACRCBbz7ZmSGDXsB0IAQZAQgA
HRYhBBWc1+Svdd88Vji7zdhYilhE4qd0BQJb7HOFAAoJENhYilhE4qd09toH/22e
UEZbScSiMrEnXndbdhX50AKn+7c6VkUwKWSMRslUc9KQrflQ+smFlUvg8Jd4waqx
NFlzjbA4cGMD2J/XVZbIVbfl7JpdQiVYAK7Pn0mA+ezw26iTv1qzyA/IdE9qy4ew
wnyLPdLAHbU5IlIHRaYveS03YzTQEOi9k04Hm9sBMfNHpaRV4d/UwCWJK6YR32aw
pcqEvW1AHNCw4lKS+IVf3amuoiiVv47VHFNKDHVb41+1k3SJxbw8qmDnndNTAeCM
sTZZjHEcSJLDYrd8GS6KYSxdgdO8eP5dwZZN3S3cQ2VjyHUDH3zzIEEoCqFgORxx
5OvkQX/B30vOYRNAzvlmjA/8DPa1IEfIzhqKE/hvMt2ggrAkGqD0pcytvZ0l2Pe7
zrQqOZatBsqaFFvENIvSVabUsU5k+Bw+R+Qt2GaVQE3WshuJbj0lefV1kfsRRL5K
RuyVJ9LGjdGNKzBhmTQF8AAeHPYGfYOPCIBhzp+TEY44hT4FjBWDDEjomaBxU4U5
lJakYCD9HJyevzC0z6HIX1rtJZdeUGVe/Cxx+SIz80VQYq1dQBqzc9TglQA6GIiE
IOSzXyQtDLOU2eg8gKJ7B4LbSSB+aAyjTDYqHs46ILDCV3BXNr8fFkwfwDiVkZOH
RucnIhlMPbnsE+nCrXwV19/Pbnc3EtInq39xnNpMGb3USAKdH6vWYgEcX2oARdy7
HpVdY98XR6Aih8sNG/QuX6HnpmWXqc8kDcAcTM8YZTJwumHJA1trdkfkMP9/Lyug
pWr18LfGCrVgV30wWk3DpQhaIrs+heEQ1vDxxZ15OYJwWqaE2wmX2dD2sVXBDh/a
EwG5Nh93tVxucFvHrrG7dhImduksmkHQFlbFFH5QvQXh97IBb3pbWFoT620hZ3uJ
3eZzuFFQsAnAY6gX1La51hEw54eKuy4tOfFb0YbMuHhF7NhVqoqKLR+Y9SeIyJkd
X2C3Sf3r6xpzqh6DRiguwkDP95NsBcdkFAo+e4do0inWNaLlbZp0BfD0UX45rBhT
PtXCwrIEGAEIACYWIQRXqd7tTG2WKpI7tpGBbz7ZmSGDXgUCW+xzhQIbAgUJAeEz
gAFACRCBbz7ZmSGDXsB0IAQZAQgAHRYhBBWc1+Svdd88Vji7zdhYilhE4qd0BQJb
7HOFAAoJENhYilhE4qd09toH/22eUEZbScSiMrEnXndbdhX50AKn+7c6VkUwKWSM
RslUc9KQrflQ+smFlUvg8Jd4waqxNFlzjbA4cGMD2J/XVZbIVbfl7JpdQiVYAK7P
n0mA+ezw26iTv1qzyA/IdE9qy4ewwnyLPdLAHbU5IlIHRaYveS03YzTQEOi9k04H
m9sBMfNHpaRV4d/UwCWJK6YR32awpcqEvW1AHNCw4lKS+IVf3amuoiiVv47VHFNK
DHVb41+1k3SJxbw8qmDnndNTAeCMsTZZjHEcSJLDYrd8GS6KYSxdgdO8eP5dwZZN
3S3cQ2VjyHUDH3zzIEEoCqFgORxx5OvkQX/B30vOYRNAzvmDBw//QHrk6IeDIwzd
fMB78rpTHaPee4CYCYsJeN14/TEmPjmdSbSu80FzlPGnWp1SnwIi88QNb+wogXyU
15Dzl8k0ZRZuMMXGmMstCA5D+JdBnuVLcVLWmLXX/A+izyTZo5Bf7Bd8s1fhLLvn
4v73Xr+1o0BNFY/may94JRIA3HTYJDbqN9pG0oATmMU2U1NreaxidIZDllAP9Oc4
rYYGVE79zST/N2Ey5Vk2jFzaY+errLSlh9OVO2iyYUV0uVR2/Omi5IpJZhP+TcOy
S5UwfZK8ncZmYJGwflmPFos30V3IRbE7PX9fYRel6ac08ePH6uoywSZU1DZPU4WM
henTIDcPh+iAy6i6uVgeInXcfBeGa1XNi3NCKevV3CfVWmxbo78Dbt+mlYNxoyHU
fm3s2tNE57sEEyS7nWF1y9lt57reNEa2b5KMpykZiIPRYyxSY6OjxYIQMGiYOFdT
OmxrkkKDe9B95uaMw688bB6HZuBQso+j6vgYkK6TT2EnfLLaMjhgjeruph7LepXT
7CVpH/KZkuD7rfM4AUrYiEYbblWE2IKtaM99slmrXhC5OLFLwtdLYvWfuxLwHIVC
lChffTNDpUbBv9NDUMkHl66ZF7SSqWLO3wNrXIA/aHQKwNYOwweVIetvAGEappAY
gMBIKBtNey7la3WNFz5Yyeta6ZjUk4bOwE0EWrzcRAEIAKbPUh6wof2W6ohoGe2i
hg2s4FUfJT0anT3vJvHwnTDKEzCvv7N+5ITVWT5Z4K8oAfj+aCdq0qbIHdnExGl9
affUt5SX0PAtZ0oZug0lRMQTevryw3/fcsmZeikf1vnkjHaRdUGkR5lq4HGJzqRP
HexcCfoE1QmbJ+XD0p2p1kVrtz97NxqMEjKm6a6tCgNmaSPA3jJk2a/W22Wu7aWR
fjqgi71HHR9a5S0Xiwda169Mm7sdLbJIgiK4MMrzRh51RpRbhpKKroJjg03VAvuE
I9dj87OGtlHEDPmX18O+UjRdJqflOl48qHFNH1sEvHACVNqi/NehO7jTgXxgXCHO
WlsAEQEAAcLCsgQYAQgAJhYhBFep3u1MbZYqkju2kYFvPtmZIYNeBQJavNxEAhsC
BQkB4TOAAUAJEIFvPtmZIYNewHQgBBkBCAAdFiEENdJ8SPCgjKR9lTmO2yho86lf
J4EFAlq83EQACgkQ2yho86lfJ4H4yQf/WNS1JBJU8C0BaAiC9BVSOjJTxs0iM8Qy
sC9n1Yaum3d72qF/UgOGqFpEoYxw0bHLamp9NTQZ07hjNGtRCsgIb60or66RpOfd
yZBkthTgWinrI/CTIxUqPEPuVrLysDUtxqpKJKhhJm7455XR7M34xYzeLQjTzJbp
eRWTDBqFHIgWYE+PATsjeDpzK6DBhT4pqGuCYbcVhzq8r9ESdyMXDLc9V7ZdoJtS
DREXc72NlkUN18jhlsKh+oyO6IdQ4jL4TF2SmcOIsFJP0GtZyVlLgkuvJqtf8LPz
PIB5n3AbSwJA9hd0nGPGvqS1TqxROv+7z39FWVioXCPo2r7rz+tK2Pb7D/9RFddC
hx1uJUS20ntQkhz+uxjOxVarqe4BTkyPFBt+xMFqkL/YA3eRYwe67mMBNBbAx11z
G0oCccJoLINmx+XHHXMDyh7b0zZx0QV2LfOKKUn/twC0nVN26hlTCZe2WP9N6odH
60uLduSwLSqND9dchHKheZFQ1W8f0pDANmjqlPWB1TxN1FXVprktRKHAHv609rdt
ovlE1NX0nnP7ktAo5vFH5QVJspIC9J3PcmawtwcFeEovQCwn3s2fWEO3oe5ivtdb
vEOsJz2Mg05LTMBa5dbpCiCbXTQA8lRsqaF4uPyxtwtsY+moijnEC8sm/6hR+Pb2
Ukqwc17tajwIOnN7j45d2/rig3X55IS0fFITelxjeCOkSosUu3nKvrgGeDvgy2M2
AJ422/w8K1SnTLj+A22qckJjygeZZeoEao/kXsNi+zBcIGGFyzWb0vsf7g1d6hyX
5HrKd2pbx1Gg94ywhsYX4fNBb5oZS6gK6kgD7yRcBE30sYBMiv1Tq+84/LY3EV8Z
+GNnLTlcRdZa+I6AfFiHfG2Zq5LfpeEeoihTmWrYWvzXskPVuzsC0VpUFpXvr36g
L2FkMjLUBZTu2WZ+GPYHeDT1sp3lI0W2bFY1Oh7bcUo95XKZd+uxfpbsFfLASjyb
dQxCZWwy1wrLhzjdheX/xeny+gwnyUJ25Fj1Ds7ATQRZkxh7AQgAq0q6v2wmZM3m
yMLyA/F/vZ1chtEFDj88sHSYHCg4UayGKJNRpiw8AiFe5cTv9Eiw76BwweVOpyzw
vauH+lOm3b6q3Aldom3/t+NwDwomxHXvgR7ZYPQGiI8IWd+H6b4iKHt8kpaREJZH
Lj0TkUN2QC4Bz7GJatj5IAEE6+6oUDgt+TB70cW3GHwlpl/CahbaNEDX9g/iZwRq
D8R1OSrNxwWrPeQJBmatXzZ2ammonkBBxlM6tHagdC/i4dZSehiyfL9AKp6uZ6gN
uvjzsWX9XIi7TUKJ7M/exMOEEdbM0S8zXHD94fN0hDAdCDk1DI4nfl8Nz0k+n5VF
K6s0Tm9e8QARAQABwsF8BBgBCAAmFiEEV6ne7UxtliqSO7aRgW8+2Zkhg14FAlmT
GHsCGyAFCQHSswAACgkQgW8+2Zkhg171Pg/+NAfCIEO+pVaJ6NCcdnN/MlVIgQPO
JTgSYHKG4/6zQHtuZXcSfWkzQDKNu3cjUOQE52SDHa4AUHqHjL1KlOv3b3BX/635
qvqTcAYG3D/LHNC3PmiiZt2S+Gm4xoUh/WQuCAt/QrgRJ8w+LsBcsKjkU5ZD4tl4
9EExGluBPos6vP1VpRCyptD/h7qxDl/LcbZaQVlGeQOmzF2M81m/7oLyzHMZUWOo
qhhddhFy6nw4trsd/NorHUgMmXIgB4ZBRKhx9rZlKjZqA9yCsHXDz/S3PkPJbH/+
rZtQQpna92vVBuhS6x4DvP7biYjmHOmUoR3pqWDWwf7NOMsM50byco3E8JR1LmVL
uBeSLOHmqhfrTsd31a5JV6PQux8HW0HG67Q8cCWc3UFEzx3cuzbsHr3pMajU98+r
5KCL+kVClt6JYVwzeLoplX69vD28txSZYYjjeJTRu8wX7Bx2JLovbcRshnJx+E1K
Q1oVoMksbchIwOxal13YklU3eKIu+Qrw7tnT1eA9mzm5vG/fwwoCTmS1EQcQfjL8
QuAMcbj7N75sb9uX+mH8S/sAVY2zELzI0SDgSH2Is6aYYQ/SXF4CveDI+hR3WEJ5
RmtO8deIAf9209VidiIdgZOedAFesN5P6Bk4LKw0tmLnxesLPMIafyQyepAQE6oV
9Y6C7JLHhO//4grOwE0EWec8bgEIAKzysS9WKyupXb59eWbrRhGb+WE85dmmXtN2
TiHDKyo1XPiEHMHcG9lkt2nAkueV4jOdeGMIs+mGjVbWDp8fVR6WE6101ayEa1Xv
8VmuGq/bpyEGwIHQdH+6LIfQpKxLeTWfeITJcKl2R5qkRnP4Dk6Av/cpC4BOuoRL
8BOu5fr9LiSKp8NafSdzJwG9yXHfyZWDd9G6a6iTlEoFkgY3HvgiWm2riiptTv9w
635NR4/95njKrCle2mq6mbQJFFES8t85QqcDz/oGo9WznvXyR/5gsFrLrR9GCSVi
d5zTLkv2mpsWP9K5ycuX6kfUts8seUVRJOKJqk7VB3wJiSyhrGEAEQEAAcLBfAQY
AQgAJgIbDBYhBFep3u1MbZYqkju2kYFvPtmZIYNeBQJqSqeQBQkSRJ6iAAoJEIFv
PtmZIYNe8zcP/3vM9Gi/Q+dLjqEZEeD6u47zJQzP+YsJQl9sbhxVoZt7MD1Wvm3t
nXm5k6vaj/O/gc/l4tf+G0ZubMd99DRH82u1bBvxHEeV8z2D2ntMykiO0ZPX5Tjx
hT1JOo1T3LPJJKnOAxDAELwahCbazhPw8VuGYd/gFDaIHjFuwtBSfGXzGfpaYhxp
KPNiJvia1gdLYiqG2RTLtevujV92ME2h9A4gE5d8q/nuXWCtR7OxSLgnkrBehCkX
o/jNG+km5JgE78+vTm+l+ByhIZ/ZG+ZtxxCE/6we9B9uCtI6dXwwwnZdrVPPSXdd
2Wvy2hJGZ6uuFKFbpe28NkbBetsNfIA1t8sGfCGFULnkLfdjV6THvqaMzv80MQOd
DQe1BR9qieFA+eb5O+9fy7+GtggJuLdWdUyHIlqfCXwDlCuBn7aZQDpQAXS/R/H1
l+BQuaw6sWOcD5vlUdgfBdm+FD3lXkiTdDgNLcx/Z14cU8SMff0ghAgR7fzy4HQG
n1W1P8dkDYXIfV8jI3f36uUbQaNmRoA3Ksj+dXip2rgQ2mQlOi4dQS3UELSvN5pu
u4+sit7uvgAXVhaIg8wedzfPQSGsVawSduZluHU7GHmzYbpiHOgK1ODYUgvemTLa
jcvmgSp+8TVGXHYm50Zhee4zwlQAJRJpQr/G6xrTIUll7IOcI2Fm0oDGwsF8BBgB
CAAmAhsMFiEEV6ne7UxtliqSO7aRgW8+2Zkhg14FAmhrq5EFCRBloqMACgkQgW8+
2Zkhg173dQ//atBi/AwSbNBZOfy8QHBchpOST+nHltqNS8TuI0NJ3lZO+itDjD0D
OaHFen5ddJOM3oOWFJ3wO2jOxqxqhF86s5yq6TWiFnhECHMZWOG7F/Xgl3of5wsa
m1oxeS80cNp39xz+0vC+IwVKQA1/VRX03h2vZmJgDk/aorrTb8pz0ZqJlDYp1qpe
c/CwSEs5J3DhvvQc69KB7udeege8LqmQM/DCmJtNseUpRo9YJ9ZzzYa0/mRquLD/
mJoqgRHjkqYq60kgQY15nE9uodU6rB0aPzP3wLhLZzvfogjDUiupx2VqPQC2EtVA
OVGyU3LTkgkJqBU9K44COU18FCmVqkCtRoce8JltnC5CmSoJYwGl0Tuj0qnPaBmM
MtP5C8utbP8kYWQzQekGz3Rhe004+ojsPL2NoYbqiZqGo8jwa1snyuwAw4Jix/Xi
CozVm1P3t5b/C+Ioq/zSqkhMwQXKQUJWy8rNMEwmP7TMUr3ESxN8JKKylc0akRLb
mhF77Vpnjf3DwrLWvhrv9dTD2kJWod96th+8el7DBacSMyb9PqG9AWZD/yFhLBAO
DR8h4avwYA1AYlNm2ub3Y7VIO5fpS55Ah7YEF7d1O/QsNrwCEctUVA7JOvXhCbya
L1OOc9ZWq47MntQQGlBZUmL6+HeRdFeBoL+erfdyjqj/yyIulgUSU6jCwXwEGAEI
ACYCGwwWIQRXqd7tTG2WKpI7tpGBbz7ZmSGDXgUCZo04dwUJDocviQAKCRCBbz7Z
mSGDXki3EACTqqXBNOP67DL5TgyfpI/sGZWgIYrj9g4s95vpx0ltOhrodmtACfym
8RMJsuKuom6KIQDfPz0lHuHEMObOkgME5+Nc/jWJTqAyw9MQ1VO3xcloev74qOln
EACYoAxKliqKzeGIH3F7CRCCu3wnWEsWIIzPZPsjYpjBaNI4kNUM1OJayW65bfIg
x2dqP5V1jW+Y9GWXDEx55ZlRdNZT9BJclJc/ibaEESUl4j/cMXuC8vr5DtTjEDm3
WFlY/LIFRpOHmaWpVL+l/kmhD1OMvuF3qsdHUPEny+rwTIamMfrvur7cqwmnCmMk
0lgQsXmByVDk/rSr5BuOXyYd+eMFbxrfZvs7AG7zXTxHmvEO/OZT8/VJgG3POLzA
wWf62T1oUjOBMMq9w9Z6r6RgSeQHPq1nXAt3BSXwh3nPStgitFHD7JeRaNFo51Sv
SUpB+sLFk3w1SGzWJTiryzEMTaR+XLQNdn39fA+wohprhJLhpfgPr5zeykGwxecA
n5eYDHWzoShsj4MzQPAZIOMf2CpkkDoOw/lNRImCm5oL0UN/wtdljXrhN1IhOZtI
GMPIOhIO+GrPorJn/ECnoHuipD6xVqVAjCv+3CpI14PIijr2xdkH9oS7XHSqYDw0
4/+K7btZtO4yebaTR3si2e4TO8+NWpu8JRDnApZ9ljo073eXdbtvPcLBfAQYAQgA
JgIbDBYhBFep3u1MbZYqkju2kYFvPtmZIYNeBQJkvt//BQkMuNb/AAoJEIFvPtmZ
IYNeEicQAInolKStPD5mRfWMjEkqFd//6tEIewAUQBdolEfpw5PMRRswWeVEakEI
Mf+GPBTrNLG5l4A2cHXigcYCBWeGKV6btb0+QE7AagG+f4qwzcQvt4BtdjR4tA4Y
5m6yDJDvEqdStgduUibz7ynr/e9+dQsd6RHElaWlvr0EA/n5hZrarGiIdGRfyPDW
kG/3OHQRci+sp12bqZfDL1Oq059pF8/qXE01saYxpDpErXgdaPlJhi2rmMvFHXyk
BJSK7gZOubPDAo+ACr+PImnN+0yPfwLsG0jQgb0J3CGtFmcFdQHItpH2oleAEUaH
o+axCvhH54TWrh+iwqkSko1UOgPAeH/t6gKWN5H0bc8TgPTL4VMmQU8hw508V64g
MqEJU0KLrfiOGbO0I83wUR4McFAfgkBdqCtS7vnLeEEdVQBbgJPlY7vw4qU3RY+u
BCtkksaZsQnET+OxJEJLJw1U8ZuTz5vuJmmieSVI75OSGvdu7/ilImZBxtsNDjOo
JrAZzTsVmOjK+feUAsdNVmRjbPt5n+H5xZZNwMH2oi/jCxnNtG3JBryg8ZuCkTnq
oNDD9Njvy7W0XKpl0O/DT1B0rhzXgWs3x85sPE5plBcUqwJ4xapOuDQ6bQEKL65h
Ew0wVGt3b7VE5hthnY5L8JQMijzD1MmWyz3PtnF3mCfElOqeWKIDwsF8BBgBCAAm
AhsMFiEEV6ne7UxtliqSO7aRgW8+2Zkhg14FAmLr0uMFCQrlyfUACgkQgW8+2Zkh
g156pg/9FGkM6tP91IXt//yuoK2zdRIsoe0vMvVfDcoNTzvQ0M7KAeyTWI6yIjNs
NdaPM4WbNYAuoITg2EdIKGXcimg8dxOTCpW3qeLNJ2zy9Iv5O4k77zekj8c5rdC8
o0c64gLLPm50T7brBHJDcgI/raayMdCVVjcuXnQV5PFUSmNPZQwd3l5jHpoTYHAj
FwwSF05tSWIME5oyhRaUtSxxAyQL2j7VIezS7svWbxlL82t1pW0gzCOqTtwck9Si
nb4iqc8EbtFqBSHBAj84aU0BEuGTDvF8YOb3J0gHrwCabB4PPKeXIq/DBXGK4QM4
gKpHlA7if1E5iq9k9NqmtGwt017b/b9RjntD0s4cUJ1EV61AftltxkHD5DS8qHQt
iwfjv22Yd1gHJN3h6QoA0sLqk7j2c0CiH+Wp/iOts4Cw69s0iwlNFVMdpNa4WPYa
/qfEA1T1eDwrQTR0w6wFz1/Bm4go2Pp0VzPOEpMxuNB2fnlJKwdjUwQmL618zKvi
SOsw8BWpwPsSca8A78GtyOj3aJJEMJp9qh5jER0a0/L1sRZPoB3LXt90FLt7qzHz
j5bgn2PK/zhdE/GebRHRhXqMtcwHwCMl5jxq+yRaqFEluSbwZi2O18seyDUb25O/
goeHce84QzFk16+2if7oLJlc9Z/215zu1WvE/QiZoE1s37jnnXnCwXwEGAEIACYC
GwwWIQRXqd7tTG2WKpI7tpGBbz7ZmSGDXgUCYRvpDgUJCRXgDgAKCRCBbz7ZmSGD
XqvjEACKef2VGvUQjc13CrwxTf9LhX/aIHaG1WmVOJGjI3lCc78XfRnv768JfW2j
xRMMpZoU3fxUCWrL2xmwOwRgXOGUzfwP3OeqPb9uLY+jv45PR3c66LbasRnT2QV+
36XSe9A1OByDzsRrGvwPG8lWLJSvN+lu1+E/WiOjO5G4rkSdBv6Ot/4Xddk45iVY
v6D+xs9+/EXGnB6EqPO8u3xTePVt4YIWJAw6thHMkbAlx/iW1TEiOEIh5OpPx9pD
9cglyXwU4G8OS00LhjFpzQSOdh9hRKaiLo+uLSqiz/BUE7TF/9+A9aCi3tOP5Hz5
sgLxLwHvL3xvOXFvDl/uJy2gwT04wPISoQjU0s5EmYzI3KVS8A2T9RwFkqT0SSpb
p2wQ58itbs7w99bKme5X0LfV4pmhhsgh66rwNjXCTVaKLr3bmOq4n8YaKiM7IE+b
sMf1ajobOtn0Xib+BibhnP0sWHcEKoQkBnGG6vjjwnJR3CCF1CC/7uiqVS1APr1C
RYF2AXDTiL1SqCsKcyOpPytU/1vbmYiz9gebVRjGO0A/Dkk3W1ABsWbvZJUPkoUN
9qAZWtW+gF7unpxmmW0Mrc7tZf5sPrKqOKdTPGCYoXuCrg7qxxnOHrfG1ieXRtm5
vCU1C0BcuOwG3aED8vt5dM9J0g9FMGgizX36GYQCqKyoPRPwZ8LBdgQYAQgAIBYh
BFep3u1MbZYqkju2kYFvPtmZIYNeBQJZ5zxuAhsMAAoJEIFvPtmZIYNeLkoP/A9c
XBahAPUb0inoN3gkZJBNWYGhwgEN3rxqA0bNlpljL48H0gkkMa9RUsRSRID/j4tm
ijp1XZsG0g+Nw+HhpS+YkGHPuX6oo4++6v5sXqZE1mzBvWoMhaxY90XXk2vTw0Mr
tGYT5Z6j6qpdlp0R0bYK5+mxVEBr58jmFCD6j/yDHkrJlykNJjPq5027OssoUG34
zymrCXe6uo/h2jijbG+hYSkq8RXIGWPjbhhAXPfhZFZ6uBZzOpnTzKiIHer9v5TA
rN/RH/yCZggruuxryZvyx6OKDz+nhQtSlTQ4ckcggBdO7PsXzoo+uqMdKH2vAIku
VbBGStZO7aaDW/8LlPJjIupnCOgbTmatuD/XH/c9jT7zCz3wrE7d3yamTFT4GpMO
T8TlNE3jDV6V8zpotTxdNb9217Og3JRA3W7nw0Moe9vIsGy+Tbhyo+V3lDtmf/5d
8vYHjkVLX+7ryd2XDU/77hGbTcaBOo4nnN28lpZhuH6yXa4jYxkbY3qdAGqySlsQ
SlKmf9noNRTkZewENnMEA8cQAteueTjv5K+JmtmT/MRBfbFH15bFclLJlvNuSciV
wXOwdqy0zzdQ3I/Bj8AMX09gvD8yvjJbhJ3lTYY23MbjsgeTKWvmnEYaGYuf5THH
07uuBvE6+jwD5g6XxZeG9F6CXyP5IOXgdJuMW/SYzsBNBFr0gt0BCAC0eeMyCjyQ
Af7YPIHY4ugGrYLJPrk6nFz96yqSTCPhcTMcrxkVz5DgMul8w09c3iu2YT38EGbq
d4H8bWiRx+qfhdDWFdtUnUamKCyPqhAeV3Vl1IPLv2Fn/heomICmc6qZjpPMnnTE
TbP17A8DsXsbP6dwJmBZ163q2P/gbLkQAu2jCDBfMiLNqR2w3B6mG6NKDJpS41X6
OpU42cf8XuryCKiAD6pOOzyzuD6Jm0FIp6aMJ3WJvP01NfjrWaDIF29HoEloTV0z
UxxQ65UT6y1tJubDeZOOR6QWSgnPg7Oyr6FdAYjKHI7tyPVffmKPYo0n43JH2KOy
DbqaXAg0HnxvABEBAAHCwXwEGAEIACYCGyAWIQRXqd7tTG2WKpI7tpGBbz7ZmSGD
XgUCYUD1QwUJBk3D4AAKCRCBbz7ZmSGDXtauD/0YoTjY2UgHuywsTzkQ2YNUTcIK
5Sn2hWxy02tYGdjLP5ro3TzRh7nP+PJ9DhAOKf0spsYBO0wLQ66z7jMZ1hfjWVN2
yE6kGtt2toF/jeABCoZ+ujvZxYQ50lYJ/aAMtjI8B0NZQlOf5AU0kBbsL2cZn6Oa
Vk7VdI3oTvnmZi8B+mpbRAq7V3z82XH8Z3i7qjZNdc/lddR6/KTE3m48nB8F7wiW
Bye8MCL4mmDRFY5vXeZWUaHkfriUxu+Mv9RgwtCpHy9TmIwkLycaToxmamRlk+BV
0Z39CLQizLlNEPEGIwwUXpm2qsEMx0yGMX4ks1XLUcjOz5yEaf+MFNQ7k67LjtUB
DETX3d83eg7j6BY6DuIDyewvqI0C5x704jxH8gmkiK0+vWjBzMtejC7oMkVackg3
B6SHU0QgWrF74u2xJlsLU/7cm+q9dkj4vIiki/DPYk8/RoPUlTElv9II/6+UyDkx
1PlF0fg8gOw9lKYCNQ+js4ip3Cp2cVa0op+Vn3X1IzZsKe+18hZ5GiO2ryssCyPj
RZoUps9coPTmAUOIxNXsLKezBlpWH6Uuz+kPZuhvliI22CLGltJdWYmb/pSehTq+
cWe1XfGe3TnKp0/2MyNZ81fh2RTboB2I4xjQGDBv8Bu9shxQ5pZLJ3RSmpkYt/K8
iTQkc6WX6E85OtqD7MLBfAQYAQgAJgIbIBYhBFep3u1MbZYqkju2kYFvPtmZIYNe
BQJgsQhgBQkHnbjyAAoJEIFvPtmZIYNezj4QAKDW7w4c/BCOo697V8GIYBtQWpFV
WOR9K5AITNBwDqGV+MIFFId/dAwOxcENu0DVuhUsMixlkt7mzrWtU3saAPde3pzT
HgD+LnTgUZSUGQryJY9D5WSrHQk/Ndhzpz8bXoiG6Jfnc8tkLBfOZdICQk8msavF
JdW2gQR9xK+49tI6enCHeDQxyAR7BM/Xsehk7yVDa17FkRPj8KsIHSm00a70uM09
p3QXvTRt+axN055qJhAaym2178zXd9gl7hY4prdV0Ojodi3vicHfKFN2yMYD79Cu
9MefglSOk54hr2cAJMFiI+OjyYncHNvGR5R/zPKJslcgkQ/0JfqRuY0jDBP3gVHt
qq1Q5K4gqwQQc9ZFw5ocHI4yvMh5KJlNCT/i8mrLvfOEQZZUQKlAg6n7JFokDSdi
0+wttOiesvaNT2IFQrLrmSiLUd5JK9BNvLA/+3IzrZPphq80IOLT7YUKcoBADcwF
vIA7G9Xfn1ipkF86QsdvqqYtvGtSg/XeemU2k8DrJX/NX1K+zBoz66x95riuEeJ1
9WpY+QpgffqrX4HtXb3x2AgUyyzJiA6Li3pgUEM2jTCsIfxkWuC7Cp4HE/ATky8y
uQsNVQf8zoPjaIhRKNIYEnC9tFupIbj+eltvezdEQDkbAwSFk8aEnvRoVzlIWhQ5
L04YliGTzYy8bCHUwsF8BBgBCAAmAhsgFiEEV6ne7UxtliqSO7aRgW8+2Zkhg14F
Al7Y+NYFCQXFqWQACgkQgW8+2Zkhg14Dlw//ZBCQd/td0ySyONHDb1yb+j/D4nyf
TsNjHM3GxPLmVPFPFBjDRYtc+q0LzaB88LtaEI0wUcmVbJaQJSZz+IPLB2Gwe4cE
S07OeiGBtpuUArUMUlp/JDNrqBOO4znRQjju7hkiLb8RM96u8ETg7h2GGpwCIS4+
lZGoWg8dT+ZFvn5i7tTePyXjeIGT/DpkWG6WoahSem7jFXHWS8N+E1cwCnN+NGIh
62gevxHsuRy1wBwtvIKCFJomss0rCq76EKmwNIkGdA1VwnoKLOpm3DziGUD0wIu3
d4qqziRmPWRgPzDLTaCBIdbBcykzjDHu9dhEF0YckBVH7Su3XkIC1akfMeeI2hFu
914khBXBZrPFopLgoYAJdjoAAkduMByGI8m7bq0LEdfwtW99LLh8gfZChLJYYDsI
R9ILoEK2LK10wUUwAmG96F6XKfSBZv6+X0S7MCYm0baPVSGWJu1tVL5ZmYWmBwbo
M5BSqFzCaaogO6iDIrBz2KnDvIHcuZZcQwHhx2ToELC33tBqSfpIhsQ3l/+u7kXg
D7q0Dio7IEjGK/AsQq8mhyYy6uyo+4DoTKuylsWD3qCBo0JjVfyHimvmRUdb93M9
nG5tvUD0pVcqBanyuGVv1MR4pe5icrBd+zqOVODDvfpTYjeVoBMqpHHtOqqwJBID
+x96wnAQdMDMDO3CwXwEGAEIACYCGyAWIQRXqd7tTG2WKpI7tpGBbz7ZmSGDXgUC
XPD04wUJA92lgQAKCRCBbz7ZmSGDXt0AEACcZTPqzcwOWPVrt/dckOZC/CIi7TWy
La4AiwBSGTjfKq1CghCSsb/Vv0GdTnsBmyU3jhJEt27Jk3uW1leeEorFRPj1R343
AUkfgACg/VtgevFD9L8xn0cT3VlWbRZ6B8eWT9Bvi79nlj3qvt7CyRNMk/USr4nL
xM3UjXdwAVw7o0UNgWzQIJPXszqaPMjOLrrxnLTP/BMAhj+HhxjUqo2JV+cEu1+j
S5xP+J32yDgG+ULCo/f7UBzd15Q8UGDPxew1bNLh2FJawyu67BnA53VryyjBS6Kt
4rHjQabVBBAWFbXsIZX1JF6n6gSsBb5BsMq0dAWLaoCviG7oN2dttN1rqCvysfLW
2pHAwsGNGrJXChxjOpQVNrhSwFyhveDyduAJxjkaVNm0FkDf13VUPy9pQdQYiRHS
ahrcxl9nh2G1SG8T4TYDM3n4NKCLHwaXp00raNxCLXtnixpEkwRCzl5IYrpAdgaX
2Rl1kGzHpScJQ5wtMC4h5lIjLLl/hEgHlmVMSmz9xtimOQtETFawML9qncrB0MpO
oczsZXTITFTScLlQdk/M/iaqIMv39MRsZjEudFVttMcSldVVtdtverQao75BhiBT
rPN3jo/YF6JGCS3QnKf7DdstgkMuhGnkVJPYNNj4XcIhu2qlxw4O0BkKXRej9+Ji
YLKglIAk2QCJq8LBfAQYAQgAJhYhBFep3u1MbZYqkju2kYFvPtmZIYNeBQJa9ILd
AhsgBQkB4TOAAAoJEIFvPtmZIYNe2d0P/34V+cFNqlI+LRRuLybKN4c1al2Wmr1k
EW2r8BIOrc3oXlnIAPc8EgQkLF4+75nZiNzNvfOaakpvMDNK1qPGQeUeYdEhMCxB
pZg+wDhwwdWD0tlTyPPnf5f4cSlV//5iM3FF1mEXS/ieQlqB9nfIOydUv5oVOCxw
Sev1+FFTuLzcDAFmPy9+TwiqmL8X51gKbMknogkQkBg2IcbYDa9sPmFqxp+z35Su
7RwfcQIi+g4JW7WJ0rUPzOqFvHC/Yeu4ZiFRM9a3UgNJLzE1VzpTZC96ljc7DAhR
w3FjkFThjaFcxvtrEXXvq7Sa2vQkR5JZUH9mMcJeKw1XofqPcCgKEI29joFx7Go4
UcuLz2clQ9y13ZHvYJJZQkuhRthRjKIfg6xnvSVElt6/T/4XYxDLYJ52VdcaKytJ
9yj7+dayl7BfNhBHNSci2DXFCWzg9CKsOH/ZVmxeOGb/AeGcLetY1sgY1GMgymyy
TFRabES72sjB/TqkZPGpSBQICIQxJCzMSn+KF9DSWy9bQXN7nLUJLzkPN6jfoDKr
auKCMbaxHh/Qe4t+4++CLQQBwGFkpNALBdxmVC9HQYYfqegQBCCGr+Y4X82fsYAl
L0NgUGGyooUM9sHtVQu576L/EQycHZD3Pt61U0fhdJTJp1fKOLXnmH5ra3mb/Pqr
zU9uBzFAxJF4zsBNBFq83PwBCAC+H4zufTNfpAtgotDiwjH/I96fCCxKNTmImNEN
aRCOZVVNzU19NMu0TFuE0rpgQoWpWDlfXhEGf0ET8K7L3D10jqAG6tGRA3KgFNk1
tMfdF//kj6mH2hg78+LxZ/D4axxol1n2ZF5QAe5bvxgxBs00ZyLPn7M2Ql8Uw1Zg
7/IOFrHa8tiP6ZsQD16a1F/GvAPCiuwxUrnB/79pHWtR2D6cC+ZM6Sl8pSwH1zAQ
P6X4+/uEWiMIS+snSDq9nC44T6SlWurmcmDo9g0h756Cc8zFJN6u4DvfOsBq0lf9
mFJqD6L+9sWUkSJbsW0t1eQ5YXL/kJB4tGYIzpF4tTxe0trzABEBAAHCwXwEGAEI
ACYWIQRXqd7tTG2WKpI7tpGBbz7ZmSGDXgUCWrzc/AIbIAUJAeEzgAAKCRCBbz7Z
mSGDXhdlD/41tnsz+TUSW5R43Lv3hWewD5/HJisFaNWKjy8yyeym0JVpkLQUNj54
U/vLGgyn5nhrCY8NZjDji+kizQ7eQJKHTqDrQkJJLHsRjS8LxfWN/anFNJhn93sh
oOG8VPZkdvehYFD+yauyWduH5hL/OKvEoVVu6d7PocpSZLj7vzv8HuM+l9GV8CDp
Fp068P2Y7uxiCUEHkHGeBp7bpEAKLZXhv2kETWq5KfXGhuXHnBh7kHWeZVObuCJ7
Es1NzACtOmhgP7porq6wjla8gbyQOxtj11hNVWYKqGBcqsASZ/Ouq+HFpYjYQiH4
bWFnpY0GLH7f3GDuLtRirYy7gWMxgO2SQn3xiCuV8YCxG5AnhYKkHWdsXVYJOKRU
PBawHPNBpd0jreLJf+uQMVA6SiBtr65Om5QeIQ5QBH1Y9QEEK2UMhDjcYfqSqgNw
xO2FGuyuqOijOn+L6x3Pqb+pcZzrQ2+aOdr20UGfmsrnwMqK+jJFNvB/6I08vyuZ
n7X73AhAGLRiyOkTNdN0PZY+qGzhwS1deAqcwoblKnK1EkENqdOX+YizA5KWLOIp
46cGPRmMgV6gI7l7IZ8WkVUUZwJe4pzVVqmLfyWgMlnKFrS1oUvNzRi5ps9w82d5
FqQagQ6G4d+DqJ3eAQwRfflo975reC2JKgrkNswv0q0xyI9i2Achlc7ATQRa9ILM
AQgAw9P3QeMRqe/ehjST06x3tVdT0ZmMjyi9Yz6XsLBAL30VawQyBBMOkFkWSr4T
gXJB8fey8a35P/Mxv5vvtou7/Pkh4fANxZksEOPUKjMA8Ndx62fOigX/iCKWYXpz
w24oP1fd1OnCVYVrzAy7bxQz0NvMGCn4/g67P046oAUU1UUJ/NgiUUfeN8MmK/fQ
yY6gXK2ptC0uFPS583fIXffd5Ale83C1Ewg9Ka7IC5/fDfD8cKow7eXSiRki0xss
ySnsnPY++ZhMtwraqlpl+JDJkcaP9CnQKviZhqnT1vb1Te/CZi8F2V69gY3kLbtx
a4q27/2csHbgksC7qnYhZsI5BwARAQABwsKyBBgBCAAmAhsCFiEEV6ne7UxtliqS
O7aRgW8+2Zkhg14FAmFA9T0FCQZNw/EBQAkQgW8+2Zkhg17AdCAEGQEIAB0WIQT/
JGDWB6JGMaTaEWa5w8EgXbCR4gUCWvSCzAAKCRC5w8EgXbCR4ku8CAC+nLo8j6jp
97wlMPKZh4mRqnKgIU/5CKoTsxYOfCRB9VAKiLs1H6ZgY6ahEeyVKYEqvll73RTR
Qv2pLWrZSNuVKL4Q+9bHigc9N5jqe57Nv6QVRm+lmDtcZKVm0USleH+FMD9Cowhp
TPvZSgsRGyAQ9x6g3E3NyqHaoEZR4VK6bx8pWzIR6qF88MYifHohcLx/dyYBoSiG
Mw6biKfcpWnX6I4AFRbSpTaRLZYSX4dfXCfbg+xCCSJMR/TEsdS5XKDtAfXn/1yL
REOGVT0S6JbOLNgGp+g3BxouvElohkvvapqXqvBtPAIbyRZ6ZkFGQ0rE5QQnC378
GRS3v5bZF7IARowQAJSVqzVIbpbuUTeIFNSJJ/6WuJdEH7aWkCeotGhrCmGmBdoN
hKpxD0bFM36JZqupAkN6tDD1suMbiw7XsE0OEmSYauh5pIGIPn8FoZrXi4E3353u
pa2nini+eFILpno5dC3M3hoFoxFS1QzRg5WYn3KXsEt2j2aSJbWDkgQ2OqYz7YWI
/0RGiKCAP/K13iuVwLF/LMRIwuTyjktnoPo1/bdaE0ccSyBm83slx4hCu0g+TWKe
fC5i0EYIpBrn3BX38zZ9sYVJpmV2xUY+IBvl2ea748mfP2DzD+FDQvt9yBe3JD/q
OrsD28MU6PAemW6CFfV1khtLhAxrhAoP7B7wu6FKgzNOQVQ3ZSsHbm/+RQMV/UYW
SfL3g+iyzYbWSA0o+DfmRVrSJWgG4Xa6ilLt4N9UsPLdEAvD01cPZeV/cZ2AqxAz
OW68snfZeFrePzEKSEeexkCYATo1pQgDji8okMahNSsR2QZNdzv5QNVtEzQcEpYD
WBr1c8KrGmoeThGS+LCn8AlccT4SQWgc8kdwqVZ6sQyC3J81PP0FO5gH7p5Otbui
MRQ1BjD4FRMJm2zdp0Vwci1SLtFthBhqQM8t2hhlzQpJD8hGLhw5f+PdrDyIuVFW
VOh2W960JPSIQORRNBDPdXyQqN+MunvyLDgM/kDgnDgGCG7TfVAdgEhJIwkPwsKy
BBgBCAAmAhsCFiEEV6ne7UxtliqSO7aRgW8+2Zkhg14FAmCxCE8FCQeduQMBQAkQ
gW8+2Zkhg17AdCAEGQEIAB0WIQT/JGDWB6JGMaTaEWa5w8EgXbCR4gUCWvSCzAAK
CRC5w8EgXbCR4ku8CAC+nLo8j6jp97wlMPKZh4mRqnKgIU/5CKoTsxYOfCRB9VAK
iLs1H6ZgY6ahEeyVKYEqvll73RTRQv2pLWrZSNuVKL4Q+9bHigc9N5jqe57Nv6QV
Rm+lmDtcZKVm0USleH+FMD9CowhpTPvZSgsRGyAQ9x6g3E3NyqHaoEZR4VK6bx8p
WzIR6qF88MYifHohcLx/dyYBoSiGMw6biKfcpWnX6I4AFRbSpTaRLZYSX4dfXCfb
g+xCCSJMR/TEsdS5XKDtAfXn/1yLREOGVT0S6JbOLNgGp+g3BxouvElohkvvapqX
qvBtPAIbyRZ6ZkFGQ0rE5QQnC378GRS3v5bZF7IA8gcP/0snRFQxd6Vf9AqLXiUn
dBUjDFlf07k4ZYD9AshSgrxYSuBGyIeyuflKsmvKfAtk/spf+gNt8SnLa+Rye0Bt
xHih/TwTqVyyyvz3P2KXrbBlnlSsiJlDmrJVMj5QPXdHSuRdOrCxV1wsrj/la0nE
yg5t327YRphczwSjVDZ3ZHmtI8G/kQiuXXndRqUM1FsKcxHPW2OuEAtfja6vNrIH
DUcS0sPXIw6EyWf2ZFyTMr3X6n5KAWDZpFLHjU9lCU9QKVMDhMfTnDKVTGQMvMrQ
dZ6XTQ80jxU4qURj34t4ntnR4kbOYSR6PdxmSckib9FI8JXEiWXvGCk9UwgGcjwY
+s9+PKhhaQRb3W+GlapBfN0yE3Wfn2qy6I74FRWgyGJtLhZJz1oX3C6FODdp+MHo
TjskjBU/HI2WHOfkATYjJkRrwXZ5WHL3yxZjZnRXUxPA9qWHk5VUPFl/FhX3BtsC
qm8qhtcnJjPV+FRHo9lZtvn/OEBNZgWM5hOK57jXOzet+lMYIG8yMrMvHcgRn6ri
iQy1rpl1FFlnyZNOUQvyjNyp4tSD0LUPy3SVw/Fx1p2IWU0Q5sokpTi9Xe+XsKAh
7/EdUXX29fqNjFRtIAgJ1NehZQqLvZel1EqSUBrl0rCxF3K/0HMsIB+wH6vfs2UY
5+sdQ64038tl5cHp70AI1LPfwsKyBBgBCAAmAhsCFiEEV6ne7UxtliqSO7aRgW8+
2Zkhg14FAl7Y+MEFCQXFqXUBQAkQgW8+2Zkhg17AdCAEGQEIAB0WIQT/JGDWB6JG
MaTaEWa5w8EgXbCR4gUCWvSCzAAKCRC5w8EgXbCR4ku8CAC+nLo8j6jp97wlMPKZ
h4mRqnKgIU/5CKoTsxYOfCRB9VAKiLs1H6ZgY6ahEeyVKYEqvll73RTRQv2pLWrZ
SNuVKL4Q+9bHigc9N5jqe57Nv6QVRm+lmDtcZKVm0USleH+FMD9CowhpTPvZSgsR
GyAQ9x6g3E3NyqHaoEZR4VK6bx8pWzIR6qF88MYifHohcLx/dyYBoSiGMw6biKfc
pWnX6I4AFRbSpTaRLZYSX4dfXCfbg+xCCSJMR/TEsdS5XKDtAfXn/1yLREOGVT0S
6JbOLNgGp+g3BxouvElohkvvapqXqvBtPAIbyRZ6ZkFGQ0rE5QQnC378GRS3v5bZ
F7IAsUoP/1t+A949g88Qu79YG1Laxvug51QfEKz639uXetdvJn9kpI6i2lp4dsw7
koBFCFQA12sYbiAl3HOcSlkc16JXiAVTd0eiA2FdhDJ23nE7awKXShIrzBx7LvJx
e+V8LoZUxk/VtgokxlhQUpxiWVOF2CBFSJ+l3RmixFHzewK1Tegh88JBMRk8P626
ohDub7/dCc5XTGdC+73PIKGAdqc/0aT9/974NSOmw1A9ENh8REkTtW9bsjCHJR/1
GYD7GiXTeea6n1/BE5Bh+ybqEaDxOWAVR0+zyDd8Y9AfCCJ1ELDfgG8uV5arX5l7
8idTdS9/VuVNIXFKxXrYp8RTA7ZMK4JnDhTp5Uur3Pl9VjLu7pcaOJD54SKg2ZMi
LnXWYj5lI5TIoUjT+9+kag72Ca8Jd0d/v1uGJCBXer0+duvz/QYhLfOJ30GjxXGP
/ziq2j6717PGCmc34uJ0+YUJoIzS4sIWCK+eduhVgDhyTQH624bbV7MT1EVGH40X
OXPZFKrwRP6aemfEqok5V0s7/jmTMoK5Gh3GzbXBAvVRQD8VPtB9AaEn3GfyXpkm
QbPBFSB37snk0rjER7JaEIFIv3QdyfZgi40xKFUIeJRutHuKTRlTogfVCPO+Dx/z
GQbLvABhy0mg8460zwgSZ7mxBznJsz/81wecFtkiHUc5cQQOmH+MwsKyBBgBCAAm
AhsCFiEEV6ne7UxtliqSO7aRgW8+2Zkhg14FAlzw9N4FCQPdpZIBQAkQgW8+2Zkh
g17AdCAEGQEIAB0WIQT/JGDWB6JGMaTaEWa5w8EgXbCR4gUCWvSCzAAKCRC5w8Eg
XbCR4ku8CAC+nLo8j6jp97wlMPKZh4mRqnKgIU/5CKoTsxYOfCRB9VAKiLs1H6Zg
Y6ahEeyVKYEqvll73RTRQv2pLWrZSNuVKL4Q+9bHigc9N5jqe57Nv6QVRm+lmDtc
ZKVm0USleH+FMD9CowhpTPvZSgsRGyAQ9x6g3E3NyqHaoEZR4VK6bx8pWzIR6qF8
8MYifHohcLx/dyYBoSiGMw6biKfcpWnX6I4AFRbSpTaRLZYSX4dfXCfbg+xCCSJM
R/TEsdS5XKDtAfXn/1yLREOGVT0S6JbOLNgGp+g3BxouvElohkvvapqXqvBtPAIb
yRZ6ZkFGQ0rE5QQnC378GRS3v5bZF7IAsXMP/jySoU3CL2vDbwlPRkFgih7zZTaT
D0FNFlCaW+akj/CfYjrAJHmlZast7YbtcxsnXzXPAL3T4S+G2qSzg0dGU/msnswm
WvSDftr5LgmMQxYH1KdHx3jO42F6JAAQgBhPgUL8+N6m9Yn49jger3kTcV1qG1By
uGjCqvTiqCzg/BRI/t4rV0wCvk2AN3l0gLE8iOQjkjlyRH5qjL6CrsvM0lz6JtNM
Mh3CkH92CEvqI8d0aY/auGDZKFEjH8R0wnRdp38fAoy8nSMCGgPY9IBCKFIAeXUv
qhMPepaTMlRJUtDZxZ9yD4twzx0hHEqslFQFguUN7HwvxIxpyhUQ0XyRp4XTwCLP
U+FlJp3VpvOF8NrTdBa5r5aDbtHY3E+nFBePXDbkPNXWKt0oDJnCd3KLtAPzWYP7
f1d9999iYo53KpzJD2lRPuT3f2/SplDevjb+i/bioIupOsoYStvaTWRaaKMEfRNc
cEZuAI6YDGLLTNmV6W9SOdEnMTcoYGee7vNmsqrNV0WwQwwx8GIkCF7p64b9INyB
GEZCtpkFBHhLay6c3xT89q+/7vlYW4h5mOcpNogJvo0XCUsT5fkAbelg3X0hY8Mh
T8H/qrA2fgrrYtiRIV8DAZs3tIrNaucOvhddRpS3GIkZ6hpXIRNaNI7kr7ksQdGT
EWJDibtsA7C4lFCCwsKyBBgBCAAmFiEEV6ne7UxtliqSO7aRgW8+2Zkhg14FAlr0
gswCGwIFCQHhM4ABQAkQgW8+2Zkhg17AdCAEGQEIAB0WIQT/JGDWB6JGMaTaEWa5
w8EgXbCR4gUCWvSCzAAKCRC5w8EgXbCR4ku8CAC+nLo8j6jp97wlMPKZh4mRqnKg
IU/5CKoTsxYOfCRB9VAKiLs1H6ZgY6ahEeyVKYEqvll73RTRQv2pLWrZSNuVKL4Q
+9bHigc9N5jqe57Nv6QVRm+lmDtcZKVm0USleH+FMD9CowhpTPvZSgsRGyAQ9x6g
3E3NyqHaoEZR4VK6bx8pWzIR6qF88MYifHohcLx/dyYBoSiGMw6biKfcpWnX6I4A
FRbSpTaRLZYSX4dfXCfbg+xCCSJMR/TEsdS5XKDtAfXn/1yLREOGVT0S6JbOLNgG
p+g3BxouvElohkvvapqXqvBtPAIbyRZ6ZkFGQ0rE5QQnC378GRS3v5bZF7IAnkQP
/2/rPo9eqyxWH2j+QWa+u3i1zqKaEXlxr6etbLW8HdLiNmEiJNRTbToXSbOC9ngA
B3r9NtybA94+c+xONYF/PUk9ubqwvhkFzwKmeqlR8NJ8CeEmpzn91CY/gCoDpzke
pqbo+PpP5WLmjIqmv20/p8lk5I8eG0exnVDzQ6rh62QSTlgBQk+uUnGEGzyW+8YU
ZgxxnyfgmB+ryGy7hwOqFpmc638W9ldAjkLiuV7EalSD6CYLrIGvkRzT75yLhIiQ
m4BcOCDuQwanEGp+D3Y4KRf3ktUWG3m523YIU8a0QDHnSeyJf9xTqT2+bvUlJ3cl
ngycYFQ/rvsFE1ndIY0MAwg6o4quEjB9EGWTCUVXL4aDr3WQFIfsV2vN3OAwsz79
4LuO2B8FmqXa7ZMQ+BnH3t+7uyRYsNdOfRvTPmrQr77VoPRaqFh8w5Z1/V+quhPt
mHiZZRKybnv26NpVJ4CKPb1LOgVDbYMUG25gcPTCswfLFamV8+YFjSkN5BHeU8Sy
xhkFbd3JbPm5x9yoQkH4exxyItv00+zxxbO3XZ6MywqWfxwwmvg8Av7HUQmsBm0l
uEC6SK0TWLLDBfL51kFkonke27xt0LNl7DITrh8zVutkB8T33aA8iMDjhPVQz+Ru
qefA9aJrpwX78jcSL0j/ynqX5+HQAPceHQ6iH7eLKVnjzsBNBFqnwMABCADEBStD
xVb0mZmsQ+48Df0d/ZM8eYc8Lbgr9Zh1/+TYsCFCU/PzARyeXg+jlmazlo08hrfR
XyoQeQ8UcwIbMuWq3Dun53pEBUwFQnJ3q8XoNy9dsvpyNce31jGQGDP9FuevSTZZ
Vdj4tuwwNMsug92yuyT6gyLYIvpmoHBLX3hdNa4zO+sbNjYjyCWDCr5zRIDvVJuW
IjyTbRHKTH8YggoDclsKxfP3uOI0U0NDQK61UQIdzm2gaBWsMY017iLNHOuyJZ3W
1qOmzZQftpQr/Npc9ldaRDJbcPcHpB4M6evtwnpV4tmMyENE3d5ecgn61XZS2z4C
S2rwalw5aIAdBgDbABEBAAHCwXYEKAEIACAWIQRXqd7tTG2WKpI7tpGBbz7ZmSGD
XgUCWrzmLAIdAwAKCRCBbz7ZmSGDXiH3D/9Y5SRyFQ0VVvXsJEKYAfmew/yYvwsC
w/36tU+axtSoHQvTLA84/b95sjK3Ka6lggS8enzo/6Qb0oLxn7AHs/JZQp6gf9zn
3buBpqulVLeJT2G88DvRhd2bSWvB2YSfjC6VxfST+dMOnM2POfejIvnTxf9G0ryn
K+4J/Ok/bJ88PjlZcvN1NcGRujhgcgtd8rMc2gDzK4h+A+pqO6cpZbxxHoVI/eF4
oJk0uHt0shOazCT5uugSwXYUwY93qexHwW96xT8Lpy2E8OBm9ANWQFu93bIKk1rO
EpKA6yzqDyT8I6Nep1xx783Dayehni3drCY6JtJpiyKZcW3fpzkwd1R+lRK/CQYS
Wx4gkVq1bZFYC40/0g9V2BKffcg7ekLGqBF9SGGCd7lRitRX8goRcE66wXPA/73q
lhRI1lUMee73pnKA34lLc6Z5n2Tx4MAyqrX79iPtvue3+KHVrvrrtsdSOgb/BSRa
NAropDmf4ICvD2D0+bJcNiCIZdbGGYln35sYrhwrAEyd8GPfaKfSKrZlUDWlr0pa
cgZxb+9n0VYE1DvKimSOh2H0YPd2NliitoCoJ7uzOfPKfvwvSDc3Gf+OCZ6bHM6R
Gpiohlz20T9CvD42ccsKZsPyJL96Oau08CWIibqp7U7pnBIQsNxkZN1Bk2tjrr6N
I1Rxt+0ZINE2EsLCsgQYAQgAJhYhBFep3u1MbZYqkju2kYFvPtmZIYNeBQJap8DA
AhsCBQkB4TOAAUAJEIFvPtmZIYNewHQgBBkBCAAdFiEErsEnRYxlECv3Mmqc7Qdm
VVntncMFAlqnwMAACgkQ7QdmVVntncP+Bgf+MJXqb6om8qByATT5HRBymDI7D2k8
c3Gq2VV6qmryorphrTYUrX8mBwEsef2u+pIqTHJ3Ui5CgMhee2dpPW2tJbBn2DGA
pJ1y+flL4stwNI4hiT6U2pf0n0fHAyRKxixojE/qk5hP7RCrO+cYBIKGeOrY94fl
V2NFJR4HlPeut36nlsEFPXxkizMD8uwNipyc4Fyb872U/kJCb6OFVQXmjGqXgL+6
LlEPdr1jMvoHze1z6AEPjB9Tzn8gNhASFVGSufgFTOu67TwRAFUuA4bzLw3NQHE7
S8TFHpYMw48VVBaWeiJBvJe0Z1+m1zso1BSVoEjLIodP7a+n36pEuKzt/5RgEACZ
/bu3RBe7JvG40EJkdK0v7+Z1/wHANoiPnluKE+k8rqgn9ibHjvxeAT9Y3WA/2Oc4
8iTqbdybUHVmCcZSvSLhKBqAMYPTG9Kt5dJ06qNOU32Vh8n29epw53QUkZcp9bzV
6aKqNEo+0sfZ0uKDYS/DSwsOzM569dxJIuzTHhNll36tW4XMW0GoBdA2qyzUYuvg
8Haq8z/Bhmci+bynu24qfFfeREoiaHbcqVVK/WrmygSMd9P0/d0L0ADITgmcTAUU
YN1Bn+onPi/4WEsP50UXd9W/QLTUcmD+jjxMajFUYf1IlonSt9GnWkgFj+bXLO5p
aiuHVsr0R9ahGmxnqcJH6NmldA5ixio0kTy6dIJG1OI2xIZkUlo/ZYEw8WQmP+sk
D6LFYtvULCoP45xxC8how0H9SkCXpitUHeTHS/LQbiPtIugZB51b6g8lhBQCf63e
OCcuxMl5jot7jeE/hq9QlVW00GItH4O2v9tnCJ0aSkPcVJH26ur+uiS0orgiYx7T
tCXAHuvFVo8NUHL873DmucAhUrHPw+do+E3XFyPjExrxTA4T5V3TlumcSnw02g46
6sO+hj4l2eKSWtNi1L55lWXqpxDQ7sY1yHn1+iTSofNjBTO4Q5KwfYNH2Sh/KT7f
ZQtdjCKqb1YYuktl6utAdQvtJovi8RcC/8TW8SGBnM7ATQRb7HPCAQgAyU1RDsKy
9eq61GHn5h8PnL/BHnOI9iCwzqf1B4s6T4TO4j84Y6yKvkMqGSwW0Kn5suX4UzLv
czLGvbabHRhBqW73hCDpD/yQJ6XotZabrkUeL1Pmdje2UzW4MvresDNTINhLfbNb
yXXkscktS2413kz99pUD5ezoEVwRcJSdLI5rpKN3H5dBOGJ2Q6OYWrc7auRGFMNG
1bDFXcd1qTtIllJQ4+ArWqBGWuYwrNY2OynZsLEq2vcT7GQpW0TdFkIrfkVBkeMm
tpYD0qCRC+yCt3fOaS2PonkCyrqT1vex0wbW3LBmESPT5+T8GjZK9vP8sAwV7Wbu
VuGm9990cUf0QQARAQABwsF8BBgBCAAmAhsgFiEEV6ne7UxtliqSO7aRgW8+2Zkh
g14FAmFA9U8FCQVV0vsACgkQgW8+2Zkhg149ZQ/8D+gEcuLrsBA46YpRvySFQUDp
W5ovfosAuqfR5r1p3lbcdiKxyXsGkT+7dpro/Z3vEBlZ7NsiqOaA9YTQ9wuURy7S
2SIyFYha2acw2atDWyfzMXQW9+9qxar4S1OC8Xbu8/q7bPv49riworMk4J2Anx2/
ZlaxcFUMh2jmBw5zyV6SygOA2H2OZlyRatmPGtxBvikm3BcNVcVFFbhtPYWusiky
NwMGYVh01u0Uvg2pSfKXfQF5wYpwaul8zGYUs4hoUNBy8bI5Vb0fuhyyrHlftpq/
jPKcbGTc5CZODyOyfXyupxzzDJpCFSYuy9V3VY+1KX3SjuO8cCi9WJ0hwWyJ2o2n
QW7+nEUF29lj06k8mtDAKJ2v5z3u79TDc/kRW3sSK7+EmHKFRrs/ahKatMM00wR+
cEvx0kpK9Uh2sLmfBOB251nIqfSa/vWkP/SeeorrjvUSFB7wAx9V+6EzI8DVt4km
nVs8wrzIe5U04gRNrRnWtFi0TPPa5LM6FnXwB2ak21KloxxXNozFsbiVXGGxbAFA
oC53jMtmdIQgh842o0EUpzicJshTFXU14iVENQCvVqavT3UUK63A89roBS2fMjTu
6NqOa3M42Pbc805Vg3d/rAhv36O9BUUIveF08VkBzcoH4u0+iktsFBse/dz5xJGW
cRSpQP9vZWBPtj02LLXCwXwEGAEIACYCGyAWIQRXqd7tTG2WKpI7tpGBbz7ZmSGD
XgUCYRvpBgUJBxCougAKCRCBbz7ZmSGDXmahD/9+StTPjVJlg2MIx7Vs6hDHZ5Bo
fuDcv3YzFNSGuEoOaIsf/VLt6rsQx5ZUZwzOAunpdm+cZl8JPJ5t6HC5ydpSs3OH
8W0u9junst+PF2h5UhkwalovWx2K5wVcb0F7INf89BpfDgE1jnBEWlCd3NyorZzS
SroJ/pOsXSmiNOUh3iYgzhzu2h17CM3c7wEEsLOfIK9bBpGszYifH/DXIWiiOXCT
CDg3TvXI/6AY7wVpyNxYO/4df15OKUYZgL4KdL4NbpdVY8XFnYYefirIKQ7IGB7w
hmKlrIjB3DKl0XiSLn6rzJJ6FfGqpGNpEnFjhBlP+HE2rJNcTIB127VzzenjDWuZ
iIOyjS4BsBtZO7DjdTT9Gca1nD68KGyccZerpI9yFJJ1gRBB+naaJlmIYeW9aLuV
K2an6/HPGXXUR0ygtwoHDfljuVjXD5JcTSxLT4g2VWl3LZJD6LMZOEe4ELQXtiBg
EkuabMSc6E2SK4V1tu1fnN+QTIugUgMYDNgz6UMheaPgl+PK66nUNHcxvIRTZ+dz
sU2PK6tA1tfxL5gK527sTfGNR7+cZ3NdL340AOIHm0QWJj2mJQEBkPou+5vNM2+T
L5Jjl5yDyvDBuN7sY+KoRotci1UIXgsZtP3khn7kKmlUsdQv3mn687HnpQ1DTReM
oqHxzN0lFX5KazTOw8LBfAQYAQgAJgIbIBYhBFep3u1MbZYqkju2kYFvPtmZIYNe
BQJdzpgzBQkDw1fBAAoJEIFvPtmZIYNe4DUQAIkUsENhn2yLWSswbpKE1oogIW/O
PD3J+vY2g9VTbv945U6COVRhT8FhZ06iCCwwKacyBAWBqEV2c+dmJpGlv5pU5sLr
8Zsv8oFuQOVkplSptMrBTgp/st7j6wl9G+f5/RthM5FF8piiViB9SYALGdf0hfR3
JBEpcQF6Idyy2Qse3SM9rj73OJZ4wSAnQuqzIffQQ5wOY7z67OO5bTlt/h7J0iQs
i0M9XefosTdJ6zh7e5qp2RhmDxOcanQMW7+gLswKTbcEXWsrQLY8cmiDLOqrALWT
5GNPWpPe9O3diDgyTgdzCcIeujgcEJEmHkcg+LgOPuOSVYoWtN9mQoboFO02WV4+
gzhvk623cfwfU8TI5hirXOx+wlX2ABrw5QjAhImXX4oSi0egzbRB7LfAuKzqpv08
fCxk/vNyFMr6mo9uni0r8VL9N8C13m1Y4xoaR+5AdfBXnUWEkhpenQghLEk10R56
ac4K03zp6VKND/gw8HRMwg0YPacmED3uNPGohCtgQN1tMCXEtms9qK5vuVEg4sYX
Lwuh+aD35yunvJpTtrcz/dMuTPAl4A1fP2ICTU59uVrKXmq5AjHGhFV52R/McBRc
JjiV1Wjv6mhC9imXh/R0kCPWvq9Vdj4P7j7UnBAkzpdsNi/OmPOvfDBpM4bd6jXm
nfLhPm4wgFH4eoHhwsF8BBgBCAAmFiEEV6ne7UxtliqSO7aRgW8+2Zkhg14FAlvs
c8ICGyAFCQHhM4AACgkQgW8+2Zkhg17bbg//aZImKjFukFwRhJScBen7Dhn9OV2G
emSXBUclV416WbKZIblGmJ/KSmTRwUbCoJMAiJdq1s6XIXel7zIGL3kbBbfehSTl
sZhIJc0chh92zOGVMGuUk00gXBIStQAbJKrWN/MHEPyKQPbDlOCGBuWu57OeWC18
P+3USI3SOKdEG9c9lI8jMPeGDtOdj7qqp9v+xP1JFs1WxHb+WxO4fo0To/TR2QES
wlg/eojmnKEFomkW9bRtsS8w/NbP+tprv2VjgSLGR/ScQ+Ao3bTPdnYAx33lzkRL
vHuOto8hRE2m0zM8LwdUstySTSjhq7rPMBmrrRC+YsLm9UmXGtpbM1LXHjTEg5rV
lZAo0JevvM1ZR6t6egM0DgELpH24tD2qtBK1obPgkPlWiECoOszte2NW7HS22Ech
eCXoUvJhpMwZimvPkhLh02KBIdCKtCsbAWhXkXqluOyPJlEu+1/03HK0znjNuvlj
5jgYSyT8ijDLtdzM8S89mgiShObVhx9L+1Pjg4Vm38eMZ8DW+zn7dizLaIWxWsbZ
OAkPDJLNIU15++ecp2KyGr09qznv71A+l5lyifPLJbxvafAVpPoGOMz396BJ4HVa
AKSG0QCwp1fa4M2jLJghIkMbAxB4nPdp7wigXZGISNBJ5gNMyewVbVvHoSXnBqz7
jRokbmYITZhLsaLOwE0EWZMX7wEIAM6cbSyCMdXTiDlw+kxQTu9s7uHgj4ZELpKb
uqW2TmMe95h8NSc4VpIkLIthA5h0gPWnzY74oUFgc549JbIlYJFlatdd7G/GYbGV
3XBefk7CFXCPLYGDgiHGagQAoGT9h8cMhp2dF6FDo5L2MnYFZWRVgycuQWMkosqI
rQRHjRKTecVp33uKKYfuL66lGffJfh96ijlac9EYiYyIZkmLyq5aiKL45ZNGNmxd
EL9TrXRi+jvSjU1ACscM+V5bFy676XEyQvW7Fif3jdI5D/ZFWig8EqugiPR/5fPK
FuAQiP2GQtzb6Sa4b5SsX8iKBZ4T4eMsdQoTI98i5VpDhBgiqxkAEQEAAcLBkwQo
AQgAPRYhBFep3u1MbZYqkju2kYFvPtmZIYNeBQJZ21zJHx0DSSBoYXZlIG5vIGJh
Y2t1cCBvZiB0aGlzIGtleS4ACgkQgW8+2Zkhg16Ldg/+KhVWMUW1ot+orSOY1zb7
zZpgP72j9pdzjKSu7wPpDJDVt5itFt4IF1KA3RVffLISZ9lhWWLK5h9YSi3oNgZl
CA+2s8mVhJa1yDelQnsBETrd/qejC5UhVIDc10CpL3vHqCvi8aAKwtz57n7L/d3K
ptjbFVgeiZlQE8nnF1j7AfLsAXYjZvi7ieuqqdK7lfGz43jzQr4iPUTgLE4x2wzY
Cle4CyhnRg8lCbAqORiSnH4/8Ao2v9pcOtTy1mCSDgBc+ucbeySBqJYdTANGVoKD
JiisSfkTLVttT77lgsLhpAqUpM0HvKkvWVf8tk89EHT1sEETmw6/Ofsmhvfz70bf
ubmhKbXRIrKT1tk42fXaYwDegCdXeKQe+wkoOruPOtNnyRl1kJ952S0iHyixhqVE
11PWC/DBKmzvuWYkBrbP+23USv7/5OX/2GB4dfMmf+4A0O6BH1eb+96lOpNVAlBI
xWyL2KHYje+rWWB0tHLaRFH5Zgv5NOvw+OeVDvucwZ38EMcqYk/vG0gTXfwF/1kE
K6J6HH/6hCqhYpQvEn77I2y/aTQ78Q3ZRGVvGgRlKr0izIAU0o8B+bi6doR5snQz
aJjoPJAjlnowycvEXMGfUf7mrWP10ji6v0CBfWXR5SGaX/lPeV7FgZ/DpZGeQYE8
id04HdJxnJtL95nRyJLHPhrCwXwEGAEIACYWIQRXqd7tTG2WKpI7tpGBbz7ZmSGD
XgUCWZMX7wIbDAUJAdKzAAAKCRCBbz7ZmSGDXk0ND/9K0tG5QIfDoi+m8PnA8xGy
6yR5ufSzMkc+8StsKe/5+0T9Ihb+a0EdjPQzSOm5vmqMm0Zs6B5wolCPcinimX7x
1wvilweNJkJIgpppsQ5cQzREOd7s/F2g5a/Q1tl+kgyrf0Es0TABlgEQgq/+ZAO3
pAo1aHniTrN7ii2VoSPIvc05H3yKRLBq4jX35wbt7QEaIB6HuVYAAi3PmP2fsmNP
zCS3tO8BES9V5DI+NWje74khbYx4MtN5eck1RtVlP9JUU51LX2y6NxW0JqU3V8ch
UIAkYFWi5NHPFXqUvLqDTj9VV8hBLG8FJHSEfe7Ovs6LxvD1GCSPgls77qElxC8I
lpeGZt5H0a2ZyYk6wAlzX70YikOLk50ULd92C684rFkoamokh15H8Pz/81iChfq3
uUUGEYvudDYFHo0b7XFx9+mQQMvsuPx7pLPJmGS+BcD/M2kn28TEFvfDi7JvpfY8
FAllufOB2lsna1UCCktsTOiqT+xyBWlIR+S9tVbfyt2F4uX1ERI+p8GQlhO1Skl1
TRAgKKyTJnW56ziVyJgTazNgrr97RkkjTJXwkMPKBPT/6iBYRO9oNk2sNWhGtZ/Z
ZVJP6XxV0Ua+hlxdI0rT8iW/UhLW+MNdKhMEU0lbDdyf8g2vOJ8KhSypwZrq7cdf
U9i1QHOLbuutWQ4QZB7w9s7ATQRbloGjAQgA5mMbTuXIqFT/3zz0WfD3C8N+FRnG
c+FyGjQhNPGcCiaA666bauxoWBtY/RYrKbjbmdEJWfjr06vI391eCIbfCpRWZJ/5
y9o04Pr045RitBn7nk3pPPdWW6ygYI5bO573RmhHIeAFy9LGdApgw3dgVM70AONt
NG3yhhITGuZaMGg2qlh0MkinSMJKhOtCK5fJM3c053GQn6nZFBHPUDHcYvWni5/U
h1UB+UugQ6C0xO27ASq4k4ahWpOg/qGGHeHh2RmasDOEi2aVpxa3V/cQR2Jckrsh
23joCqQPBKMuhNG7y2htD3yotUT0adWSxV3CPp3W9YKUUeG41yPlEp0fBQARAQAB
wsF2BCgBCAAgFiEEV6ne7UxtliqSO7aRgW8+2Zkhg14FAlvhvz4CHQMACgkQgW8+
2Zkhg15B+hAAly6ZUQjWV35x5LGF8Dkag+DCFnWfLtAl1a/Y7TCDwaoLO2Pi0ix9
f/YOP+vh2aY6ySk2E7SFcHx7lGtlMoAF34xu7LsfRltSWUx/VpkP3b2x2xL2KUwN
G47FytJYM+rFDcoEYc54HqRvZBLe2Rygg9Bu6mD+Zls/PF++ym/v6J7vhgF9/v55
yiMlzHWxcyJSP4ydDqcFHqaZdV61UR7J0FgDBztKuqNHpLAotishWKflcgZDtGcY
vEOscvNoFshYROKzo8nA+jhxiNXw116ZgSIC0mQOVuh3v4zZd3Fo3BeVluPl7Q/l
bF7CHBw4z324+HKSXUwR4rlQVlx26M9TDEtEmn0s0m/sqhp8SBOT4dAu+onsYvfi
s1RUrEakdhKihYIprCQl0fdSmzlCIbQ4hK/zuwZIcz8Isp9J7G/TIFAItnWEGZqt
PAikM5ItRiIhIWRYMp8kLU7wT61kGW3nGHBXJ6OegKc9TXPyJJzYVzF6HhExlUIi
92ciALnKPmws270q0M2UNK4Wes/h05jJrNkTN6YwRt+Zpd2HYBDvJx+7gOqSV1Pl
mcbNXWkYThlYRHFanMPIweeGXrC9oPBb/VAcFlQtSVIL1V3Ru9hOshWOIoIWuWnu
5TwBU3FtFYrQT5BxWlF+6EVILmyJWIaJ9N/VDQh6YPxN/Tozg50LdjXCwrIEGAEI
ACYWIQRXqd7tTG2WKpI7tpGBbz7ZmSGDXgUCW5aBowIbAgUJAeEzgAFACRCBbz7Z
mSGDXsB0IAQZAQgAHRYhBNxriQ+39M7mzN+NHDhT0b3SYGorBQJbloGjAAoJEDhT
0b3SYGorKi8H/iuqo/luPdsbELmHYmQ5/NgvWjN6ltUlUA21dcfH1kX6Pe5jhtI/
eYycuzg0zL48hmC/UBqNlIfci84hr4DOIdvDIXzJbeoLnB7xJh2cr4MM1aOKILPp
7ILrer4NE5WEfKjMxIrLbec/8uc3Ua5eQgKbr/WOkthxI8yHQp0CekMXXcyXoFVr
kzGdDsXA7i0nn7VRL8a9DL9fATmFZR9yqiHARt0hCQpzRcaM/x8XmqtSPx2hf9R1
D3Tie90uMr6wLsMx5h67afcd2woWgSBvCQqNR2g7qtzvRVSHQRiwPPOFsXMow1kr
9x57LYWyodqOqk4YESiaBJlPAFukeYZ7aQsWgw/9Gevjzu6UCGzef7VLOxHESvlz
VHUFiASTGuyBdWRBtvuXJ/m6F+u7RKpPW5oLljjGCzyfbTqSXaamU/x8Y9vknMFJ
xlwZLM6eJ3r3hy7VQqJ7fnqu+TmlV5bZn2aFqqf0o7tDaMkEn+Qkm1diNX4gfWl6
WRQ+3eW03+HBoljtRf9N5P8bGiu84oTYvh4tUoNrtY45UOqeAGa516dr92Y8E3g5
zOicrLg0pQvPOuT/qVw04Py8qHY33IGYIeVvb0UxrfjKx5r2j8s/R7p4Mn27Z7fA
hD7jVPN650DlNkIs8PxaPzngx+YE/2i9CjvfJ9aAYCupG7Er6ekDBUMJOJYI5SRs
ryVI+3Uor5y6PxK3J52gZXz46gHYA5lIQ0tH/UIjh50yP56/Msq9eNm6H/Y9UOLZ
tP4trYUTc+tux4UsjMSGJ1dCD5EXZaC46g8ZCHFevYcacGS4wrxuMUwwcfoLEbxP
erHOhJ+tZIkJ3Cf0+DO16ZbRHDmXMX64bJsRbFqtofdYKgcV/ISFIGpfdkl83rB3
9DQpVXHbyQbTPFYvb25VSeDONsISZ2nHYU5uGHf5M5ZOMeC8Hz3nYGfna0OLKqV9
1p7kn09Htu1CfSiJI5VdX8E0Kiq7Qap8/qB3wr1MLdhXOG9LE6WdCJML2wnbkeYs
qzSzTg47cLdoCV+opQzOwU0EWZMbDwEQAJ7+mrpqA7j0C0X39QS1b+ChvgUS2F/D
lW2SXunbdj0aVBZhvgVShWgDePp6OFj1YWDGLwGwnqVzQCORqw60petNZZvzWlw0
4FmGW+jFwv8aervi+Jq1dsVTHQBK/KEi+MLY3VbHBXvbsZP2SzSeK+fL7vRRfmd1
DNwrzuBnH6n3ufCUoKDk4xHLALmiUvWsTci5Qfry9rPaOl8aaPitSJwtt8y7nfpm
c+2Q3xUJKthXAiNd8MS+h43tl4Az4h3319NoaEjZ8OAUwWnz5lp12Qk5pZkHjsg3
3mf1Lm2sE5WdlL4NukrpY1fOaE65y9XqeBuvIkLT5Qn6pMcuKRXe/WVAMFar9A47
MBSfgtR2ItGt6Z4GBOC6fdcnJxhQSiIg7wI7urwoBgVWGtXvtW5E7i/50qgb0Saf
2iE4CFd/VcAQ7HPL8o8ZRUCKf53osyK6ceEGKB/6Jv2n+a7IJIsqVFVT+qJiQ0BV
2qc8FsF6CYDJcB66Trpw62EYEiDB4FPjoCOzwewaXSuEbQRLA4IOAlLbb2htMUWi
viX6BVLsQXoW+s7RTy6a30UGIZlF8bfRW+Te4G/cvAtfMtTpac+AKp3rLr3i+wlb
BRgUT/YkU8jyOVjPV3IxG1Hn3ONnp6yM8JzYR5JVrShLNRDSAEMWCFNKBkdbDSJU
ClimI9pdv4DzABEBAAHCwXYEKAEIACAWIQRXqd7tTG2WKpI7tpGBbz7ZmSGDXgUC
Wrzl+gIdAwAKCRCBbz7ZmSGDXgbTD/9+8+6ozVIsztTE4Dj/eyXDOu5XplXRv6j7
/59i2zjnZI7YCOj9NIbx1gAfxhVf35sk/I8Ke1rOcNyyyb1wPSgv7VmZMal6EwDx
pN6JDDPfJ3ZyYGG38fwr7NFe1EDYZj9GsFMl2098PCbM4maqTMYOh8xDQH8uwz51
3ILmE9AKNxI2GdIWN9X1GBYhLz6tFP9/E3gF/RqOS2oZ9SX/e5vMnaAjiFWZxiOY
lJ7JAEzwjPym+U1IwsTl1X4kUpqQQmGTBH9/0JP00uZY3GNKkgx2bqKbyxqBiz87
yHpVTDkhk8L4jZ3SglD4KPBu6LquirrrJEMeR4DEDYpExueBtyiXIkU5F1sPsQ5+
8dQUUVkIxCFRGfxWDlawhQblQnZEFJkbbEuMGwVHjlhWnrGWIELaZzYd/mNf89BQ
yG9AKaaX9X8R/AZ/8D4AWKSGFhlHcCjsXlRzHPGKVR5KYOTxIw6kDaAsCUct2iL9
J5dz3InqqPg6fpmlNqYeFJKw43Hz/8PdGqS9Wh1t6PZBV2dVouazLJ/7ox9Jta6R
Kd3BgfyONiLPq96WV9dhYsBfY6pyCA/z7cLMfwJ9/+NmSU9UpoNY/5GvnZODWbU4
F0XPoYo9+37n4lD5nV29JLAlviB3a9ADZP4MAI+OmPMXNdeyNf8lHHBG13Rpyb0L
Cn2bDAYa98LDsgQYAQgAJhYhBFep3u1MbZYqkju2kYFvPtmZIYNeBQJZkxsPAhsC
BQkB0rMAAkAJEIFvPtmZIYNewXQgBBkBCAAdFiEELWdTz/Cw+zL57rpIW5aIEl/w
tjYFAlmTGw8ACgkQW5aIEl/wtjY0OQ//aUoB8pYC7tzOvVCLqs83tzOFNKp6BFIo
6y1xQ0yAhwtaoHf36gfPn34MYOVRVZzMvk2rygFbZpn0EAYZ+i8QVqQKRdnqWecr
KTtkIc37rdjXeiRhc/hOBfLeMveeHwenPjYkuWEeu/s7K/alMqM/75MqXbji8ffO
Sz0yQscSt6u1h0xli4VbKoChaUSG7Zoy+eo8+Yhnm5KYjxmotLN8lxkwW8KTcBYP
hpoHqRY54wUO3aDkfizpCJ9VrJkUUhQYvj9Am6YitjAljgI86h7Z4XJ8gaNXR90J
W63Qs6OmC8tjkHXcgqfdm7c9mu357LE3uBc4R+HNvT43yF6Ft/Lvr2yvMmlMzU43
hF52iigzP/sutrK+XYmXAjZ1UtQNbLP45mxHDqhZGq/LDEB6OXO7zsSu6fFxYZuu
IyIulp5UzOAARkk1YthAjkaM1IsGeZQmcDtAU79V1fp2L5qvBAplNxdm5bRbX890
vdkLLIeEgQP7wLmaWyZIwjCFCvgS2XN08xtV5C3Oz+6tFEW2TsXRLh0A3yHrdawr
oKHABTB/9L6C0ZvdtD+BOAwTlSy4iHcdQ9baGv8orhoBXhaaRsfkZPdr9bj+VB2W
qQS1ZNV/d+G+J3zQG9G4D5RnAT6p9MTCY3FLFdb+4ia3yopfsOuau6NHAd6Shi1T
oHKJOZnUGAx3yRAAlvPcA+G5c2Eyt42pFuBXlzeCWIcUJAq4R8O4r+296pK/3j5n
HDkIuc1Zl8GgzChzMqulUijKYNiOPhUx9EkE8k9J0hWTYX69uQdxMaqJ/FpqyjVT
78dur2bEv6f0usSN0IpT63gNUaNSHWA/BiqIZzVMh1vAIyXEZXUco0VD77A8VC1d
JucZtdVw8dZtBdi7bOyS4xhUIhfOaCv8y7DqWBn7zOwtcsiEV5NBi+PJ6IcTkOwf
2PnEr+r5m2GNsQhxLoddAr7OlFj7zl06e25FyXeIy9AxJ23gLsmXWIGpX+6W2N06
qvSPuh+VgHfNc4u5d+wF59lhXGo7TLGVVm9CLxYIsMJOe8t7xmybbBQsA+fFHncV
cVaY0KGfj69snTPO0igbDPEZqAIat+5jDR3jT8ecy5hlrE8xAMnXXa+1+n0VS+6z
Tdw8WOgiD1HF96Ecm2uNW4a9Ye4tYJQNkYay4dv12+v6d8IRxGwx5R7iVPFiXWkp
wq8NdxOnoQaqPIqt0OBCJmBwJejMK02o6Us5Io5OL8vMDc2oFejjSRk204Mh5XMi
a2QyMM4D5i2DZ6/+y2vEawMyy5IWDoA0lSpeyNDSdL1QMqZNUzL41Wjzo4yp8qKZ
NS8xqts02m5b0bL8ZM6ugAOLgX7oxq9Y+UZZNY1xDRqXzQRci+DSKuQA8U3OwU0E
WYMvWwEQAKXyitU6c0jxvJWQdrSMQLfc/IsKB14plHenyCdWERql/odvoR3V3Xzt
8RXOu4h2xGQA2kLaDs6QaXAl6l1V+LqvfB1s3BRoayT1ev7vXWE3cw934yEaC35k
d6YvQG129xafWM678qUIFcAUo+sWNthrhI7f9d+Oz0ScW3krhNN/pLd3kofdL88t
jjAy1SGyeptGJsw/n4h/E88dAbsQCzcV9/f/rtY03nRcHG4P01aXZ9CRNHrwHIep
XurD2abCYixLl/tKd+kb0qjENRfCRC4ld8nDOm5PCIOAWynRY5NClIdSGqtyBHbU
piNYeNPhNmCKetz66l0hVvdTcglfel9+f59m5JfhKPu4hqeQAw8+3GVbt/dDa4Vw
36FhO7NE74C99XJ0Y10XpIer9sjNMhQqB8At0kQ4QkJEFmuPbtNSbwZGtrlrhMFP
nXwyvbSoIPk3WR79Ar3O025Bd17SThvDCVcVTjS85rLitNSYLmo1fnsMSMSYprf4
GNJFu03GZFda4Y+/8I8SIP1ObHiWIosRZWLb8GppYimIlnZoRdnYgQyY+0U+o6gY
TKRU9h8oNJpVRd3241TxT9FGm9EoxLIQDNiFxdtBcsFbg2kToEMqncI/YrY4kXyi
XXAlawHgtmB5JZDoqSs9CJRbcFH6HcYKi+tm4xK2m/LJq3ZtlDclABEBAAHCwZcE
KAEIAEEWIQRXqd7tTG2WKpI7tpGBbz7ZmSGDXgUCWb/P8yMdA1l1YmlLZXkgcmVw
dXJwb3NlZCBhcyB0ZXN0aW5nIGtleQAKCRCBbz7ZmSGDXgxZD/9lt3J6qXJsNfqa
dah9n6lUrlzQIfIaCTEd6cTJ6KpldhAw76gp6TqaON3toZAcpiLPPJwWqzX0O5MP
3t6bFB11/IgnWF1AozYGVilgHHvxpJ4OLorFkOnmojxvM9vWCkYmKgd+vAowJFj7
iR1b7JXvLdw7p4eGgP4iGR79FUfOsemC51Ypiei1d/htVnXeILR7A9IVwqXvBUBP
hvjsgXTX1+8IBiGCinFfs22OgPSmR5+PIWYDVT4r/4yu8Swf7UczWYIGrUJxHibY
2sy/nJQzUoRqRCXsl0wTMU3CKi9RfTcvzqlcLdrkogg/a46KOKmVGO03OG1GQDvI
CNQPBMLthwn0QAls39HODAtsXJrz+vEFS3bQ5cF3pZAB73z0Gbyve1GW7LleCrIK
IJVskm4pAOOf3EPZXXDJ6akmQCCTIuaKuBtEl93G3viD+kxw1nuE11971wW79JLW
8lf5zh0tK5olWiO6/moAvs3TIxgpQVgyEyS+3OGP/abdR/CnQuevSnn7x+xE2EdV
OaQ97gnuM7mishP2MnyHO7LVnurYqDgpvlWP6ZpqVO2HnY2xecjh54HGFMNQEp1r
47yc1oebu8EUTtJkbLxuuwEDg7lsOWcYQIOV1kcNL70dBkZs5TnM104xXZe8Uo5V
ziF6fHU+d1MsLSv3b1C5ZhngDeEThcLBfAQYAQgAJhYhBFep3u1MbZYqkju2kYFv
PtmZIYNeBQJZgy9bAhsMBQkB4TOAAAoJEIFvPtmZIYNeyWcP/0EmMgZH4xjokAL9
yUT5TSAF+/qzB5IOEt06bMGRqsvVyXCu6Dq3GuKiFdg+dUKWWGv/dLlhC/Mvb5zn
I/qnwa03AayADsVv1WwXzwL/xCpXQPy/2kIj16etgys+YN2O4OaLUM33JrUtcyi7
xcYyr0p217Krr2dJlgfDtcajwnRMf1loVtGE/pdZ8GGfzXR10+tQxsmKUjnCJfIo
H9nPIYuoQBvlYoeis078+dBDuxsA/W18/QxU2WQhZIdXKNjKB5BImH46ZXup8g1p
HEeSP8Bsyi7owLd8jxRI4nZ0UIsu+Hux1zWsOgtWYP2ZOoJM0gEBB7hfxd6Ru9xf
9y7ThhlVGe1NSDVeYExZeJXpGOJKExwP/ipvxCRRvQecaaO+IB75Pe5Q+T9FeDyK
IY1cHIZp9yv9cBt4OeoL4P0xhOz4/huXJqlF990JvrZE5vVWVrRUV962Z8vIm5xs
Ou7DaYkwke0cTSUn6rlI/Fe/wxwKcz6i3OT8I1SOvvGi67hleVQRbtrAHvB4yoN6
QdRdss/5PP0/s/2CKhmTI1SVBVYCz84HwEOHrepgWN/C7/BxgoxuteVh35hZblcu
dS3soSOjXH6W4ggzTsuqkRL4z1Ebk2QDnH3O9S9BIovf7L9d8a9eKFadlCrG7fr7
qAo2wj5wO0iLyNPg9Pt72Ar+G7BazsFNBFmDMM0BEAC43dEWvUQkcvifOz+IgDsB
L5IaZehmsJRX6ZGWbjjiGFODo9PXPFe2Oe1jP/HJJNmyReuUMgfs9zTrUly0nnYQ
WkpvvyHIH2BUej8ArmuK/z7lD4MUtlPvT3V1lPBVMreg8CAVxIgFkWR5cZLo3ngD
po0m5CpE0gfIcYByCP3tTDqtkkUwwSnfOXbyD6ZFPpG6SInZHfhGER1oLcGC7bzs
IIFl9LB6ySNZ7Kmb6FcfI5QP0l3SZHXlomdEDo32Q2isYumC/ULBN1zBVNS2dJQF
jel3JGAQkhaCKVpRodWgAdepBu7CcR4s+rz4k8SeEol4BfJdn36svJX+YoaY5Sku
KThLXSYrtAYksToi4JX96MGoNmQY0NDOcjG+x6m13U/zMGG4kXmn/FKBeg+XZDrF
2O887vh8YEDpTvHDxNWy3MlGZLYIotDLUb8q9nA07uODpwkjfGeTUWtdFohlot+u
moFbylEz9rkKK1yWn8CcJ8tkLHmTT781Lj6OOdM/ko3gzQjhGnBicPv682VkLjvB
BkNIrTDH1gE2LX3cQkiQd2/7JX5CoFPmsjAIaILcaoZF1+DJ71TNAYfrcaM+hvLX
yhfXbvdUPe7h8jcp7jdaCcaVWHouvc9fpNuuEqe7XmA1nWYra8hVkJ+6uZKcj42z
G9+Yfpq6dotHypycjvP6XQARAQABwsGXBCgBCABBFiEEV6ne7UxtliqSO7aRgW8+
2Zkhg14FAlm/0CAjHQNZdWJpS2V5IHJlcHVycG9zZWQgYXMgdGVzdGluZyBrZXkA
CgkQgW8+2Zkhg14cIxAAhj82LBF2jX4N720jqfibZDHUPwuBIa7p/vM6lQTXkBIr
ycex2yL+SSEkMiMIplPrWRI/5SsD6jBnELnUhXxwPHFHIPMT/bj2RBAlPiA/K75F
Ctn7syKgg/SMZ+jCaOd3Q08ZRqbQYBxSv6DCF9eG+GES7udZOcDLymQVVRJ/5WHE
aX/fn5tpBV3zABPa7vyiAowQFkvMsZrzKrQtdznNf6rF3ZZsr7k6XsTIhUpBGrEP
4XBbvH8zen5J2Scsdr8GwC54KA16WU9evVvnB1l6EoDVdNzkXI5nohf7Ymb/vjLv
QZpfwMQTa8YGXQfVrOriKyJH3FwRJWwZ5WXQ+8krpyTMZVd+wAs7QaY/NiJW36tt
VTggIpcg7FmefM90Hvlr9fbmQbMZOtgdE/KclXLx+rl33BdYi+c4YrYDaxwvh4ip
wW3DOld6ej3R/jfsz/ej4+QibXNV8yQ7RG9dP2vC0VK4G1DQTL6gzxI/VFAKpdRn
WtuR1QSyueyy7KxaAfTgGLSkLK0r+CMSemnzzFVhT7VTfkJrVFVBlcxXJaQZzesv
VX7AwmV8rwRsJHiZidzOfUdo9QAupzXOj1uxZqI28idBhEwLA7yQDSq8Xzl6bMgO
1Rr7WdBd1CU2dqDIKZUqykhgS2QDoOgrg7GaIuifUYGpUgkTcuGsEHvScnAnoL3C
wXwEGAEIACYWIQRXqd7tTG2WKpI7tpGBbz7ZmSGDXgUCWYMwzQIbIAUJAeEzgAAK
CRCBbz7ZmSGDXmosEACKsxyqS6qPtHPcdalYGBHjM9b7fNlXqCBfq0fIdDwqQez4
balZEKX5fcDd4wuWT0a44mdcVxK2PTSwk+ge/6t93ceBE/1ijbwvqM9mZSq0aRZX
fqgjRGjjNb1Dm3cjxRL3+5UvRABmAppYSLMPoaSZ8xI4vBC6Sqle0DOCx2S9WATY
6GOuzD2flDSniJ3QvII+PkDqkZEatapZ+8GdKaDH1ymd9xs+o4eotJ/ySWOPXdyQ
mDAhM2WaOxRwT7fYdppYwnkc2QlS4OT7EMrNdKFJaURkLBr6mpS+6VSqWXWPW1N6
tFLoUHTqpiV377laFvQvM0hraiBnjv2cc3BLlF2FKaFR91CpALp9VtF38JI2wPHN
tB7Ml/tE/NSjq/oLffvJsgzdcQSYIyl731Sf+X11vAY10yJwoJZ0LGjFH3Z+A9TT
YBcZmd2mwXd0AeDr6Nqq6ICObnFaig4Vdlryh3pw1bxbkHdyWa+y/3hi/wO4N7FQ
0opiwnL8vPNqE4ASq1Umj2ni/JCzMSZ9sMBQ40bUtmlKvFVaSTxLPC571Fdnhxe3
p7ictv0qm0DHhEWhYM3I5Fprsi5uoAiuy2niIsa6mecE0WbsZjRcIRTWvDchrHiM
gdbr04iR/feWHitXtryChMaQa4j84de3eMou/xyZqBDptoicAXVTYRB0x0HkGs7B
TQRZkxx6ARAAurIbAfVi3HD+f0pnN5tv1sYPQp5j5/kHoXgcRncwsXdBfxxqR+U3
zLpaVQ1R7oam49bPuigegWVgstdOqRLkjAbbHaST6WcEP+SxW0rltILWl3lUi0CZ
iLm793FtLWQ/2IUYqf9QvWVl5qREseCCaSeMRyYwBU8Ww2Ut3IRB9XTPNjUV6s+t
E12HSh/aZusv8uAJcP65cJjJRj49SnMkFYD2nD83DafD/VSfBfvr3pKHkYmxLkja
j3zFGrg31L2Y2JarRDmlZJ8U9VNoznCFmRZ9SfCHpIwKJYT1gsSGN/04pSa3DlEp
pyhOU57WN+jE6YjqeEPc+lv2/WIxyOuIDVznO8XI8s0BMrPjDR+b9ippBqhTPj7F
7B8bAez3QeDjWiPNEDgX7QDJWCWIFzl2N3jaSuJ1yyxoKSV8tg511qC3CQBZo++O
JPYjQBFPlxck9Y9MMIdbETMJ5F0L8GrM8Mm8cuzXZuvHwWQ8oXkvFAYuAfcw6nWS
Px1mSzdn9iTSd27dapn5lJ8G4Kq1zJ7SG++V5p5TtbAzMGwAN6GW4zW4K0VXeyUf
d1+TWMfLCmGJkJNm5RzcTQbVvIGnXNZ2YEiqkd5LPv/yocc0Fu1wOJUJ9X1iUC8O
SPQ5iw/mD/R8+iHjHDCAO9bKbsIETf9mma4YCYWm2XKR0Sp5/CqUk98AEQEAAcLB
dgQoAQgAIBYhBFep3u1MbZYqkju2kYFvPtmZIYNeBQJavOYjAh0DAAoJEIFvPtmZ
IYNe/D8QAJuwzpqazbiR6b4vdaGST8EuNQvNOuNQRGaLhKAgaQLJYoLxWYZloGM5
wDMiaIxI6/dACy9cSummgVlLYWBAXeyYtQHVywx8iE/fi78b6Up/OGTTySVV+K7t
ugQm6IGzk7ark4ri3VZCZrzQdsE6i4wVFJ7rth0BOQzSAI9anEdXKNjb98TPgp0Z
ywPKju9XVaw1tBP79foKfkZzZ+eqWFAVutr4DtCkI0rvctfdOhiY10y8NRzs966v
Vnf5yM9umy0/9E97AwS5H75xbEbVrew2aGqgfqLsGNMpY7VKlPOtHfXMj3ifHXiq
y9/UMKONIeF6+QoLmuNE1I7k/20X0VJGTftbgwhHZsuabVkbBVuadgfF/EN+gnbu
AtH8zR3fZ9JTzP5HMRID1YA1vb8chJ00woYeKKSvwjPeNeDIfdnrz1uh4Sinm98Q
WDOjMKmdwoLzE0XHb/1L80PBfRRSwd3s+DwQbj3U9E1y0nbvVTzITlTNEStGVaH8
PxlxVlSlySS3iA58UILTy1MuWkWDK/szWVpu7LS9P91cCvdpYelB5eldho9cVlK/
/lSTJ8C8NJEsmV5Gbc7UWqlInLpUYavhNVpTXHmSMcoTZ3RZ0okBncZcq8wiRahS
fsEnrYjXGlDmegYn8jwJWhfpOHVTTOnA08mnC/kOvZF1hMCg1HEuwsF8BBgBCAAm
FiEEV6ne7UxtliqSO7aRgW8+2Zkhg14FAlmTHHoCGyAFCQHSswAACgkQgW8+2Zkh
g16trhAAgPIyGaFdWEZ8gYRUzLoQyJCZNOLSJzKDVrBdkr21YCDHdjkkp4FSpWvf
i1U1ogYtKCsNGFi84cd7Q00LGVnWBocWiCQBv4ens0BI9NN/hLFnd9zsCgtEZ8aF
2tXrbdGgY+DJLirZ13oroFzecl1Cqful7uQSBZQX545RhMnOEo6UBHivhCUSATs6
wY/nqGeQGceo8CWfNl28a4Cq5rKG/d1DAvNFXCvStEoanl5Jd24uMD8x+s3aQvOu
8tKT76Yzgo3g5THZbMPfcz0VVZyjbCyVmTjU4Ww5JQkntJhwRAZnnaLgLtusOQS1
Y+GY54PBa7zSSTiLQYPakKTBD0i1a7NKTi6m0Ye57RXpSWjR5rjx0onyUr/tGVPu
gICpiGCDwDOCwDV6S2bk8kJnE1/HZFoQ+tg5RqwAlqYimVHtQtAj0aVvvN4qfxdH
GXMIG1cMGp+rEMRpkXiRMPmOwUaO3fE2nbACZZZXO44al/hEJVCCwNYaZGq6wDK0
IXtwEnA/vB0dlTV+whw6oAd44XthgxNy+n5izqinkj87RWakQ6ZnVGK+Psia9tfQ
XTQ3Fxuvp4jAhRsH1tWCCQIojMC8NfDTpy8PS34NvAWxbOSwzwr5TYHNh0DGbW1B
ZCfTiIkBXexIOlm6ID5xOJC6bVm77IqfPsZXXSpz71N6uUIxK7rOwU0EWYRWzAEQ
ALvkLhpWb5qLSnOglxNjI1YbAlMBj163qvYXQoqM4QfIaaUsUSmk5sh3TcetM3hA
3Xo3Zgxgoq/lpByZa2tunaqdmqOo9lnl7xw3tWMHRKb4VQr9oLR5e1Tr5+FaQnX6
tX0XqJVGw8M6y9troYhV57pSXMald7B7EVxtwjVc9sLthLaEXWNPvaEmXszWB7K1
cXEuvNazwuPhTgJ/ctbqm0KpcUN+10Nl0PYZA42W/E6kXGendZVhbJ18WEQOovTQ
S7oxxhJ0AjUNP0yGHcQALKeUxKSVdbYHEAdRezn/AXFwXHQumHhJHwV0+5gJJHnU
tYV/Qw1TySwbmLWYaWsuRbeGCbmQDPXmgV8a2FOm4wh9drTrIuM+qjrKk50ael0m
rSRuaJ5QZ796ZD1v70DQkIB2ZNUJddsN7nBT/WQ5QO3rj5BqMdSxcaTCigaB8aFv
jUehFR0IxQ+pvumEBNWQEp2PbXQT8iA1w/yDTW5ukFEGepJM/HDW05kGJ47TZwPh
o66g1l8F3F/wyXr254Z7LHoliP2z/5XkbC08eoPXJPVd2mubpsEXY1HfEJrRkkWv
w37KdM4vTN5wSWSJoQKUXIVZlKWz9DtIQLPSCgRMADjso4iBn2Xfl3wO2lAllTMr
qSw+G9xSIRTY10gAAPSK4evLx/VnHMHvTlzZuOEoTK7/ABEBAAHCwZMEKAEIAD0W
IQRXqd7tTG2WKpI7tpGBbz7ZmSGDXgUCWec8JB8dA0kgaGF2ZSBubyBiYWNrdXAg
b2YgdGhpcyBrZXkuAAoJEIFvPtmZIYNeiQYP/im7ep4r3jDMAhCPSKUXwvty+64/
7C2p/QBOATerLgJafiNkEMVZazXWs7m01t22+JfDoNTHt32KC+pY4HEtGeJJ1DHx
ZBvfAkb3OysfGsm6HxulT7cTEGYaaUrfxbmqZnhPK4mHC1zVPSYhaVA0EyFRXIFd
nUM4QQAxl9697ZnFJhgE46WvOqJAjnZ7KpUgJtBP5ewDnVjmElLyCW13OBgmlC7Z
adPKLetwHhT5+lf19egJW2ZR7Mpful1huRTokwo7GDvX/v4TOMgXrA5M5iu1VK1K
EmaiPx93j/XPppGPD4Gv6Hp2dRsgqsJgnKNatC6u2wCasBDbg+b/trTWxbWltqL+
grIDycMRbJWOgZAvrCXo7bzGhPlVSK/A/Ysj689vECwMljy5iK+5fDTHOpWzEUCD
KBaQp0yfuDNamdzqYi6JkGAIzufuaPJgtYnmIsH4ysKsVD02Pjyl/5nFBu3XBC0V
uBj4mQqApMt08X4JdJGn86YRGlUdlfNivFAHxjOIP/GdbY5DfOvnWTSuYbrVHOAh
Jpryrug8XCjUilTnJTtQYRykAp+utOVKkkeohgYa/RhTcQ/l1wTljHHUd+aYqVKi
VBj/rcaPxMIzxMNAEDQ/oIcmPpgVOnLMmvnbsEN0wlfYMlxeICVXeiYtoWtVwwhz
yO2iUAKSn5lykwQjwsF8BBgBCAAmFiEEV6ne7UxtliqSO7aRgW8+2Zkhg14FAlmE
VswCGwwFCQHhM4AACgkQgW8+2Zkhg16coA//VDIJg/7sW0pYG1R2XWOAkIjQqetn
zUzePKia40zgMW9+Zk4NfENiHKg73hSyKtfdzj3+HZtEY18w9STTn8zLW9EWJAWi
SVO1sNVCcjVk7USBX5cz85IViFqLreIbX6yUKlCTJMmarPboMLMDidAmJ2OBlbYK
jcw+YII9/PZ18pCtwCE3+svCwFVMKWUZ/RB/aJLm9pXsTNxJWl75RphLj2/dJ3o4
cq2QJ1avSbhWtGcysQHKM1/RSu1Vfy9LiEmvkT4p/sPm5y4iDjAmoFz2QBiBoUDF
K7QXlqv01+EHFKTExc7HOTab2Nxf+NbG6UgTRXQeGHTp+aPllF9CHJmOXAp8fMqp
T3DD8Ea6BldDjWZUd7AVcYShOkN6wFQGVwAmDKapKXPskdZ+ReNe8m1IdtJu3YzM
QZzg0MMmP7mUk483jhS5t+h6kIduX4Xz3bKObLkegzl1Dv5L4K5UEMx5OHys9s6o
t2E8TVYd2GKoOaq7H8C0zixw4RznKe1c+n0A76mDfNdoTcUf4AvuvfImM7stXXKO
csPJoJz6D7/DBhKtcG/DhNXy7k5kW3IL+q8e6/YHToTe5TKlUnEMODwEFKbDesXw
GphERYEmxYrs2k69aAAbcAcMI+/BrF4nmv6aHvJfpjmR4tkQr/DqsPkVCo/KSE0O
KdXdtYTd57MxW3HOwU0EWYRVVAEQAL7+/VykmaNt3wCeXQRrZcoWLBP7sgHWHesf
OJw/si0IpdsCvc124ghJJNH0z5aPV1eVvkoX6WB9IkrJtuJ9OXxa6zy0SZX1zwr+
UdFCKw5WjFYaXFdMSPX8+TT+IGUvkpYfEJeA2zvgp0V6/u5m20crBKqVI5CejCAy
ysX8w7PLtzbMcaBE9UeB9kXmpT2r1h3MMrqnqdGRveG+QFMtx9r3Kbzb1hsLcEVT
WRe6voVaf91g+qihBk7tL5jBes1s2tmBIsyyIgObJRiij6WYRFrD2H5d2MRSoI44
lqsi9Od/alLx3hFboz+njasun8WmR+HQTANaBAuLQU00uAxAoIj25cStqRxdoX/j
iawVozZ6Ga252OVzACppwvlGlN6R3J2jQdv9KdqwyrcVBuPmHSiaLp5slA0Tt4lG
j4yAoQpqNhIhlDVcF3yRv1qj0rk2dbVNx2qlkjBxYV+WEg/La1rC0emUol5AS/vx
d5TeUWd/xWu7bOWxHqti/qYTBYN2U41e0WuWnrzIdlc1uMYxPfumkWMTo7lp8Yk8
OT1ZfbiRLBdKzmhcQr7nJFNAMkP9mw1j8fjo1tKnAXX2cSYD6ucfNN53nYxdSJc0
FWdaVHtmprBNI5GO0W2lxIAPT48BcVLAVjI5rAZkHdxiAx3/dbQiOk5cd7jK7IgZ
tOJcZeLzABEBAAHCw7IEGAEIACYWIQRXqd7tTG2WKpI7tpGBbz7ZmSGDXgUCWYRV
VAIbAgUJAeEzgAJACRCBbz7ZmSGDXsF0IAQZAQgAHRYhBJFB7chXhEpNaWusVD3g
u7ws6zR6BQJZhFVUAAoJED3gu7ws6zR6mNYP/Arg0IhaoCn2xA3uZ+Nqw3xwIARH
XVWRCg2JPWDF/YovEX9BpWYc/pZ59X4Fe2RIdNEYbw27McGFZUrOJ0M9wA9ui9hK
QClxyHLGWpZ48hOAywAngTXpmqwU8KxEM59gdaynnRVeAv/j7R4LfDzuigjPZyMF
Fnok28eckuRp/P+g+ORyqHHhCLbhO+HtwKxnaMjbrLo8fQ1++ZslrIPykLg6XUXm
mbKKTlQ2CpdmtKcjNOVjUavcwVxpLgtUnKwkQoQdk6NbNOBxw4Nz1jgZU51GQ4q/
JuRXruCJXC51QNEzOKhqGkYmlf9ThyueWy6O2QltN4DwuSkte58KnviIog5DEQfx
5VLXK6EeaTyG8+h+qO4EIOzACcx7WtoQ/h7DCcs1bSK5lyvZg2KvU1yhuG3NcShW
ShNu9SWwpl0Bm1kPUpAc/Fy2LjLfp6tWYMCVopaLG3UCS+5iEqWncOZk3c6kua5Q
6eADqcZcVBgq4z8dEXeKZ1f8USznkqQsXF5C5FDVeZJjk4lwmD84wcre898/n+RP
ucbEcUftOQ62mNtuk8YoexwMB1ulMJEoL98U/X2YRVy94ylRDAO6aHe/RqnDmehH
eK4C3dz9sR27nc089Bvpwtcr8lc7u61xXiAdnz8uRIJDAWqOVzmfSW2LvwyRbDbi
Kgja+UxCwz2CPOJHvUgQAIxkNdA4TzE/Pk/cJ71D4zfdLRTDIBa6FjeKNhkq/1Ex
mjChS9kWcScFqE5+PBCaubCQzXI+i+3EPsYpV2KEdF4g4Wm8maoJZgtkMyXan9fj
+0pUOar4rIHBF1r0z2tgu/Vga9R8j+puK/1JZ5xvM43fxiLx+pGLIKjwsas9wZki
mEMBDhwNNpSEFqIWaH8iPpsIn1D836kc6bEM/orGVbcrzi3yY8MJ27V03IRbI1++
raznI885MTbh8/FMGuBEtlUVGrj81WWQT8IClMHD6jr3SkUK3DHvlUp8Abo4lwld
k5tRYxZBk1iRUJv8tGQu8Bs/9NaSfkiD5FgwsJrilIsVwoEfVQNaFoyJUV0ZDOoQ
UoZYasHJa39CliYiAQlo7w2sk4dedGz59ZP3zUPaWYjVl3W1ASoLZ0VJ7bFUO+RN
sCcnFzqSk76CyFUUpnmEDc6fiat/imSPn9q/F1VVKljqXtMaXSVMIv8W950UeJem
7zv6YyBjCy14HwHrdiAkltWXPL5nQc0HksHaBsRdcEitlOZ95vTjn5x/sgVg3WnG
2yxLAwVMu1SboNhNwwpJc0Pm5/ItRh4lga+9I9CyvTiSxykjfvRwawM1e2z0uCir
V0Dal2TC0/X942rIWSn1kRjsQMeYXxU7Ka1gX+3N72mz39T60kG7AfSv47rKUccw
zsFNBFmTG6sBEADE3K0bckEMfcuKCCHCctmbCgYI2XIO2+InBQTbS8pWhg/+pHCJ
z3kWzTQXD7FVX2p5QLWMjyEh/6MDRTNOfDl/vubX5hdhthhI6b1MtbgftVkhBPZ0
ZiOmvdf6BxEIPbG7eSz5kcR6G4XOvzeZhoIyp/GJ2Mlsex74P0ksBzqVViRDExey
kywbZe8/vLiyPYK4j6ADNrTaWPcwdoXOpS0oHm7E32kZet53GX9giOa5S2nMfMIs
w9CUoo/7mtmXw09dIjzTLw9RUIL/QpMezwnN3ENk2XOpq29A9p6RO8kB5xF7f1SH
ikE82RK6gWbRFplCYStIZLRw83CjqfQ6izEZ+A0iWxDEcqTJ6gapXECDfGXvAC47
NFXFCYZpyvdagLQTxT5ZBfLF/bslCAD50oGkPtzOxbB7YPl+5iGuL9uNGW+7QHk0
7ga8OCER6FGpjS0Sn0ba85a0KQMriFXneUD+4vvBzpqGPlyzdS9G9pdQK3cCJha6
xn377uF7kQOtycnjJkofBK6J37gcJLb1aROlORNpR2dvYV2nqbzOpEZvOjgy9uZ7
mWJBdgK96QiVjE/zMr+qjS9BDXik7rFRfa+aPknze/ILndbHRu+txdnY7s6+2bTv
dnbGI/8Tclve2IVcyMUsKpgMuIsQfyo8fxSWthDnzN02zt/gh9N5wO2ZcQARAQAB
wsGTBCgBCAA9FiEEV6ne7UxtliqSO7aRgW8+2Zkhg14FAlnbWzIfHQNJIGhhdmUg
bm8gYmFja3VwIG9mIHRoaXMga2V5LgAKCRCBbz7ZmSGDXuR+D/0dB1AXJW6KYJHv
NAAdovqFJkw7CpRm4zi9oCYgsFIMgP3/O6xeRL6q603ofpEDrKJOzeAsubVO/dPE
M1TBXxkiZ4mBGDmkuETaj4bqTb0A8gEdGAuOVPWRsWRACPlgCLafZmeEUwm8iHZc
8tOxn/e4uTPwQ4bUDxB5TE3qQ0sZvVDKKAxcgW9N5L6Vwhg9A5VWO2SKFDdalDaz
r3H2yDYUrBr/WYAz4YexEet6xfkiNOQ70F5FPD70ymz+mtya/MEujEP3TvP0FXF3
s58FErzID6dTUSzxJ+KYBDmNMGySj1QgiV6//Dv1LvreJGvEeVYQS6EloqM9qY2a
1XkQvPdXKWsMqWPPb9oatjKBU3JPEhwch8gjq726M/5vSaf+Y4zSPMnft1Sq3Ekk
natFb8MGkwc7D0bKptKGeQjMKG+XZFFcRrcxpbXNLB8vl3aDDgyECj4FxRelg309
psI+yoNfri7GkTpMqo4aJ8LShxq/2GxiQCZCBCIY4t1HRzf3jmHdmTm4x5iK5d4U
2vBmGkTBvlLVflnVgWRWGis7KKI8IQZDf52NvsAIGwmAZiHGrDfPH8JLCn1dJXw5
9in17ECXyF2NsTV4nODxx5DvJKaWulmrAuxrefr09i7jnGeTulGqQdA8rSnmpi/o
U4YyaLQgtC3b8HhtjoULBryfosDoS8LBfAQYAQgAJhYhBFep3u1MbZYqkju2kYFv
PtmZIYNeBQJZkxurAhsMBQkB0rMAAAoJEIFvPtmZIYNem3MP/2ctD7v/ECLiKdCI
IxUV4fqLdYtKOQFHrV+QuhqgLGoVBSo+Ath1HyO8vldxciOXpbU2TVd2Uz05P2zb
1RfkCvbN5Z9YVsQEtxpIHLsGEOx8TtctV0HMaYeye9m8z15XTJGhFDWI1DIa0rJ0
SG7XlaoUXYvtzQs1NPA6d9UtMkLM8rvueUvd47jNQ4X4RRyvVGg8d/UqyXxOd+56
rx+vPdlxudm3KRP4xrnZ4YEKIx73tZOxvixxo/ugFSEsabASEUl55lW/X64JBlcv
zsYIshQdarEOS0tKEDB7sx7ipVhEiVILzsVZ0vijplFr+ETivxvZ6MZSHMxi17Bu
HurpEVnFDr4owmHb0X9NGiqzTuw6ZbtgdpHxzOUduUDS1g+yqew8NZrsBl7ap9/X
kEd84kkaQeow9KclO92FtmIfDL0jGbMtknTidxIM8VUQQIVHM8bY4RC9Ap9TYk4u
D169I4IV/qUaukaYLh14DhIkjS1xV/Kx6IRQINchh3OCinnjwkJEi/YOIvhC5RhI
WCrh3ziurVsIIAHRuTwNU3+Wfv8SbYXfZmBDxhTamXLuIktAhIcY1nV/UUNJ8xnQ
k2ltXhu31yWpb0ED+TAHFEyukcgCnf9Nm3adNVL5DJjMKMFGUVUqJxKrPFwUpUIc
Ob5xmYd83xExDW5BcMoHPBKQtLR4zsFNBFmEWKEBEADJL5l2+Fk1Nbbr3obSCOUB
p8/gcZALeGq7mqehjY8uL3RO4LLveVnep+QZJe19VvEuy6Iud6RobSyjXZ6wsKte
qFVP2jRZp7YsjwQ/Two5RKQ7Rh5dYaX5GL9AwOS4T6JNlMgVY2hxxjSxecECXJ+g
W9RbwPUHRD7/gXpk7XAn/tyvdoM7HG3UvUObOAig50txIy7qv6fQNEkpUMb6si+I
fKg7c8ALYebKXrY+QaSJTaOBy8HCds03j1iY2b+yGlyCw8DR4Vrz7IsdPBj5Babh
UxazivMMW9vkeIjGeVe1v5wDIUNC0KB9J6DEmq4hNWJt/RfC+WHcyGpbON+W6M7n
crYhmHZsf00blfCDOhiW+utyZ17+MuMpSYZ4KVmzLiV77ll0YnUDQVOVe7ovALqd
0zXkbRqVbECdu0+/a6oVi+ivk1w5HocwuMfGNepyjo0STFNeMlR7PA5CQEQIcbx0
i4NBeIa2lty5ufAuOSY66Qh6DVdoZ56xfR64DSpMJMFnQIZT54AVILWPihVc4XQS
JTBYH3ne8wzKFv+BC0ljiOaWYMSkYrDRJ524z9Np6mKTRWcLDgdUczCfd9GFW6lb
BONS3WGGRtCFEF/PU7dcQJLDxbVsiTgduiPHLuN8lqNLEcF0XPaCiKcstoqpO4Pc
YukMmRViCs0f0Z9rrIfS8QARAQABwsF8BBgBCAAmFiEEV6ne7UxtliqSO7aRgW8+
2Zkhg14FAlmEWKECGyAFCQHhM4AACgkQgW8+2Zkhg15Kjw/+N8iu/i6ulAzUDYwS
ohgLw1B36HN+zDMwMDjzpcfSo8R2tS+pWx0pj5F6H5+2ge/W3Lp72wGC5M1gU+Ov
UxMcqZ8YQ3Zap16Dhc80aSloel67hpwXcozEltfIVyBQQbuVyAfUsrTYYTNh3Z9y
V59soTaCRl63qzSNgUxFaCAD8Im23BhVwn5ThyrXDJhhWQ2mZbhfpjSxcr3HYoBc
phQW3VvCPsU9i/E8W+oYepJdlbaZ3KikqkquuXy1PhhwIPlAMAuZtcLrl/J4AYDQ
loCTXQrVNUzrBXRoMppAmVQ/rvZ+B8ujE1iuZBpUqb8B2Nhn8JxhRv4c2KUE8vvi
XHlrIEscSxZVk6OotvfN9iLG/ulLTWGI3fjnZGxcbvOOqi6/Bh/F1bK7s83HToNx
r0JtzQiA4QUjqdb7kRmTdRKRf6FA3U6EspfyHttD9Ny7SX0cMIOTtf/l7DybIc8/
S3i742MS3l0mjtQu88+khUH8OSzBXQxLUegyA3SrJax9NWdlQ88j9rE2lyNXne8M
oEkLo+LO8j9T1BqP0ztTNUrtJUPt4rDXb0+YBmd+4XTRH0Ii/SwALCqC6gRqnhle
7rZV/vllSqPzqpjxHDSs5PmewGggvnb5vW6d8PktsdFZiSVhEiPDh6Gk5Ljx7+js
qdE+Dswn2SI3Ky+QGLFxYt3hMrnOwU0EWYMu0QEQAPWejCGGScsKhc0vZgRGFTNi
Is7eR4eZOqO3X99ljJKMLoc57rsecwqQ9BKok0/k580itIcmSB+mEjYxmSHiUEKi
4Xm8BCTAJdZkKTSWTDvi+he+laT2PfVSA4AIFK4lmKEDgV3uxqNVM7UH0AJjMl4k
8YM2NU+TlWORJ/1HVugGrmZH2XzxKCBuUStCJV2bgr3QAmj8QmjJVJTYa7ot/lyJ
AcCAi1UnvJ6bYLlBm7Sp449dFA+KRUj8CNg6a5F6obFJk2pKswyGBQRgLZRQ8oA0
JFZnmjA8TfGIFJ1KNXvC6+fHyjqx+5Qe9uE8VUn9pPdBAqJlcIqBVMfHHVzZlbH+
oAT0RfmnaJdVa9yMvMusoHBDncPygllj9V4cNddAdCGbY8Z8usPa6YqSbpeOtyJZ
DfrFgejif6usUyhqFTB42xsSXW/A+I1DuoOl9coceZABP64UqWTcWPznEUBzC8sM
z/UDMGGj75qFpZFYBHsb7fchBL4dizCt3/m6D3vLM9SY+NJb94eQW8GQsMq0ccRC
iP5bMcVoP2oQgljB/OIb3HWeBRcscOY20IbipWocARJIv/5LBM18ja+8Nf3GHjCS
IQpsSLLK+7KkQBwENSSmJpZgSBHU79yld+fPh+rPsrDhtT1UaEF9w4NNNmJJEVmo
nqU/wiXS+1/Xn6iEz+f9ABEBAAHCwZcEKAEIAEEWIQRXqd7tTG2WKpI7tpGBbz7Z
mSGDXgUCWb/QTSMdA1l1YmlLZXkgcmVwdXJwb3NlZCBhcyB0ZXN0aW5nIGtleQAK
CRCBbz7ZmSGDXkzlD/0c/QpxgWIHnspuifCTMgkMbAF/IWvNRpNz5/Bb8asrwx5n
unqMI01MX/YgTB1UJBh05zptkA9xHbOgw0ULWNSYChUNZwsnJy0E1kceXdyQRzrS
PBKAUg7J+91+EJiG6Osd8WjAT20JtSGUJgLaZ7Q6iUQFGZSIygxKggIcCK9VYLD1
Rb14sc2AwiNvS8iI0zasqLpwFlXksR5H6Bf2NxYA/1tQ4q/2mZo9RGUY2bETuI/Y
JK0I8WxD5GMvzt9MTSVZy2wBbLAjBCqffMp9ih2nWip5lPsiejYjQtGNkeCkwpeI
i89aNRnj1UuQc/I+ialyOrOggFmXdzo+mR+aArl8TpVbu+GLB6oivu/J0HMDaLtq
QLFMJ5/r5VQkaC88F7vyNaxEFQxSI1BVmshicex1WOEFomQqBdFpdDdM/9Y2alKZ
0KfV3DJgZaPIi78muim02AmRN7c1UPIPURm9+/4TWvpUhnAl7jRuiFpMzsJfaeJx
vU9zc3o11+eYTBQWs1qaJ3Y3ahI615+vKimgIzziqvqyrvr2SrEKkfAs0atlAR9N
h12yOVNkmT4lbFmgibtmrEmh1iC0kYpORACBZTVQobEPaAbkD3N37oVVw7pKG3aP
Neubi1OSIg0LhKBvTq6b3xWAkOUF1ee+Rdy3HZFB//6Q+HA2KsLYNlnBek6bycLD
sgQYAQgAJhYhBFep3u1MbZYqkju2kYFvPtmZIYNeBQJZgy7RAhsCBQkB4TOAAkAJ
EIFvPtmZIYNewXQgBBkBCAAdFiEEIV0JteFb1u1mnBDt3LRvEEwCrlkFAlmDLtEA
CgkQ3LRvEEwCrlkg7Q/5Aft3TEmxS6WKK1OT3nsV9/rbRw9YR1MBPJMp6nLYulIA
RSzfKACDXICiSJxaqk9JQVWIecuAX9ioihEmHGW1uSv7Tw4iZM40wkCYRb9/q31B
j9jHUaOKatcUNx8FwTy6T4TEyIdi+B8EKleK6ll9WsHChmXtoXd7TQrFmyvdrrrH
8RHdVcC8/kXq4gmwL9BoXvRRLmgu0LOB+nmGTnPdax/kMgqtbanBNr/4MB6uLRx7
maBdM5BWmN8ZaRHJ0o24Ky+pOS36AxpGf7aVHFlb8vuz7Eqq7yzF1rAyc4ociRYC
bTPQnOp9cKTQEmdLnZWJu4RzVjvh+ZoA6ahoJGSoJfxrHh2aHIiC5fvuexGpuxvj
Gm2/EFw3qVNjyFBZL4Rja3zYaKImDfyA2dgbLF/5Z1I59g/OSFEfMNpEyU4u2QrZ
rJNOcESlqLy3Fqv4LSsKPgrrDHK+VCooDKj0KdGf9viAuVejrYxmonqMu1X6e3AC
rOzMn4hDvagvbuUppbkRTrYo9gQyygH2HJt3UC850ktelB9knzqEvELFmWMcaA1U
ije7/S9sfLifnKrRergB1G06XAGgFN7VrhUUIFb+R0YVSZRjRS2xfmng6l/uWA6t
D6zLXHKDWYDFlz9EGuzFjdtBIkBU0sGF3uUH31Xdee17H1VWEvLPD7JLVtqy40Qi
WA/+Ij8gUwh2rzD6WKe4F47NaKf0k8Pa3n+JA7HDRAqUVKYvViNp73CY/9fCL4yW
SgGwrO5A19NDOiO1evfC1yuThPXKlxNTKkBi8b1thn5I/TJ1uA3fcAQy6y9qIlpR
81oao+lS6nDLdnH5y7fpjgtL00tUJz8JNNa61E8f8wKIrU9WDPGnPxR5BS3rRmX+
h8iVrDy2l7iDCT9aIXJ58kXaafopi+lKASUUZNb1nJfPlnnAwg7dZD+Nap5pIlQP
/sQnHrDSEsMHdW0QLDultkyfolR40VDNt732yQ4Vkb/Ng7o6b/jfytYGqsYC/i4b
tYCPoM6kXNJO4cLcNolC41kzFWn03Igfx9V5z2DlRC+GI6V8kDMt1BMoXqba/1bE
bdW+oP2o4YP/oHHIGo37v0GjG8Jv3NIQLmHaU+A1wmmAaGyv5/zqD2B778Y5AwNd
3grhSrHTqIHj+RYxIcTmP+IMzkIc1J5WIT4BkkGElsTAz2iOKDAPl3xJtINWSkv/
5DZqGyNa5pV5YiO+skziHh0o492IbtLOmOWnQzGS1bsEkfa89DFbltExppN82pfl
+APRTM2iex582Ymfk+r/bP3jNvTlO2wLQFynAceKVgIj0Rm3LNfakgY061tc7aMq
G0ByFDnkrH60xRsjFPo9TavkD9KBU0SzSiAbXnSxdWqg09XOMwRnim9HFgkrBgEE
AdpHDwEBB0AA5FAhgEq+p6ytU6Reqrp55JPRpraML0Hqg4irl7gKVMLBfAQYAQgA
JgIbIBYhBFep3u1MbZYqkju2kYFvPtmZIYNeBQJpa+sSBQkDwq87AAoJEIFvPtmZ
IYNeZJ0P/jhhQHCUir6m1XvL5lXZvIhq6X/+/FBVogrDDEWojOj7G3rwqe9mXAeK
MSbqDKQ12TtkXBP5ORr8uTVxjiTvsubE/Hda02vuFPampLuzRXPModPLmUTQtoq6
J9PKf5HTkNi3zF9s64xZudapypGyUwrGxnbZtpF3cfp0IbUA3cAIrYwPd2YviPUx
Gp3QTXCxRss0HF5cwHY+2RPxFl0+Xbsa0QE7HCDN8xrrDpvIkMtAt+hGaTUFGLjp
X5HOlnm0zhz4pGn5SKfuiAIKXa1X0nytd5j2FHu4qXqtOSZSScfiEYBpD5CCOWnH
deFK+GhAVZu4PfrDbbT6KHw0b8m4h2itMcFiV/IEAdZSOm0Yh+cwgAey1hxgPUz9
X19SsCG59d2OCfD30/Mp/8L4cJEQWn3wx5dqVyloP2CymsrdOEImpQ4Qu0ab2BZy
HNMpogs8IjD2k5OQYppWeiQu88fFw29kFJ3Z4WZsyPb2cbrX5NH9kg2WljpEuaSw
otZNNnZSdZxh51zQA5jv0GVuZHdLMP9xjZG08QkGvatXub5Qo+6n/ZLQMSqVDGzi
6ZLyOKeHpg5HEjqMLCSilEQQP4k5lYUr/iRROthf23/d/9iQ3wxIMgJQIcukgmG2
lua504lw6NquEmo65SjB3e+2kx8/FXw8quDHcQQ3uMSo7aWObnOFwsF8BBgBCAAm
FiEEV6ne7UxtliqSO7aRgW8+2Zkhg14FAmeKb0cCGyAFCQHhM4AACgkQgW8+2Zkh
g17d4Q/+JWIOfKP+w0DCE5teDETSaJELNblGWzzLMWJ9F0Rd20TTGPWFqegEazye
fvY5UK4Cb6lA0HTHBexSYvmka/ECHucOrFf1QwqUuR9NbLgvwKxSu4KEpfm7VD4/
QUILhUfgKQc5JCW99CEX1Yx3m57NuC7Avk0JV4mrOdiFDK8fHOX7N28uXU5XIipW
R7l/blPIvRG5hdR42leBRs9R+2OhL2zyNKOCy5mTvz1G8nAp/cZOcrRJBQiEX3ch
WEzxh5A9yN+3uYb+9oYnHz5GK44CXi+FMDZi1JTEP7SL/NYmQbcwQrDmdWCb5H30
a7EgZ0gqsHdcF/6AA2YELS/+/s8syUXKlxe+PTu8gE4LaUCtVFwHdaEJQxOUgbyj
9FQiBQTjiV/l+HmjMyiUvBXkDMePsxphQBzfc30g8HJ9g2BUFYGel0+GOCyPHXRr
SP6HIZGumRJIzJrAHV2R8HkPUu3r5RGaC4fl2xgh14QER3stERZSUQbI5SDJ9pgS
p6qX1vIn16xjtg5fcfotIiLrQTLJuY/v4inznZWuVN4gqdzHnMbVOZ5E4EL/GDxB
aiLvumZVHiMp46UdcjOSYp3bY4F9F7aWse8wYuY+SxRIHteLl8NLR5LRPlbyY1zI
jkEGgQz3d9V2vZorT98WvlLwPWGhErULtFfHXFbcBremfacGcAjOMwRhQNS8Fgkr
BgEEAdpHDwEBB0ABT65Jq9KK1Gros4xOfUXYKczfJVP0bfjtkI1J+Jek78LBfAQY
AQgAJgIbIBYhBFep3u1MbZYqkju2kYFvPtmZIYNeBQJoa6uWBQkJDApVAAoJEIFv
PtmZIYNe5PIQAJXZ70I4gZy8+4iWRctB2xv/I+XoRw6gem6OgzrlJdw2inV1XPE2
a0i0Tt4gFT7rS/9X314KOokN0dis/atrcMGse6d3I9jK5WUaYDq0lOOfx+ql6nGF
mDirMrIdJHDCHRp2772OLSE6Rt1lSzJ5+EAMI2IIB5Z8muG6ojV7O8wYaWiYCmEG
5To1gM21/CNFJEdOC/sXB/VMhcDZ8B5maI7lwBq6LeawhXh8xKYqmJkFEUaPdbgT
l17lytk57qBtkByK+G6RAnKx5gwePbYbJE9lp0x3pQObZEY8zB5ec7uJiwmKhrd8
RkKW6RxQiT++5zIC3Adzy790hvqoA0cQ1SX6uxb/C/2+RRM5RLL4ZA8Vp08v3oLU
K2NjyUABGBbBUWPSkvU4fzi8iu/oS8Adv55qKLN8yPO7jDSe9lnAIvrIA4iMNNsf
jmx8RDhAS7qDNIe8SDZ8bXAtCuQT/rwVb5X1/erUxipNgzgi0ByjGmqGIkD0q2V0
q3lfjsBYQaaZFAymgOWaCHFw6VGUYi8Se90FzbPnc5fDQuCK8qxgSRsbGsr7IWea
bPHHSnR1MNtOJ3gY0H1noOLnCDc6x+FsKk8LPcnsPzq2yIDzH1KLHhP8ATRaUaHJ
+cBeVBoewZQQ/REh4g72xFVHabtLwcWNFbZ0eMgZJJkiQo+D4OsOu6oUwsF8BBgB
CAAmAhsgFiEEV6ne7UxtliqSO7aRgW8+2Zkhg14FAmaNN+4FCQctlrIACgkQgW8+
2Zkhg149Fg/8DL7CvG3aFPgL4QTi2C1Td5lcF08/iA8Goja97nhiYDpgEdI9UQPy
Thawjurq2rI2o12F9Vaf/MMGblcXWXGemdBGHKE3jwd6iJYvCK7k7oNNKZOAZ6ZP
CI5g5jya9hiZdTGcG627tpWxEUe+k9OJi0AZC13kZk1e3x0niCAlgRXh8/9ho/Hg
TOBikieNUmIOXIYYwfK48hlPrfX3DAbJqwKZYOY5jk245FM3vQ6bWZaoeAF80Uh0
7WJMiGiTZ4CQkcB3J1iuLVfBVzuMs6QGqIQ2Tv49cCRFVQkLmdFslr2KuRkIbBs7
/rPbqlfqpIkXMgbyijAQRBDDmQDKmZnI6l4IdvPG/7o2RH9jQO6Gg2QFZvfjx6lR
G6ob3uaWwChx11i2Pjt8BFICw8OcCTSEoMOIyvkSURxKf9wN/WBKu3S1A0K5u3vu
J/trCNWLD/A5iwO0cBVYcItDDcOaVOfWIM3w/YIbYbyo7tp7eG7SAOz6X0y3MpPj
mpcK+4Xr8WP68TSJRePUFpw4TxzaIPvYeyRceVzDofHy827N4DXTxdUN4Q8vah1X
5qAYVUrx/yaDCYhSWwZiQH0PFSWPFB6VHUxTkVKUQyMvhG0eAdUO2sTMXkmyOk/d
to3bUYjfhnx4m+RlX6ihP8195Gh6h5gE21Gicp7LpVeaGAS12zakVx/CwXwEGAEI
ACYCGyAWIQRXqd7tTG2WKpI7tpGBbz7ZmSGDXgUCZL7f8gUJBV8+sQAKCRCBbz7Z
mSGDXlkMD/0Rdd/IH5BoG2CYKpg/u/kx3f3rhkquA9Ga1Ay6wW5Tzwq2jtEMIA8l
NKp5Va8xYdpbtT4USwO2+J+jEKBYX7UhQjnsLijyqLDh9UYOMyMJ3S+iSqmq9T96
2JKWPXY0mE7v50Zk5b1gvEvTGCu0OWgZThuzws+GooFfEHi7VyHm26NtLK0R/ugO
J0ml0zOXA2wPdsDo7nGqtuwoZms12dAXozs6VBHqXyDEK9eSvBFFsz4SETfH8boA
eo3EGr3V22hUIj/NYwKlZnsbau8aevneyPoEoO7l2aTGllUaevl/JQdOq+zEtSSC
8V0808gDKDOAykRLinbj6QuegbL1lYr2jFHHoN4aHJ5cLoSsEQLZcQjHTwtE6X6T
rUzfhqcTEJ2dYV9baHBUcxJvBftywxFFJPequ2XTY6eGofpP+NOYl0M/pcn2smjv
1gzYMholiSlyEiPXjbKlEtHVyPhJwEbAvQ6QwdPYwzp6A+X6snBVdugk/iU6/iZF
2J7hoMMHNZUsWTFPAtl5+kqKCxz0TemRhXd5y8vRb1nHNwdSfyCjgvSxmM7qL5hD
AGIgsHOT7JDUnIYM29QHVJeSyRKSebZkV5+77YNQ6uBUZXyxaRhEE7WLHvxk7pAL
VAqT/nMLXPLxY4tOojPA7ritY4G7afymBR+fiG/T9+hMGskfZbV5wcLBfAQYAQgA
JgIbIBYhBFep3u1MbZYqkju2kYFvPtmZIYNeBQJi69LoBQkDjDGnAAoJEIFvPtmZ
IYNea/kP/isBfKzPfrUEdMGsnrUnG6OeQQXFBWgqP/uph0+Hx7xIAP/WsauyyRp+
oxDudt55DTk5ji2pprzK1cL6PcQjwfc+/N8MR9cpFI5958bUrzy3r8lREh2x/bP/
rggG2XMY5fyjAU21+0FHyMmLPS7gSR2lRyvg3e/Wp/ZLfK1/XY7CSUayOOICdSBX
GJ77L/Sy0Q7X8XwwElqy3gjKkPdo96fg4REAdgZZZf1XP6zUOXpwhNben1vTaj2I
XY4gWuCdFdFYBVxaRaWhj2hvb4HLRul7jPGv/4UEluBcds0rRsh9ikEDmzKNFqPF
hTyJnGJvJH/aBoAbOO9htFHirFgC9tWcBQ6h8bpaw0sxkhaH6s0VZoexplZoTnzF
9q04SgAfwusDmSJ3wA+QhLMZEOeY33V+GDwOPQOeKaSkTVvcnMXOyD2GQyy3Hp8W
29We07UfY+FMWRKb0dXMshi4rCSv6vUaaScVj2y5rb9JeG/oREQcaqAYSCjB6DqN
DstDoT2PpRqvZaCm3o9+si/xRqgB/IZyd2TKdk7PM6CZCYSogHkBTaYiJCHFurdb
Cl/1eOcOJmGa688QhSp71fvxHOZqp0DlhubnevYOSKXJWf264Pb/EkYHgtF5T2KK
aamwgqVQ5WJ1O9IwUxAN91uOFZDe3OMDDxo6eJOjvDJ2DWkVzTxlwsF8BBgBCAAm
FiEEV6ne7UxtliqSO7aRgW8+2Zkhg14FAmFA1LwCGyAFCQHhM4AACgkQgW8+2Zkh
g14iOA/+Ky60dFmrpRcwBR4CZJ4TPaaNX7fkt9dBwKLunTM0xeaWlUkCtdojV15z
y1H2HAy8SpAk/VSlW8aPwhSrc0uNFeO3/0hax+cApsVPKDNRzEpkkUrdlTR5hJcB
GRCD9NwMRZfzb4XuIy0+S0nlnkonnqQedUo/dqCKqvEZnr2Jx/i9cda2m54tlHmG
7h8+s7Lj74M9th072IbH5nP+Z99KeqvN3WeE05IxeWHRLAVyWhVZ10op/vxY+8lU
SkEiTA6fzNWP5tkOChTORlDg9rd99iI/3Sx+9KlDs4GJD0mtaPGsrnZMLrdbJrEG
f2ccElLn2xJR8H3bmv+myu9sY/yIEzuB+32QAft/gxkyLCL0/jv4spKxgjI7G/xv
v8e1n1skTWXUrGSUBLyc1CiFxQzAb4Sw2OyQcYExjERBLNyWT3TOUDO8INI7Rf9o
lmmafmskPQEEQhKMMgN39ypqP9Uu4qz0DslfqFNUP2syQ9lVrVMxECFe+HmalckC
bxEW5z33L6pNLAFLvYmV/HjvBdSCVUpe03MfLH50qmXyDv9jfExVTEu0V1bYpiTZ
ZgNRba4IZ48BTVsTa5rHaoomVPyU0BaSRYByPb6k2C79pixUjO+Jslb82gcNcVJZ
hqRk48TVCahSQNFgB8VBuiZZyJzAbCqEsEpYLWMDng1OqU6lVYfOMwRhHm+BFgkr
BgEEAdpHDwEBB0AzbT/DFhLuKvxPrEkGWqSly603OelQQyoLprEfsdUrVMLB8wQY
AQgAJgIbAhYhBFep3u1MbZYqkju2kYFvPtmZIYNeBQJoa6uZBQkJLm+QAIEJEIFv
PtmZIYNediAEGRYIAB0WIQTRYaSHB0NN5slvhnLebCNeFFZjmAUCYR5vgQAKCRDe
bCNeFFZjmAyyAP97fJBDo9TA9G4FqeewJLhtu7WuBCaTW8+EwsxYIvVPxQEAyHOQ
Tr0pucTu4qRgNPmE8frVSzoagOS/Gekx16blSQy8PxAAiSWbpPmv6EUN7wQYOx4s
tf0AVb6CD6d16vilFcLnBhT0fL2qonSVYz5hLcdBkXt/cgkG6hOQ6md3wx4MwNNN
Khnj/Ksc5U53bzMkek7UiEmC2EXYkcAJniabqId6cmKPrbScc5eQcQDhGGyO5JKP
YwshwDf/C7WQHjN9JMM6bE3QYBJ7kv9nnxFkhLhZ1s1j/MeRWXae8rznfN1XnsBY
SdS0130ps8EhYIUQQrjdx8GcxegwY1BzBwpPhk+P5+N7mq2xOFtLhNBGHXkwywIg
wFUZKfp1XIFfyGCBfx8K2mupBcMig1bfUVVylW4AsE5j5srZFW7/nzND4nnpNsqS
/z3wyACuN3TCg6rfyaB9RVICJiZ98jw3uB6TrLpoQ8tHDC+/atQa3X2l6QdrxNME
AZSih1geZz2g5SeGkbscru0g/ZJwBkOe/m7HMl5C3ecy4qX5L5A1L7JYO2SpJ4os
K3fzPw+5Q1JJRP/LRtensozPBACZSsq9gQuWJiKqYSykUfNGXC5u4QMzKyVzbv/a
E5W1fBsdt4gTOOsM5eLuAmZevNoHiw/JB5g+gogicFGyiVfRLHP1/m74i4YL7pPB
P++gsIUNP6jWClEvPy/pVYQSGE5ETcxUkc4KAp3beuh0/6EW2kFPG1Dv260W+GSh
uqH1trEWtpazJoLkA30dgLvCwfMEGAEIACYCGwIWIQRXqd7tTG2WKpI7tpGBbz7Z
mSGDXgUCZo038wUJB0/77QCBCRCBbz7ZmSGDXnYgBBkWCAAdFiEE0WGkhwdDTebJ
b4Zy3mwjXhRWY5gFAmEeb4EACgkQ3mwjXhRWY5gMsgD/e3yQQ6PUwPRuBannsCS4
bbu1rgQmk1vPhMLMWCL1T8UBAMhzkE69KbnE7uKkYDT5hPH61Us6GoDkvxnpMdem
5UkM7rkP/2fvHtwJZ25lWqkoXeIvYB44ri7DJCYf2f8EdNfvs6gMCYhgGESel4Za
cm0Gx5EVOcB1TI3F9dSHthYWzw9dNF//2M6jUzu+hz5LbvPLK0D2Lve7iKTV2iDG
sV78wck18PZ6daG+dytkWncVgK2pFsDPG0b6Nd34OKJZNsYxit9MOFhT+5oERews
MVw23Ew285RU4sEoKYZKrPDfuTS9YBGEmess3CEOR7cYWhWlikePo3LE1Bo/ngZe
TqQ+CKmSTC/+kz+y4aF5O/O4GoGxpljGH1SKwdo0XGDMoWPTXPh1G6KwtzpLB5A5
eNSHzjXT8pPYVFwDLs8ivJaYpetbjk7X58aVEEDb13A8mI0u33mXCOqp3BkujLZE
RIqZZUHoGel0w64Fm97hgR/MoGun53gVfzDOA2c1U+pq1FCEi9BcxL3/9P8UAzX0
JvIYSLH2mgi6nY1+WRhi8YAcu72qOAVcpHB/OkQYUgHUFOemOLzRYatTVRrBs6Tk
YZqvfjiCREFMKpLixe1GK2VML3/Nl8xWd4VJ/QiVh/l+sCSS6+SwH5fqcRNISYr0
pYNyA7393CmJ//XJyr+lJJuMjxyqV8pjyEbBvdeHNKml3xi0yviNUWJizUiLppi2
CqvTehIeYlknXJortAdN836CQwWWz38+VtUjXuJ0P/D9LSX08tAMwsHzBBgBCAAm
AhsCFiEEV6ne7UxtliqSO7aRgW8+2Zkhg14FAmS+3/cFCQWBo+wAgQkQgW8+2Zkh
g152IAQZFggAHRYhBNFhpIcHQ03myW+Gct5sI14UVmOYBQJhHm+BAAoJEN5sI14U
VmOYDLIA/3t8kEOj1MD0bgWp57AkuG27ta4EJpNbz4TCzFgi9U/FAQDIc5BOvSm5
xO7ipGA0+YTx+tVLOhqA5L8Z6THXpuVJDDwVD/0Xgs5nFrSUaVN0ALm/af4AXSnT
edxS1bOJyGAkoGinCnLJcaBthpqSQG9OfHsHEIAvUfGPKryabzNLyXbCiUtfMdW8
33MTTM/mGePOMum0jkGsT8ijXPx4dL/1ve6zOrY/ysv1O9aBDUbYUW/qCZKmNLB4
zDaOB6hAL15S5chbRSjbWLP1rAIsVbDWHPS6oS9qFn2MHl7vwLRI4OFYAsGVM8jR
oDJLD+0ff8+xvc77RwhmQy5/a+jYQ1JIwmdQ+cEF6AORCUljBmICbUu2eGsJcq2b
BXoFDzHLOEfMaZursb+Flwa/t5SgOJ/8BR7D0AibpD3AtJ3PTMApS2E7PqJK4JTC
Ht7FS/5LiTkO8ze22Vnk9hx6wH6vqiv/Z2wm34kvcLwQUhWbVeifhV7nD3kJOFj4
SU0x2LpZFYo590Qbn+n6P1Vv1bX9di4hDcTqWw/xDkHtDBiC6PnkKdK4FtPltGbf
T/qeoXnl4/shQnFseMiJlANP0XNAB7/OtbrNLrr93howHGZqXkPJjusmt+SD1/bM
/8v76XHibSPG2TqltXe88qEiBa3pUKZeWQblJmcgDyYjyOip+0DzJ+2o6aUqRZBb
sD+AaivU1iO6yPI1Yjrjm0Jjo1JNY8Vb6RreOYsz9xXODI9FLzsGNrwkLqkCCc05
PDJmdJrBSmK6mgc9GcLB8wQYAQgAJgIbAhYhBFep3u1MbZYqkju2kYFvPtmZIYNe
BQJi69LrBQkDrpbiAIEJEIFvPtmZIYNediAEGRYIAB0WIQTRYaSHB0NN5slvhnLe
bCNeFFZjmAUCYR5vgQAKCRDebCNeFFZjmAyyAP97fJBDo9TA9G4FqeewJLhtu7Wu
BCaTW8+EwsxYIvVPxQEAyHOQTr0pucTu4qRgNPmE8frVSzoagOS/Gekx16blSQw9
2A/7BosOO7mSJo379gcAHRaqDXQfDi20xVtw9dkX/UV9bRrQxW7MInb9//AvBJJj
orSNFokKTGFgI3sukYCplJplzZqxyXnoYH6IjcpRGbG91RFW4HuLmn6wmma7NGVV
mJh9FOosKlcyhCne5uppyuD+YHkhXkjG2V8lNq9J+DdcAR922fGRyzD7pyUQ+nVd
vBhFEwcB7wPWPfrm6CBYqygcRsgwrkXk6tOZbK3Ls3SNhILTSpPhc95L8nXFaGA1
NVYtGMYkHDeCdJT0gyA1oalfRkTRKPWg5Y3aRYO6oiGdXkXyfOKV3yplgEJMO53E
PP4TXJgu5iNtnQxdv2HJPAypUCkgj7yrsqiDBm+2+Jxtx3Xvj4cPaN0dsOFH9FzL
2UIfngZavKt8EkWMKnjVVw5VaViS6ZCWsQMvtKfNLEp+3+xBHZCUKm5olkgrto7b
D/eRRYDNXMjKgeOdg0YGRaACjUqq+JEHnT3fMrnFF5Tm/jmzfq7BRdfCKh09aeds
I3LhrWUoMZaNCfflDNkYOjsvMDG2fxLZxoSm1gz2nVkYRqhuZzIyFSsJQe/gnAGU
Ejuo71NHJ/hyt/BF3rzTTj3qY78dqTzBSnncpRQoJmfDZbFYlqR6/KQm7l4lBsyw
9EV5vHEJLWjtNxqsOMlnThPLrlN7vAKP1iqr7JKGRsEyq57CwfMEGAEIACYWIQRX
qd7tTG2WKpI7tpGBbz7ZmSGDXgUCYR5vgQIbAgUJAeEzgACBCRCBbz7ZmSGDXnYg
BBkWCAAdFiEE0WGkhwdDTebJb4Zy3mwjXhRWY5gFAmEeb4EACgkQ3mwjXhRWY5gM
sgD/e3yQQ6PUwPRuBannsCS4bbu1rgQmk1vPhMLMWCL1T8UBAMhzkE69KbnE7uKk
YDT5hPH61Us6GoDkvxnpMdem5UkMUBYQAIUpdWJ6FFK4xYhfpLKyBOTkK/0NhphA
xuBMx7oiCoSIsHV2+xZgzquPW/GcuCGnlV81Hke1kp5flt8U3M/K7XL5VrwM6FT0
TTHk9hSQXY2o6r4LyzMRIOQ96LaOcvex0CdY6nfcGJ68QZmj5HhIj8YIKO0ZFo1C
YmMs4A4tk3rahb9F3FUqddDGxlJsBpMmVPx38T49Nr2IAHDZftL5zV/TG1HEEdt3
iJCy/xANDhPLkNqD/5iOn7DH8fmNkzYSt+IGhs9mLuBMuDskS655hzUVM1D4ll+l
QdK/RoVkBfSzDHSRhzXX9w4exRlbbatBuC9b/Y/ZaXyXZ0HfnpyNz/x+DNHFxkCT
4csGRaz/fVHFaWwqsZQvTj5gzDY88bqyAqZ9Mvo9EV8MbOp8VSsuOkNRiL93uc3F
hbkx86wfqxAho93+PL+JKJ3XXgwcWqRJd0UAOz5lxktOFL7Gn9U4Jdswl93zjXOH
HweYn0sskqUj5LbbyEum3vHAgWAJhizyYwOUn4Dn4QAR07Wx5MzbVRDAgAftDRuB
2eENZdYhsk2ktssBRnaSVE7ITc9eMQOlgZwDV9CgA82orsoKjb1mw+1DqwNoHdcr
pXfO1SlCPNfCnnhYhavYN/cGvTD2FWBqRtTaPfn+kDPev3dQjr9POoa4qMm++mrH
Ivqz9O/kuhLozjMEZ4prAhYJKwYBBAHaRw8BAQdAP4s4v3H8uqQUSmz7q3heOdFA
+cYQ/81ubnWLzvvNcbrCwfMEGAEIACYCGwIWIQRXqd7tTG2WKpI7tpGBbz7ZmSGD
XgUCaWvrAgUJA8KzgACBCRCBbz7ZmSGDXnYgBBkWCAAdFiEE6qCRKOFVggmTR+XT
yB/cu+A/kt8FAmeKawIACgkQyB/cu+A/kt+WlAEA+d9zsDP7LazUoJKZfd5uskVM
UYeQuE9JzBZG8x4/hsUA/ipmC8hZKMBI+aUMx2rM+rMiroBLONVb0cno8BhFRNMF
0hwQAI0Tynh3siD10qcCE5Vir/a5IA69UYEwQchD8QXDsVotVdjNJXZy16Av8zzS
g55//Y+aupaaAjquMh36W2aoKxuqOOrlx9sgHQrGRES4jtFhdxfpdphvyH8Zptv/
g5vRs8OEh4em4t5MTrRC1DzI90hvmWg/xDlgkr57xko6WVXqCmXgfZPSHJCzpzbZ
yCt8EKQdJmAgyHl6NiMDne2THHZ9ZwsVigDqV3WBTyjM0cWCQHVcc2uMGis1GQO+
PVbBojyQL5RYHmnz97fVgGV7RCas+WGgbMpwB21Qy3mdKNiYysI8wYvZDP4/KjOx
jS9Zp2zZ9DxN2waE0xwTWRK81W2smLMhYiK3ms2ZFNSFhdy4IauEr63nQmFSrzXf
whPNEaKsdnFtEmOxhe4T+sean18w/wXlRIfF/RSa2nrm1b/GTXVverlTdwI4MQOo
GqhKDMu87U5pLYEFgx3TPKUTt+Fj2oJEF3bT7xBVrEv7j12qXcadRPAotCkVm9mo
6MNgTMBs5necP66PBHATzQRFIGREGek7yPFn6HzcSAS7UzOR8UhWOBLOTWocmBTQ
ytT3w+sEEOlZGTjmGSeVa4etdx04per9UU/qcGIlE4hw88PXjrAl7tjNXrzRr925
Y0X22oBFtqXOYx+/tjhz4i6VeJyiF4HmI/hyRPXn5Oyq3BIPwsHzBBgBCAAmFiEE
V6ne7UxtliqSO7aRgW8+2Zkhg14FAmeKawICGwIFCQHhM4AAgQkQgW8+2Zkhg152
IAQZFggAHRYhBOqgkSjhVYIJk0fl08gf3LvgP5LfBQJnimsCAAoJEMgf3LvgP5Lf
lpQBAPnfc7Az+y2s1KCSmX3ebrJFTFGHkLhPScwWRvMeP4bFAP4qZgvIWSjASPml
DMdqzPqzIq6ASzjVW9HJ6PAYRUTTBYpWD/4kdmdaISrGZ5PQfxsr5wSbqc+N1EH7
tgnLLrBuXUNi91C3ivbnKo+WmDbR9ZY0yMu5yh45RAlEM0sWGivJiVkFj+GBuHYK
ozq+dz3lGbeP3G+eWXaPliUZEIaxozpgsIZP9AKmbp0OIfGXucPq2W4AsBwNl0z4
KM/gszvXSRWsQaF95SeMrJh93LUSwT+0IWmq6cwhzLjK9S7chSqYQJdv5E5WLIJW
kSCkMByeEV7Mkh63KcKISfI2S9p7AkGt7uUj0qHT41nPg/ThW75tOnUnUK7rODgp
volIqINJqRIyIb5iqXq7HlwiGRJwnGeniKhYGdInXIOB9SIiJfh7iQOaCv68I47a
jOP0nKHZTBgP3t/oJu5OzNjweoH8MPj4PtyDLDi8tgmtXNxKCyrtMzOd812dXozM
9tVYrSztCxelNHud+hXxG9mwu1IsPyVQmsj3JdVcsu8blW6VEpM0GeYaMHsUmYXJ
ScyCjPJy4EE5aw2mi8ZABjkPUeAeCp005JZu5jdeONPpHp8gWYRLIcsuO3A/afVv
7LHM+VpM8ElGtK1uEk3rd8gl9NBuyVauzvqOUHpuliG+vkAtozK1jGRHZp8uQGZA
qv9Dll0LCChRtw0zURtdrLGInLDoMfVHT8GB/QaqDRKCcEvpAKaD+Q9tc1mQcUNl
rHmA5TCyAY/SQM4zBGFA1JcWCSsGAQQB2kcPAQEHQIozrikNL4BDP8jRLGByv45Y
9cCjhwNukBmtOtYquMNhwsHzBBgBCAAmAhsCFiEEV6ne7UxtliqSO7aRgW8+2Zkh
g14FAmhrq5wFCQkMCnoAgQkQgW8+2Zkhg152IAQZFggAHRYhBKrtr8FmOMW7UEi+
8g9H5hSTqbjlBQJhQNSXAAoJEA9H5hSTqbjlD1UBAInCr6aKcRS2yMjZl6p76Nki
ZdXYY1I2B6YtSiS/Y+XcAQCGdZxlKAIj8QUHh+M4Lml9vL/Ud3+Goa2mgcKRedOF
CCyID/98NqB40DvVDRFWEspn9KJamhcpmbecrHM4gjrFKX4qNfGjQO/Ee4HoIVdn
BOGqMkyuTR2JpO62Vgou8PwoVkvpb+/AivlLNf2eCBUqV3omAKmb75rUh6dkFyu3
xLK41UikDV0TuKKvNBHNV/qk08/6FvYa7DyQJ/q6JEdxHYXG1TrXGLV/H2DODIvj
9DTKw8c6NOeEGg7GwQuljIxtfbz5mKnw03pKFv2kDpljGX3ZNkP5C9mTD1WuobsH
4NkesabpGT+4Z0SkLxwBcyMVR9A1aOqcZr70buUMzzK+Hz/iv0Wm4eOEP/KsdhkQ
9qGfoFqZAoRYxyZfPXHcISFAlCLGqjBOyFOdVTtFI3bWkH0y06PodgcqtHl7jqq1
eatLEMBcyAs3E4jyJUEtBy44+rCLcJJppXYPqRI0iH6R/Q6t4vU+KvEFWt35IH1H
8AsWDkHwu1xw+lmP2Ql8Q3v5xyg4IINHcirdmLOv7/ywDGkrEUiSDl5Pkivo91Rh
RDFROtJa8JzWwqqE5C6+0U9OWfTnlLilqY3ZZ3aKbNv+y3BYHTSKWbTICDNXDshx
uWj4z9F55FlAYIQkph7M/starC+dQdIm4R3NMsssA+6WgbvxqMc1znVZS6NFO6yb
npYLfynKkDcgGlkpcg/kzBZQ226sq3WinKzTxMcW+QSAH2GY3cLB8wQYAQgAJgIb
AhYhBFep3u1MbZYqkju2kYFvPtmZIYNeBQJmjTf3BQkHLZbXAIEJEIFvPtmZIYNe
diAEGRYIAB0WIQSq7a/BZjjFu1BIvvIPR+YUk6m45QUCYUDUlwAKCRAPR+YUk6m4
5Q9VAQCJwq+minEUtsjI2Zeqe+jZImXV2GNSNgemLUokv2Pl3AEAhnWcZSgCI/EF
B4fjOC5pfby/1Hd/hqGtpoHCkXnThQj4AQ/9EA0Nk0cb0XPXK2ZHVLbq3n60x6OL
z2W2LeQQ/+qspUV5Ao1O5mItDIRVdhmZ3XxPWjV2FUu0tw8qPxOxAFvvdvK6r0N5
Eb6xvuRSCOBN/1Q0S91Dz5dMgW6IM39uB3od8DXL0IAYDPM+/0RxR1x/O7gDeNVq
74j2/eGGQdMEAhiiwgGDqC4DSiX9YTmNvATHx+UnfOgCunJCHiY80DDN/FCyp/eX
FLtSZ58G4ck/8IhJICB5yjsIMY1SzI+GyXUTAPnNHfU9OciGsrKtWCEdwBCUfbOk
mq5rCczS1GCmRn0wRo1ilK3UcuEcfkLteFmz7iO3DmdX6K5GYpI4jCxvrgMvsnc5
f+hbywazcSrgNBkyo/pv6t5evEnu9+4VOiLTbt0Iq/9qyh+NLo6sjGHvxnfa9/G4
1ci4BZ2d6bX7MaVmVdfyekX1nlyt8xayrsWkBWFXmlh9Ps8dC8izwGirHYi/JG1o
mDdOhRgEWkJVRkwx9umZ2oLf/K0OyqRdYt7pz5iGsADrdcWhtyzlToDaci5HoMrs
mVvOokxPTLYLc9K0Yy7tLfxXkkd7bvjv7RU3R00S2lp9vcBRlgF1Z4z9N47R1xO5
fDzgfYGZK7t+t0E+c7/k/Cd+lEXiZ5h/wUYrALAO15GVHC9RXZPzfXs66UEFSNGI
xbBt9+FE7nVaCKHCwfMEGAEIACYCGwIWIQRXqd7tTG2WKpI7tpGBbz7ZmSGDXgUC
ZL7f7QUJBV8+1gCBCRCBbz7ZmSGDXnYgBBkWCAAdFiEEqu2vwWY4xbtQSL7yD0fm
FJOpuOUFAmFA1JcACgkQD0fmFJOpuOUPVQEAicKvpopxFLbIyNmXqnvo2SJl1dhj
UjYHpi1KJL9j5dwBAIZ1nGUoAiPxBQeH4zguaX28v9R3f4ahraaBwpF504UIqYQP
/j3VcNe4jWd40zqWe567G8JfjZmWGYEPXDZoHrhOTQbQCS+h07n5x2QK4AmnOj8j
X1i9UZBQiKXvyIblUoQMA4SmbTzb1TRAO/oDXq4tdunZgo/5C6PN4CGDjZdsGVw/
v22/xubRXWGfkFkS6/EwtpALXpV2ABxIpFmjK+xlze1l3PKVT3tCHbu0X9Nwgmkh
UGSiP60f1C2eJRZUIFRhWsC5w9zyxKbujfCCXpTycbrLd2a0r0gs1n2KL4H8xX3I
hV62lbNej3Kki4kyatmhKyHK7U4648P74wGFsb8mk6tbgrnzmcBWVTjJ8wpmkhZc
Zog2h67pWL67nsCcGcDXgJTUaHmQYM2GzgX+ChIBphxrieA70BSZm4cKB8HoJPFU
EH4UfMs2PMq2BWSJjWXwnaJgDSmpVCJfHeh2HdJTscZ6YWL5vMgnIgSicny4ZNHL
tCj9xKN3e1joPXlE6c6Rv6b66MBQD0nd+Q8iopW38CMN5mZUPsb7tmf3MVbhlVml
df1Zyjl2N9wcqS76lC1d3VwleZu5c11THnQFvTTDN442WK30xyeaWvIWVHRgXZpu
EF+Bz59LKNJRvhxSpLGVIegSOTqSmd26GdpEenHMd5vV02xZJCr7Hbt14TVbZcdR
75RHBORPL7I3Q5mAE4OI/BfMrTBAB7j4v5LKCRz3hcrrwsHzBBgBCAAmAhsCFiEE
V6ne7UxtliqSO7aRgW8+2Zkhg14FAmLr0u4FCQOMMcwAgQkQgW8+2Zkhg152IAQZ
FggAHRYhBKrtr8FmOMW7UEi+8g9H5hSTqbjlBQJhQNSXAAoJEA9H5hSTqbjlD1UB
AInCr6aKcRS2yMjZl6p76NkiZdXYY1I2B6YtSiS/Y+XcAQCGdZxlKAIj8QUHh+M4
Lml9vL/Ud3+Goa2mgcKRedOFCMrGD/9F9g0o/j0qAYf4qFPKdVpCHr8znUUGNavM
L+jM6XLto/fZ7MZlQYM1Nd85y0gYklUAFdXRYpEskTNySKFYEJAucnZebhHLD4Np
XY3RZuJgmcB887ARnnbhATcwHupWen8KYgfot9FvFQ1CvK2Q1Rhr/Gg4b49LazxK
BmFznceHOenKSx4ync5CKEoPfisfSf6190hC1CtGROYFVxRr04DW5pjMniTx/mDb
QOjkjiwEkUBInuPyLzx98nNWD8EuQz+SVlx0coueQnLtCQCrT4fxP6EpYDhfNhtD
D/lEsCYG6VM96I50hxggeqfRS4IJHCpXZPvyBDhtX2fc7FFyL4kmlnfYjIySf2RR
jvp3DWbiW2Wdq4Mw+3Ao0T3FuAoKYF8qnnvjZExK4HYpLbHOcYuaIJpxsJadeBl+
aIj/eTy8U/DeK0kZGs3JkogXAyjHQO3ovmFwVFfi0MEghw4IMeKbeRJ1PkSNL3Py
wiI0OOwAFUvCLch/9bO+fQ57gmSTPhHwxGGojbZUbhzw5w40SLHnVWnMLLB7QTwh
Y48VUt4wZpkWHx+8QPQWDj78KSg4hE3GFghYH5uZ9v46ivsMJ7nk/khLFzd9wNwN
nEC1ICDz6t6w2+E4kkGamUkPyjip1PT+qK0HEAqa2kKbIQ/YGYMfRuQyDlqcMCmn
o+n0TZRoOsLB8wQYAQgAJhYhBFep3u1MbZYqkju2kYFvPtmZIYNeBQJhQNSXAhsC
BQkB4TOAAIEJEIFvPtmZIYNediAEGRYIAB0WIQSq7a/BZjjFu1BIvvIPR+YUk6m4
5QUCYUDUlwAKCRAPR+YUk6m45Q9VAQCJwq+minEUtsjI2Zeqe+jZImXV2GNSNgem
LUokv2Pl3AEAhnWcZSgCI/EFB4fjOC5pfby/1Hd/hqGtpoHCkXnThQgDZQ/7BwNT
NdEz9HfbS2ERnYkDTBkNSyjGDqDkDp6MdmxADPbz2EIWuppB+pSqwmAikAc6bo8H
pXO2p9huCW5Iwg3a5K77QYr8Uw3MgzNLTpXjnHHTR3DLMMzJGknHgzWqYdlLxuXt
shyw/g5qtU5iOkyuQyZWu+C2uOoRC0SQEyXZPK/AWGeYYrg8GGWIn9p99UD8jPqD
jCxBJCXQ0zgIUaHK5+jVwitsdnbhgbJ7zymi5/g3OcvboUp3UNhzXF6vY2+A8/9H
gJYRn/Qzwuc5Q5N2kwi0Dnz4pjjmURhOJA1/PckPbD6SSfzlQL5VkMSZlr4XdQhU
VnMFYD1PBwVk1e4ypGZdjBE8K9/+bzigN9CwiXTP5cfGbXybABfgIeD6B7h5pXl5
vd5Z5vo+bYAcktj1QQ40OaBO7oWHW5sM/edkj0sIcr5kFTUUaUmrpPgFEx9p0jz0
fte+7XhBWb7jtQKnItXeJZ9+YJDqIuTg/DfeiNVsI63zBKEw57jJ4suaWboOkiKW
o1KQ7T70Y4azXtSTDvWY/H9rI7SI2ZpBxKmtiASftwQgnekQPmV8Uld3yud8VrEA
qSY5Q7Ht0K6ECjLZ5d6HDK8htOcNivmfgsWUZzjJl+/B1zrm4kWF6kUM+qr/nwo1
+ej8DHPYqxI/AqD75dBp7kTg0JZvCB0b+OXZUFrOMwRnimsoFgkrBgEEAdpHDwEB
B0CPA/FbLUXfqFs8wtz775qjMSDAZp/cvwNDsRZroZEHQMLBfAQYAQgAJgIbIBYh
BFep3u1MbZYqkju2kYFvPtmZIYNeBQJpa+sMBQkDwrNaAAoJEIFvPtmZIYNeYq0P
/iDaiG6i+Yy5UBTnMG5tWln0ZAPfhrInzP9ONomk++QI3iykI0cWu3MWLQXOu9be
qrs1fh5ebssRpU44oTrE1AOphYwv0jYXIYrpl++//z/iwAVa5jW+lRVBq+8LoiZB
4Uw5tNYL4TjNHve+CRLE3z8x7K7NGXnDJxnXfg1SfwI5ZdFC/xNYs+Q++X5jirmt
iW64Dk6sk/twsOWXx+HYa1/xgqTKdG+er1vMySYGgcLX1iVRFZES5jI+sh6xIBgC
cV/pUbWWY4otmzw94BAbuCoXGTgL5RibF8D+adzDs1gRlup5/rEB1/Zzb8Nsu/ps
RnJhnNGzu6Xi9pFWmIYnOiNwyshnKIau63/eWwnBiGp5tDh8voSMuJqF/8xSTFyQ
ZxG5kVCWQLHBa3C8FLtzxqQAGmV8qSyMQfqiD9QXNHCqbykp12zxRys7vhLhbun6
g70gIhoe4r/VVK/yljY6ZtL8c3Mcgbu+apei5SK8wU/WOvTMzBrUn34bpIFeWYDL
txrMVC03Akguoy6rHU7eARx9HTGr2Q7faqJnq/hIYYGm1LRvObMeEsvm+mrXtzlN
w3s8HRSPww+Y0bF1JE9Kt0sNB+IIEeYkN7nzRrKolmfIsABfu6rk2QZR9cStmY0B
M4irDykov23PJgGS5fBGINp1tyRCA8lr+QwStGsFOu4VwsF8BBgBCAAmFiEEV6ne
7UxtliqSO7aRgW8+2Zkhg14FAmeKaygCGyAFCQHhM4AACgkQgW8+2Zkhg1455hAA
n/l67F4FDaTwbGb8LPoxK16A3SglefeXqrVBbBig9YNal2LacLdj52KXfJqSswY1
Y511iTIuqztKj3+L2yN1A7s2MeenE8MiKjHRet5PdAaUDVV4hRzVf6aDAw2Ux5uP
CEIXIc7uskaed7xJAXt52/ZG2RWoCP/+OVZI8GrKKDHSW1IFe6YOF/zk/5/mCOBP
F54zWLni8M9WPeKJu64L4Jgkjipelo4mG2w/Y+0yJEgwDBfrsIfgFCv4nW+nQUbS
DCyznfY7Otm5sG12nU7xlxFxUHYY6msc1X4lHfvVMmKl2fqz+3Wd7imDHhxSlVGr
WwOJ5zG7RQ9FJE+JVeZphKAgqt8LJxLhuYSW55tDZc4+TFmfMc6MkcLHp9Zu8rB+
fFH12d8S3e+iKBvogWVYpRxWTsfbyP0lFYp98+eqUXWkIzD/bqSpbzFKkp5GcJxH
7IzwXFAT7GDNOTktusIKyU9yaH/gWIgFdXoP6UnyiADbr8fc6btV9nEc3Esp5jLd
8X3pSgvVB1BTAbORdpnspGWIpSs5244SLYDCt6Dm6zTiOuiPgV+k8WJMclBO4Bx7
df3hG72fXgjUOwLfdd8EMBM07b2K6NRyF4OSvLVlak5gvaPq9MznRbG6dQfNO0zB
vgNBeec+FEPmg68GJoAebxPe25ojlR8u3wDAZZ1vLmnOMwRnim8wFgkrBgEEAdpH
DwEBB0CW0G+m41DhvTgUeS53g6qCrb0PBm9X+71gSnrr6OHfpcLB8wQYAQgAJgIb
AhYhBFep3u1MbZYqkju2kYFvPtmZIYNeBQJpa+sQBQkDwq9SAIEJEIFvPtmZIYNe
diAEGRYIAB0WIQQDMoClmhxStgb91Al9uB/BdxQSWQUCZ4pvMAAKCRB9uB/BdxQS
WeaQAP42AbZey5Ke57hwUZ2VN7tyC1fPJNW/dFBSPw9C4sA0kQD+KIcqL0wQv8w3
mot10sK379RATQM4ZdUMKhPJaXD/3grKOQ/+IEXgYNPxVtxuvSWoHORfc55csRA8
qlMCxruzMgzUh+y1wbqCrCQVSAHcCO0gFDr1ruMYvk2ECyKdkvmdZJqIwsFPElTJ
CNlKf6u9FZYRWRFMlgWpVpZ+C2nWKyFLcy+F7yjr/4IvEDhItVzE79kGFwfrfEyD
+R1VUoBqKwYXeDS49yMFc7cBdxYlJE7typyLHOVoQ7ghkG7JoZHWznfM5DgY4k8t
kPk4TkpKngFSEgivjs2VNJ46j1hBUivnDWwtEKYN6Yvlu8K35f7iNrSlY12PGjrW
memcDan3ygK1PON9icNQDoe+kIgXz6eHgniXpJMZ0GKKnbPlCZ27BjxBHpKFhh6Q
gEMqLOnAW2QI9ZpQkE0kmZ/DNsMcysxzyqLVTDXASeefXnyALCO+gMvy/qOY1VpX
KFht7ef9jT91HaMebQCCXrWpW6VofWsxSCXkt2RSZZLbQOovN0/3pFCVJtTy1nbN
hEtK/CIlWczpzscWjJ3ao+SaTsoh4WQgtNL8EtQanwphePC3cM/vwboA+Kr6r53t
gn4+Ra7sQdQOfSwwhYra5/HQP4sdPMRUXachoJ/ZXLeOAQeSs/TFBpWcY26U0uYC
q/09ciY31rLyRVPH9vDQNTByTxjHxgRBd6rGUqdtZjdMicXiI6wSCPS3lN3ZENRy
QIpn+pqB8aBYx3TCwfMEGAEIACYWIQRXqd7tTG2WKpI7tpGBbz7ZmSGDXgUCZ4pv
MAIbAgUJAeEzgACBCRCBbz7ZmSGDXnYgBBkWCAAdFiEEAzKApZocUrYG/dQJfbgf
wXcUElkFAmeKbzAACgkQfbgfwXcUElnmkAD+NgG2XsuSnue4cFGdlTe7cgtXzyTV
v3RQUj8PQuLANJEA/iiHKi9MEL/MN5qLddLCt+/UQE0DOGXVDCoTyWlw/94KHwsP
/iCM4FRg2FO1+2bH5gxlt1pCWeNj+S7laAjQjFXj5MZk9ne0DgsILcKUnc0ZU5DH
TnRXAzJyU7UNWSfBsRizjeCmR1s/Yqvi8MCcWC2HahMrziOMhLNB4o2ka7+qJVIq
JLJAreNn9w/jQc4+cxEGL5nSmUhl5jMEEnnXuBcpA1+KsQyEt9YyzoqJwlWxKqNz
Lu1ads751ZrXT5JXIkY1qmghg3WAgbNV/ETxy2e/YYlT17mHA3hu/pKdQe8AG4UC
VvPOpmjfXJaCa8F07otyPrKsmNO0ie6D8ybGQfRoGPCaPOiiQITr9LFwZHuOsWsP
RAqNbFynCu5WJfwf1WZAR0pEiMtCdk7ZoTTFU1XNdEMcfFu5MDI8WZI9GbeSn76B
xYDvhbr5cQLv46DbabqELNyQtS1Gzquo7SGM1penHisJl5Lb4YgCgkxDsKcpBKlk
idyiIEI/vfXeVSWD30+s0jnonCC3k4+Pn6ojau+7UfSopNvkM8JIKU728zDgrK9q
WGQwGO1DqbWtWakMrbuxIO6YA+O3NQIWJXDzNfjAUfvkz8OQ+gFpdgkl+3fAyFC5
pryLpYbvJeWbHqcPWdtHa5Nhdg+z7e8IQGr9NDB1KAKyOeJOqkMdfi6FOeymuKXz
nmI+t3vAMpv8W75O4B/XMicOb9Agnu6cMqV0fa0IbmIrzjMEYR5vrRYJKwYBBAHa
Rw8BAQdA5cR8ddDABX3RILr+wHrSPqGLUV7diebNdDSWqXkXz73CwXwEGAEIACYC
GyAWIQRXqd7tTG2WKpI7tpGBbz7ZmSGDXgUCaGurnwUJCS5vZAAKCRCBbz7ZmSGD
XtPTEACRafqIomsEOFR13qvyCxAIPXhUj4lGe1YKsLEtbTu5om1PTYxPhjSsgPcK
DqAFYAvC/cP6GAdZNK5BDyNXk6StyrYU+k2u5tMJlqGsMNijd/rDdsZ/CAbfwLLp
C9/086x59p8UgQ6XzerFTFuciqNYPbMRkcJDQ4F2iB9dJSl1/B7YNNIPbRX2HACh
Pv9TSUoL5OdMU+4BQCp5lrKULBuc8pjQwRttCpZlGJgolSLL59Azh8heaurInVug
eoqjszJeXL9YNTT4keAqZmQyhczZzUA9P3urLbqs5sU7+o+MYIDD3fBNDcr+MqPn
1wwC51AcDNN8CIQdrP7jjgy69YtT6gp8W6spikN7aYAlW2Q3/cm2WQh9hW1ct0Lo
4p0Kkc0QKrxhvLLhubtOANTz4xJ/zdlBCXpf1vqjMUOUnIf8khBdzmp5sinHo6M1
P0TSiM1HdXcIqGgy5ShuULbHHhnOE90xygMqVv1Hyre7igycxcCprjmLNfroSMxU
d85NoEfdhWIl1LWgvJ0ba5z0PJXZ2vFx+VazXlXHPI+ILCcWkRyJym8q4oXc3Bip
eDzhcyV/ZTVol53dQ5Wp/Nfo5zXjoB3Gyh1tCx7JjCUp/MZRCfMSXEfTKhQF+aFh
Cskzb4/Xikw27QoC8Cr7Ys6hq3UA69nmEtxok26FXIRkFuVskMLBfAQYAQgAJgIb
IBYhBFep3u1MbZYqkju2kYFvPtmZIYNeBQJmjTf6BQkHT/vBAAoJEIFvPtmZIYNe
q7AP/3q2lnGatxKEf8R9vbMPifB1PZHOPzGTY37dTcQQ62bjXsHhxQVHUBENZhOQ
wYqUPBFVaZRZM35sSlnuY7Vf7zoNmrL6TOWPnPssO6Zh/YblzlrxTpOrH/dqb4jG
bfN1h7J2aofgvXg+tpwI1KKzAo3cTcymw9vGt1TpHEWJw6KMIonWy06MSAabsc6V
j32WPv2g4kbNAs4dcNm1HKexfkiqkicCgjd06CTSVmr6WWAHkj+CjxuTABU/rBst
2cvAFM3yV6A3uksMRjYwm061kT9gPvKw6zRzmLjwx0g7np6pWFHFlDRyNDH8opRy
uTNNrdGLdQQA2SikL3fCI9XoqFSLHL/Gs/zqmebYAZgBMV+xs1Z4Ys+sZ69XABBm
pi0i7ue3bvJyfWkZv5WlWtEAzUgrrhS1BkEKd54KzAU7rJ9WmsaP8g/phh8LXNEB
jYN5p+VuZ6QAuCAN6CB4XtVLi1LPz1+RfiOUuqFM7id81f+amwFJ5dk+Few3ejMv
KbriiyhUToxUW4Hz4TlQ21tHDDLyrrqKpblw7ThgyOUFFAA8Go8/6alkmWggM/Vb
fmRUIETIR/PlUPhxAgi+9ZNRAwArOXLJkv+EuVY+8TYumPLRQ3HMRedW3hJErBF8
imm6elikA8CntvD1eX4Frgme2RCdbQpq+VUCCaxdpSpqbG7nwsF8BBgBCAAmAhsg
FiEEV6ne7UxtliqSO7aRgW8+2Zkhg14FAmS+3/oFCQWBo8AACgkQgW8+2Zkhg14A
Jg/+K09dB59TwU0nfbsu7+Ob7mXelZRNC3wmlQocMYGsSJ9f4LXxsVLasvkXr6G/
4YPCtGtSzaT2G5BSwwCmT9akhPQYb6ADtDNP9dOhCwvLv5BFiLBG9mMOnB4o8WP8
o41TIN0EPMT1hB/JH58xvnCMtHtt5tWjosH52CgoK83bFgXTLEMj9IES/WZMbj4g
dGVB6oJpHt+Qc1t2cbHKBqW7pBFi8pTuLeFaqR6EdnVdpviTUE6jDhZ/ab/yvkzv
7yxNfXnsn6t9CmkGQwM31JYbxmfZQm7BQpvHDhrFO0aNcGXi+WITf6okn1CrEU0S
dW0DGQzAOB330dAow+5lpIx9+jZ6i5BODzdUQWciZbrlqBQSgaOXwSuKNw4KXboR
csfk22BSXytY4NTxp2ELCEcioRQGhlzxWmc0uoS++/6fIh4keET85EI+Cblg04Ee
8meCBo6RVtPHdPldGBdYoZe1YqpQNWGiY3mb4CUif3v0/frTA5vOw4qMfcAelSY5
53ZVauiotLANG+zMf3zFVeWFUKVrOahy1WrCGRgoGVQDI7DRVRHDKf5XECiTueE7
1nCRwkXMWDgRWT3g9PdGKoPPacX4JUF1VVHAkZSgz0+9zwdoQ15KbngnxuMCGqG/
pAq8+dM2/5PiIrD6MTguGd3KjCV9kBHyXpPQljKx+0+7q1nCwXwEGAEIACYCGyAW
IQRXqd7tTG2WKpI7tpGBbz7ZmSGDXgUCYuvS8AUJA66WtgAKCRCBbz7ZmSGDXm4I
D/wOSUc75TIdBIaRzK+O80Uy5S3AN7pm92itRjlvMsy3Zkx9xpnTgBLVadmRudRI
kQK45aGgxuAfHOwjuZF1K+A8n7QlfEhsd+GNwT9Af+w095KjVtv58PID+SUA0S/x
jzHesOQWPCgputGFizkPS2EKFPC7Rg+mpSPmiGLP3YwBA3EmIIe6le4gbt7nN7Rx
cilGVmIPVajaWZIh6zR+udp2OrsKxwnPiOLiH4g22QidDJLiy+0C/Bk+XgupGOby
3WieDEFxAKHfkwibxJaSi5OFfKr7WVYLZ4vCgc2jzwRvZNyChA4P1Zachkox9r2V
bZb6+OwcZjGEsZ5k/nChvNJLA5XJQZrgXFYFAnH3NwrtiU356JqfhHLKXtqq0U3I
m93XFCRN25WEdjxuVJ1LpzokBLhVPwc/JTyHkPG4h0ED47yThmN7UFMiJxCYhIz1
jO7J9abyZAagsB05nPUSv9SgEzfXav3R1GJj2Un8ehIBA86DjXjP7fsYdT4Xfch0
ugQ+9K8BjOPKk6lLa3sPZZp6TdwE4pAAM2dOGGP1nEsxieMv1PsS3zzxHBM7SZPG
Go8HeR3D9ZqSwZuy+Q6kMuZNWmbRSzB1nyR9FMPBkni36CdVTUQVxygUTOO8++jY
CJ+2QuljJqv10XPxVAi+DIYPmO3bauSmF9VRFzNfRbVZ4sLBfAQYAQgAJhYhBFep
3u1MbZYqkju2kYFvPtmZIYNeBQJhHm+tAhsgBQkB4TOAAAoJEIFvPtmZIYNeyz0P
/2AkHmM2HLkF1IChXYyvUrK+IBvstDJKjmC17XVpsfm8lq4KCTpLFSMzK6zEgrtI
rnee06FHX/4XKWN+Qfmwmn4AL1InwPG79emD7RE0IseJBqHwyj0XgXJVjMaehAJe
PyI5l/pL3UUZEo8/5M3ATgOPOu7JPW7qBYCjTp8MWHi+zsEpMN/mcFQcPpJgjUHM
mgfGNya+jdEBqeXYAj8GTJAA9FYW22a9bciNIXMoHMHdyzpULdyBs4H8oDrV6G+m
TlJodNWlrNIyY2gs4CXBcx3ULHmWDnXj9/+TpwaP4FieXcNaHQ+yYtyKcBwBgXB+
3ddvbycSk963ZThJk/ffNloLyo1b1UYQMe1nbLBOQCi4VQcp4+15W20hZEbx4MXJ
8qJAV19PwJYrCdY4EIbZO7KS3dEeh1f6af9L/JkC+d3jsJjosELW23YotZh97y1b
P37pKcrRRYvjFvTb8EPDlOuCxKD7wanv7N9O7y6LXgUq/izScsCQifoU2dzYcY6o
UQFSOBEREvyyV1i0YIK7a7kXA40am/yLmJ+fAc7saKM0lE75wSuZNrmADTSfPSCE
QC3qHXW3IEE5SUIi/oLE3aYDCpah+yyJzKpmhwrIxEJoA4cAdJ0PHqeyZGITKzf5
+3kma27w56JcNmWr9dK7KEEASYB+DZXDGWJDb8BxSeu3
=sF2p
-----END PGP PUBLIC KEY BLOCK-----
-----BEGIN PGP PUBLIC KEY BLOCK-----
Comment: 78D9 97D5 3E9C 0A2A 2053  92ED 14A1 9784 723C 9988
Comment: Ludvig Michaelsson <ludvig.michaelsson@gmail.com>
Comment: Ludvig Michaelsson <ludvig.michaelsson@yubico.com>

xjMEX2GtChYJKwYBBAHaRw8BAQdAXtF26PPVnk3a2UWoHe61aN1EwpBWXbKDhel3
QrBTSVjNMUx1ZHZpZyBNaWNoYWVsc3NvbiA8bHVkdmlnLm1pY2hhZWxzc29uQGdt
YWlsLmNvbT7CkQQTFgoAOQIbAQQLCQgHBBUKCQgFFgIDAQACHgECF4AWIQR42ZfV
PpwKKiBTku0UoZeEcjyZiAUCX2Gu5wIZAQAKCRAUoZeEcjyZiNAZAP9GQtAV2Hwo
OUFmlzIR14BYpmSeMkafm3rvBFudTgwZpgEAp7tSOkar9lglvt+JzuT3/HakxUUJ
YiwqIDey9xhiTgzNMkx1ZHZpZyBNaWNoYWVsc3NvbiA8bHVkdmlnLm1pY2hhZWxz
c29uQHl1Ymljby5jb20+wo4EExYKADYWIQR42ZfVPpwKKiBTku0UoZeEcjyZiAUC
X2GuMQIbAQQLCQgHBBUKCQgFFgIDAQACHgECF4AACgkQFKGXhHI8mYiYRwD+OGtP
gKJYD5n1W6fDWnt+YHOVPkpqTJqVWXsYYe6SACABAP3mduQ4XB/ZmwCk67VT6b5T
lAUamAKeqSPAcjD5fwMDzjMEX2Gt0BYJKwYBBAHaRw8BAQdARvrBRyA4/r+Lz80F
c+4kRpIOTnCcGkqrzIyVbKYuNAfCfgQYFgoAJgIbIBYhBHjZl9U+nAoqIFOS7RSh
l4RyPJmIBQJp5cNvBQkNKe5hAAoJEBShl4RyPJmIbOsBANPbq96uhC8wRbRtDPVz
cPPC/lLeS0gqJqDAhFVn2RptAQDoAftbip43JTf/BPFHJrTDJxIEbzBZu6xqDSR2
/DBpBMJ+BBgWCgAmAhsgFiEEeNmX1T6cCiogU5LtFKGXhHI8mYgFAmi1fasFCQtI
utgACgkQFKGXhHI8mYhnNQD+N8z6fw1p0HotXS35pSSgYZoU0KNvrD8HWy71Hxzg
NWYBAJkyg8Ag7VTx1oTBOzluVSLksVG30fwc8H9EO33yVmsNwn4EGBYKACYCGyAW
IQR42ZfVPpwKKiBTku0UoZeEcjyZiAUCZsdOAwUJCWeHVAAKCRAUoZeEcjyZiAXY
AQCLTcax9sNsKhJTT54a6amuaUZ8vTBh1qWc378liuZ70wEA2xlhFVj+v5B54+/4
BNd51Fjo7IUPjGkeA0556pR1+gPCfgQYFgoAJgIbIBYhBHjZl9U+nAoqIFOS7RSh
l4RyPJmIBQJk5EwDBQkHhlPSAAoJEBShl4RyPJmImBYA/AjHy99fx7G3tJYxsMyJ
eKupd6cMaUXcOgBpSjnQRzsrAP47575+9hjm8rxGzuwp/QZeCFmDO6+fGCmbxqBq
Yjz3D8J+BBgWCgAmAhsgFiEEeNmX1T6cCiogU5LtFKGXhHI8mYgFAmMR6bIFCQWj
ztEACgkQFKGXhHI8mYgjCAD+N8HNJdfm9F4aOdCEjPaDqbjX/0JYzBS7nY1l1deI
8UUBAIbVsqCYB5MJZFkRC8bDwMS8xuqad8gkx1eHXMCAWDIHwn4EGBYKACYCGyAW
IQR42ZfVPpwKKiBTku0UoZeEcjyZiAUCYSx67QUJA8KbdgAKCRAUoZeEcjyZiEux
AQCW6W57BbmB38G2cQOVqV2AMfLKF6flSyvUa9crI+A+JAD+PlxrEbsR8+df6Mw5
i64NDdSwiVLvJEoCby8WhTdepQfCfgQYFgoAJhYhBHjZl9U+nAoqIFOS7RShl4Ry
PJmIBQJfYa3QAhsgBQkB4TOAAAoJEBShl4RyPJmIGBsBALFN8lUaodR9TnIoY5ya
BPLIRlQXJ+RA0JJyGpFeXmZkAQDL1jF7NNCHSjE3cFpS39iohstsyQ17bLE5x27C
zKHFD84zBF9hrXwWCSsGAQQB2kcPAQEHQEob8Md2DCEq+n0vM1YiR5B3pixFaKZz
PykxvlbOko5twsA1BBgWCgAmAhsCFiEEeNmX1T6cCiogU5LtFKGXhHI8mYgFAmnl
w1cFCQ0p7rUAgQkQFKGXhHI8mYh2IAQZFgoAHRYhBLNwA/8VoGikE+ULHD1qSeTE
4LZzBQJfYa18AAoJED1qSeTE4LZzHZYA+wYLhOxKnwKp6CVcq1itEnskYgZ/MI4u
E2iqNDATpADIAQC5N3SJtcxpXFRBYkWGOQkV/bIScoOmau+iQxeRpqSnADuBAP9A
dQo17oPDQVjbfegqAOV/1/nmAnXH+e91mEajDEAbfgEArVA/UYndj9yuSFN/Aujl
0h7bpxzFpX5i6AOXmf3+vALCwDUEGBYKACYCGwIWIQR42ZfVPpwKKiBTku0UoZeE
cjyZiAUCaLV9iwUJC0i7LACBCRAUoZeEcjyZiHYgBBkWCgAdFiEEs3AD/xWgaKQT
5QscPWpJ5MTgtnMFAl9hrXwACgkQPWpJ5MTgtnMdlgD7BguE7EqfAqnoJVyrWK0S
eyRiBn8wji4TaKo0MBOkAMgBALk3dIm1zGlcVEFiRYY5CRX9shJyg6Zq76JDF5Gm
pKcAj+kA/RJOP+pWkq1FCB5v53Zo75TTEzzEMUk5OVQG6MrrRcx7AQCiCz+HjEgD
ND7ycgCWhI35wzOIJqjqGwFBg9oJguuqBcLANQQYFgoAJgIbAhYhBHjZl9U+nAoq
IFOS7RShl4RyPJmIBQJmx03LBQkJZ4eoAIEJEBShl4RyPJmIdiAEGRYKAB0WIQSz
cAP/FaBopBPlCxw9aknkxOC2cwUCX2GtfAAKCRA9aknkxOC2cx2WAPsGC4TsSp8C
qeglXKtYrRJ7JGIGfzCOLhNoqjQwE6QAyAEAuTd0ibXMaVxUQWJFhjkJFf2yEnKD
pmrvokMXkaakpwB+ugD/Tn5FSJFHW8y0gxbD8xQWB/tusKCfkCkpM5jJseBOHnwB
AKu7izuCkQ+p1vw0vEq9CSSkGWdqAXHeGAtICph74a4OwsA1BBgWCgAmAhsCFiEE
eNmX1T6cCiogU5LtFKGXhHI8mYgFAmTkS/AFCQeGVCYAgQkQFKGXhHI8mYh2IAQZ
FgoAHRYhBLNwA/8VoGikE+ULHD1qSeTE4LZzBQJfYa18AAoJED1qSeTE4LZzHZYA
+wYLhOxKnwKp6CVcq1itEnskYgZ/MI4uE2iqNDATpADIAQC5N3SJtcxpXFRBYkWG
OQkV/bIScoOmau+iQxeRpqSnAGMcAPwOTrCCzNffFQpZn17ZUkbro+QyEQ3kop+E
U0Q+6KraZAD/WUdXP86RkkV4M30pEJvw6cv0rIh0L3a1pTYVFOpuEALCwDUEGBYK
ACYCGwIWIQR42ZfVPpwKKiBTku0UoZeEcjyZiAUCYxHpowUJBaPPJQCBCRAUoZeE
cjyZiHYgBBkWCgAdFiEEs3AD/xWgaKQT5QscPWpJ5MTgtnMFAl9hrXwACgkQPWpJ
5MTgtnMdlgD7BguE7EqfAqnoJVyrWK0SeyRiBn8wji4TaKo0MBOkAMgBALk3dIm1
zGlcVEFiRYY5CRX9shJyg6Zq76JDF5GmpKcARH4A/j6BluMAHPyE124SZXUtgZWh
f3M8dg+IHSYwz4PONXvXAP9Gj6SQ8cmfkDCMm0w+HHWDEKSrAV4cYG4OYAUaqpL0
BcLANQQYFgoAJgIbAhYhBHjZl9U+nAoqIFOS7RShl4RyPJmIBQJhLHrnBQkDwpvK
AIEJEBShl4RyPJmIdiAEGRYKAB0WIQSzcAP/FaBopBPlCxw9aknkxOC2cwUCX2Gt
fAAKCRA9aknkxOC2cx2WAPsGC4TsSp8CqeglXKtYrRJ7JGIGfzCOLhNoqjQwE6QA
yAEAuTd0ibXMaVxUQWJFhjkJFf2yEnKDpmrvokMXkaakpwD3ZwEAwNdEFMz9xY7N
HXek+pMp9WiFD5PBw8w5VRwGM50MxK0BAPLiwvGu1ZtCBP+snDW3h58XonCjUMK0
8clNdxZ7XVEPwsA1BBgWCgAmFiEEeNmX1T6cCiogU5LtFKGXhHI8mYgFAl9hrXwC
GwIFCQHhM4AAgQkQFKGXhHI8mYh2IAQZFgoAHRYhBLNwA/8VoGikE+ULHD1qSeTE
4LZzBQJfYa18AAoJED1qSeTE4LZzHZYA+wYLhOxKnwKp6CVcq1itEnskYgZ/MI4u
E2iqNDATpADIAQC5N3SJtcxpXFRBYkWGOQkV/bIScoOmau+iQxeRpqSnAILbAQCX
nsGf+MjXLsKKKo04WjrwIGd4h79QGt3CIDL3WKJ5RAEA1j2cdWojFi+zQb8JQzOt
o0EsiHNLefKyCcQo4v8RogLOOARfYa2oEgorBgEEAZdVAQUBAQdAZY7izsurvyZE
gDPfuPpd538IZSMv4vsptH+Ta9rbin4DAQgHwn4EGBYKACYCGwwWIQR42ZfVPpwK
KiBTku0UoZeEcjyZiAUCaeXDbwUJDSnuiQAKCRAUoZeEcjyZiFVBAQDf1CEQhqGP
IKfxUZ/FVVKNenDrAxwnfyi/180cbbYEUwD/ZGgBcY70R/14pgHdOSId+6EVqQoJ
zuKHlXXpxvpJvwvCfgQYFgoAJgIbDBYhBHjZl9U+nAoqIFOS7RShl4RyPJmIBQJo
tX2rBQkLSLsAAAoJEBShl4RyPJmI/sMBAMyUzRTFpyvXNkXXItpewiTwHlgBnnYi
X4PgFhb5BBecAQCI5YQOWwy7CZ/5STluFitcZ9k02oxy53r0ngmBQeBsBMJ+BBgW
CgAmAhsMFiEEeNmX1T6cCiogU5LtFKGXhHI8mYgFAmbHTgMFCQlnh3wACgkQFKGX
hHI8mYgKWwD/SeSy1GHCdcvgSaY9ljaCGObB5ZllVigU7pELdb5qHlgBANaeNhY6
5lNYJNmcb5ZfC1hHppRVRG3bLHubAwZ6D6IHwn4EGBYKACYCGwwWIQR42ZfVPpwK
KiBTku0UoZeEcjyZiAUCZORMAwUJB4ZT+gAKCRAUoZeEcjyZiJRPAP9uSXQ83okD
TOKnW5Gc/C9LdnVoEecJLIGZ+dBG/RTVqQEA/NyEnt+Z24lpISK3GPsQA4/lwRBo
xyx0l1lvhm+TcgXCfgQYFgoAJgIbDBYhBHjZl9U+nAoqIFOS7RShl4RyPJmIBQJj
EemyBQkFo875AAoJEBShl4RyPJmI70YA/1R2eQlxVUi/Aet8MP/r+87Ncc7NQ1Mk
mBbGMjqYQWUXAQCbdnzk9H7VR5kkZsMRlBxQlcMdXOkfWja6xDQigbNtCMJ+BBgW
CgAmAhsMFiEEeNmX1T6cCiogU5LtFKGXhHI8mYgFAmEseu0FCQPCm54ACgkQFKGX
hHI8mYjjhgEAk//4GzFq6fVCYbFMjxx0yDL4jeHv2pk0NNfG1ZC/oDYBAJ2kOUyg
l4/Bj1qkJGwVXQ+rRyUzQjamTeA/zbK/D24Iwn4EGBYKACYWIQR42ZfVPpwKKiBT
ku0UoZeEcjyZiAUCX2GtqAIbDAUJAeEzgAAKCRAUoZeEcjyZiCN0APoDcrz5YhgM
gx7+p7gzXTZRyXKobZDYBm+m3TQtoo3Q3AD+JGOZnbagl7wHwrDjGQswtUH0J+Vo
8QshV0p6+Biz1wY=
=kTUW
-----END PGP PUBLIC KEY BLOCK-----
-----BEGIN PGP PUBLIC KEY BLOCK-----
Comment: 9E88 5C03 02F9 BB91 6752  9C2D 5CBA 11E6 ADC7 BCD1
Comment: Dennis Fokin <dennis.fokin@yubico.com>

xsFNBF2AyFgBEADerW9BRrjY4RCvWIguxX/YJS0H6vIbEIRlWH99ayjeT6NUghwG
RTFscTf7M7Scr+GRAoktCGxJNiwbfOqopdgHCWyF8M/WdhEBntbj5IMwA1m4PLgu
qfC6a6mxc8EMCEqWVDJUzKhotIngwf+aFuwK3IoBgIygH222VlSoYaE/pjqZGLDS
efLzxEBu601/Wda+qhcM3+ku/uCcHngluB4iDI+NQTQKHD+ioR6WFIT3j/H49wHI
G7V6iTVP5WurhZZ5wQmfElLPUVgV3Yzn4c7Uk++NTzY/+1mzlpfp1d6Smt+KBfLI
Rk/trlqNnMI2jki3TGtFCUd3V/kOg+3rlEIsHGDkxceK4mfH1guEwmS/O2LKUAST
88EMBEeXSBJNZB5waxKTFtqCo+vAh8RDJY98b4VnLAv7/aOwxKcfQSwFkzT7zqWW
vxvNvhjRHBqhTQF1ViEMcn1tLyrHQYy/xO4tCTOfL+iPd1rzWx0/w4f7SsJhFi44
UZQfObiFw05quI+qRzjpWP4zzFqBv9jLl3t3NRGPA4+m4CK5qoToG7r5drtiLgBN
f1xbFsSjGclWKy9XWhryUJ2DPW9VgA3+/EptixHi5eK8f32ut7t7HGkjCuHANHgz
ILjBAABKi0dM47phmRTdhDJUAp8zh804MkI1mRzKo2k1Lu3xfjr6uok39wARAQAB
zSZEZW5uaXMgRm9raW4gPGRlbm5pcy5mb2tpbkB5dWJpY28uY29tPsLBlAQTAQoA
PgIbAQULCQgHAgYVCgkICwIEFgIDAQIeAQIXgBYhBJ6IXAMC+buRZ1KcLVy6Eeat
x7zRBQJodNbMBQkOtnV0AAoJEFy6Eeatx7zRW+0QAIP7OM+xhgIDDyG35uWfaLzx
OJ3TBAfV/nlMKuTJxBh5Ii3dNxN+G8w3GZqC+RsV/kPJJe0jtG0UYgEw4JL8VCwi
NeZM6h5KLO2/Hhy97aqfsKTk8tRUggWDG4cWzs7UYHsvvMchrDUuTGLp5OmwjRE7
t/RAHCHMlzQ3uCiwemvk39xwuBAdjfy1e5QWwRGGkYN+/KbBrU2HhEP1DVz5fe6m
cioXMbJIUreexG/ABjMoCYK4dZhE1pSvAR57kPl2q5Lua27K9JOuxdt6I056ZGjb
dIW5DIRc+VYFvFuEOC7/9TGx63BNXjx/9Z4nJOolj4IEw/VwZKE8o0jGtHQjHYEn
loiLIAO6DPc4LTXz0AEpi7W/yKNUzQHIoeq5pULHwA4YkR8gg+YE6jvWpXW2o0ry
SCoFe/Ym/WMbAOrsGSPhLeP9abk1jX2WBO2Hq0buvQhIiCWxoRy/rDpUpGxtZnpr
yor6n3QQK2XShUKUcZLel+Fznq0xXbLeVI2BMRGp307UNMB6/GQL+mN2U0LI+IB3
Ve21txL3o3PQyucJ8WXah1ZPkthTqSS3hbpvZc/jAh7TbmynDEgBVw+2gqMn0c47
mBTljCq6yBrwtH50D45EsKD1y+ZjEfdAt9cFSBFHj0q7y6xZpcdUmtOM4jA1YJeX
3d0o4yruXCbUV4ROC+d4wsGUBBMBCgA+AhsBBQsJCAcCBhUKCQgLAgQWAgMBAh4B
AheAFiEEnohcAwL5u5FnUpwtXLoR5q3HvNEFAmTKJvIFCQsLxZoACgkQXLoR5q3H
vNFMXQ/+JuwKg2WMIkJ+BIPtr0ABxROgIJfc8iQTs9rk7AjuJ6jXUpl0Ab7lQZIP
olRea2dP/fRCjzUaeZXnCIO4nHpO5TaGj/16ZbSInh4/434bj7Ar5CTiY3YJIufO
SFN0h1s+I1LmVL1hyTuXndIM17aUNbmQJloigWAcQ20jrpI7uhAnARcLzuhWlNBL
xVG6bCbKGuQml1a4qsBUJv3wiS5Xqx4lhKLbv+Hl63EucSj3b2QQNd3TunwFAaD6
4MuM4+v+eIookv8pFtSupx2wWa0HXWJDGrMeM3GuCLszYuPlM6GlHrCs9nMdZ17k
c1xH80Qn2EO7rMdKfRxd23j0kpQVYR0SHxNZ6fxQWQJQkHHe8WUzayAKFiQysTgO
/Q6b9H8WSsu+KXz8JYxKnGT9LT6aqeXegEhiIh9NVQsIt+6DvlNNPt7Bij+SSBJS
Eup41Uoj+okwWmB41Y86N7XMjC7bBX1sBLyL/r6RFJS6LjWsWbxfY1C5HKlWPHXk
bJxC3m0bA+hSUKbXLHpmY+IWETSk7tL8Cuzfz4HmQ++nRfpjjArsdrMTytWaRRSb
aKZVAiLjkjAobjtSbAUULjsHNqEdDFHpFSpxGkikLPOh24I8ubFJ+gFKlSG26Ktk
UvwixW3xIJvx/JRV/XJnJwNDeRJQwTMJKQu5nI5WL3e2oZxFvyvCwZQEEwEKAD4C
GwEFCwkIBwIGFQoJCAsCBBYCAwECHgECF4AWIQSeiFwDAvm7kWdSnC1cuhHmrce8
0QUCYxiCjwUJB3jttwAKCRBcuhHmrce80aHmD/9n0AF8mtla9xQ2N49tbEqzmRsm
9Ndh8s7h7q3kDbgPTR7gpAS/iH/Q8HFGJi38mqHUkO+3pDkubTiIKKNgeXNenAnY
DiuZ6MFzpONfteC3eR3n8rIsqWisJmj+jNKxCaXuHrQJotgqTRoxyGLrMZv6rNz6
Rcwk8q7TNA4QURuHkLOlkp3653WufSlLYcbVwlBPVRYqSxPz0Ghi7DBCNUq2nmZx
mD1fFRCro4BYcwP6drynG+kmhBm9GgYkVpwyrWzxqOdj5EZmjxSXVo9SjYXm4nlK
S58qQbyUWA6/mBXzqzS+oKqs5Xt9z6QJ2SKbpmOGyIOlTSmrrQcgW1B8X5DDGvN/
QADhS8w619xOCd0vkKnDfiKqM4pITZmQrPipB8ZoBXr+Q1qJ2eyIBPSD3KgXGT0Q
5qzb/Br9gRjKA+ar7RK7USpf7UFhOxZCH+AjVTQTVGeae2sksC4FOuF75o+Fr+n5
Qv0hu1C1ZAX9Jb8ShY6ltC3kd7BeIfrJllf4Mz2WLqIgcCJMxHi8nvuUP1Dp6gsC
Wf3RBroJtVZrCUIVCjJ+dAy0JObvQIfLT8zWFGG5bRpJzobk2kPTOMQcsT3RJgyX
XhjN9UuMwTrCwNYte5Rm0TfAy4Mal/LFZvpl6IbsEvuPu5QDN9UVo8n/SoKBBdAV
uVRN4u+LPtrDJed1W8LBlAQTAQoAPgIbAQULCQgHAgYVCgkICwIEFgIDAQIeAQIX
gBYhBJ6IXAMC+buRZ1KcLVy6Eeatx7zRBQJhNx7jBQkFl4oLAAoJEFy6Eeatx7zR
kXQQAK8ZnbSnDB0Zf/wK4jy0i8uNWwlRsorWDFvWuAaUd1rCA6Zh/lI/7Rjye4DB
AcpUFaXKK5f9cLnPueUMZKs/0/WmIjRCD8nAh0cj1YrDaajacsa5gzMWQkhswaWb
NaRI1xB+4dFAklJHW2pBxtqjGRUmMznUUQtzaKH6FEcJj2UbwgIM2ULFleDGbyh/
PhMslW3suCKShDMf3sHZ6ffZQMjMnMjOIz6zAOixPmNUdwtG6m12oNnQKZ0yYSXa
4JtaKhjDYOdpcgPKPi8tXoTn8LCOfAdLhTcwhkpcihts4cuoC0pE19+EI87Pg2sI
KBi7MlT82AAd2/yrPheXPaMgNbBamfIZ3aRrR+03H9LhOCXo9gdMGDT7OhAAq+44
J9hjyt7G5c/+vdQpGZAhDta9ui6BGeQXR04WCtH51/IPfzK4F0dlNOG8xcgA5tDs
GcFhz0iFdGsT3DsnkH6YltoPdsb+EOxVPWmdeqs7sbJ5bBDAlrZeAnTE95QbviwN
HK/gOyIrKvOI4wpLkmTIprElB05Faff0/4NFN61hmKtI7M1mloDWJg/gYuasnkov
OGVDaXEGOrnciRe/otfMyJ8dVdsjEJmYRYzJoJwlbnvGV0gqcILbMFvbo1L5iwBl
J7bkpvHeBCUzpyXjz4mPI/wr8MOzhaA47hBLXu53mHor97TSwsGUBBMBCgA+AhsB
BQsJCAcCBhUKCQgLAgQWAgMBAh4BAheAFiEEnohcAwL5u5FnUpwtXLoR5q3HvNEF
Al9fMj4FCQO/nWYACgkQXLoR5q3HvNET5A/+Pzr9e0p0Gk7Ps1W8toJ72ZRez5Ip
VyDSS2iYSV1id1HO8gyN2pqK+SsxjrLHmq75BpoK75ws6bhJqdnzrMxuDuyOFjE0
XHTYA3pSGF4dPQcxK8bSBkyjXML5cXjC7Qff3HInkqYGSUHZNuj1rpnSjGzGM+qY
cS4OwQ7wFsGxs4ZfSaLx5/NwVfiileHqhNfGY7+H23DOGqBMCf2v+LHjRVC/V0hT
gSBISP8ii0igszIhojMlPkvgInVUmRnE/kD+wucQf5moS5JZnvBSInzBrlu/KBhs
P0OCclLc1So4m2AdO058A2zEAiMdAx8/m1RNoQ3yx3UKWj7g5wCOUdfPVzoBr+Fd
ibdCvkPwS34licnFljD/F0XsWeujWmYJtr7W9caBr+29aAzPeufjCtU4Z/UxphTn
gjVVRkc/NIqvDVmpFypFVVJ+YqclBTm/adtX4Opuc2tHJ+36IcnJNUSp1gg/Nurd
HuXeOo9kPSwbhK/caFS71+cPfsQ7BntdxLVF8iuHPVmSlaYxPGahE+25jzM9zIps
EUa1/mNf3/50YHgQG4xunV9hTSa5ZmgZYOPcP5PxY0Z3rVM+Pe8+KMuzjCotgJ6T
/smyUYXXyvVU3C1Bk7Z2AuoQSjJzBHAcItZcetgLj4nsyB/+zethlyGLGMlHu4+F
bMqM4etTevnN3KLCwZQEEwEKAD4WIQSeiFwDAvm7kWdSnC1cuhHmrce80QUCXYDI
WAIbAQUJAeEzgAULCQgHAgYVCgkICwIEFgIDAQIeAQIXgAAKCRBcuhHmrce80X85
D/0VjDG2rTkXoifwTIKUSpVupHdG1HZL/cqgGaIznCSDtKBReD9Qf/oiEjSQaZgr
sNSZ5Iezqd7jTTOZ9913G+u/w3melM76W/7thUawaP03j+Pvmf5b1oIk8xhw0WLh
zE85SfSx/RKbQ/M3y2bS2YnBidV9+jhuhVDfWco+u+CFwJgwd2AzsSfGYknUhjPo
oiZ2CGi+Fnw25TqPY80uIb45ZoY58YswIM01SYC8M5OeQvFJlFRrtONdJiwFeRgZ
TXy9B7/wgM4Jm/VXpDEteauAPyBO2Xod7XROCrSkxWIMLV2GJxgZaQ8gNRlGEgJq
BeqjYeA8wOHAFIamXAjo+Le6R04i84bjkb6cMq84LrNv0Z3ukkp5MziKkeAtu66B
7WjL2fa5P9h+VMBZ0viK6YV3fNIG+/EnoiwbWGa6cDClFMlVZY/XNut+k8ucEYTY
CPlCvr+U4K4cPe6Mb+uba86720EOp/3eI/qipCxD+X2vmvi1RKsot/ZafsnLJf6Y
ojqQ/1ZlzvV2SZ+fdXWSYPJIEmM8zb1rY+Np06OwaswuujN6bSefYItUM9C8lOmm
Xma5vWPv7BddNyIgZgkMMF+qWnbv50u9BQ7XVDd5Lk48tXIzMJ8PujqeWoPzLPxk
y6Qt776jTuh8iHRRW0qg3WdU+Dr5dvVyhVi13vPgZXacCs7ATQRdgM7nAQgAwUOp
SngobuOPYKe0LDtVVtYxC24p9Po8gOCwmZ0pxwlgL3nTnHvirJoQV/NPW2kuAAtj
JUs1iGbMJ0I+39nX++OCBnqdXuwy+6s4tJb5QnOQ7uhQDolObyOzHEe/sgtEhn5n
0j6AxhphfRM13Fe59W6Oaow++mfn0x9YV0yLvwx9gA6yDGi1dinfsq9mjPuy8RzN
Zd6jN2bK8ieY3a5oKo3uKWHKNxes/e1CWJVbU4zJbBbXxQ0jb+y0642asNlkXCC9
Jr7MBQwo0SnhDZlWoTUk922JIjFhXG2KO2pxhZ9Ys9ya0RXdTk0U5Gz8g/WtyocI
4/pzvoR/36H8q5OHOQARAQABwsKyBBgBCgAmAhsCFiEEnohcAwL5u5FnUpwtXLoR
5q3HvNEFAmh01x0FCQ62bzMBQAkQXLoR5q3HvNHAdCAEGQEKAB0WIQTWkZ+/SMSE
88t7cc2HC4glZpDYvAUCXYDO5wAKCRCHC4glZpDYvK30CACluJ+/i+UaFY5AkG3i
GU8fNAWefQ9P5VkUchhlfy+quuneKbSLbwcjLYN7B3sTMbaYGtm1wDOb2zN49esf
wMQ2moIqJ28laz8MXwe42Vb2s5RSBeoCW4qfyDxXR3we3iyJp6ydyKg/lvf8qujC
uWEbq62y09U5lw4isDGiZfm7v447IRWauVVo/jl8WVVTW7I4+VHqfvUpSBn2THi2
RDrIf0v8jCL9g7ex5VJpepwMhPoYJiIUYunOXOcrBzkDtlD02uGcLjp04J+1p/CT
6weElyOft5OjXroRkE9DtxqDHgF9Ad6/pU3ta9whAstDtRs1IotbRKEpvfT/PVI2
GZpy9+gP/36Ay2gKLLevlXV04Qe9NOKNUvZrjh05Wn1tzfbZqI5k7+XgAerHzO7U
s9UkVtbPgy8IRSskYJE3uKa6xo1K8RejV+0lwjrCLv0j8F9LRB7fFha6t/TVv/18
pKsViHctjtNaDxGQq+3tyom1n4L/pmk5A546/Lj/huX6gta7iHzDRvEgBykqElrr
o0nSMSN/RrDRwPDFOl74gscO5z79vurBRIBNRRWaCE1bQqh1K6adRf6SdJJhpnd5
IIul2ocGJ31PPuIoPcuqqKrHwzgmfrEtScJc8LL1lsLkGyUaq/zSELDn6Msvj7pB
HzA0Rkrk/LP1otiXJwDVgS+JVxqDPL8DhxG18jwP1ZQJlurlIdSfa2/zwjgp9lsx
ztYJrDdsKBarYpHejhLCUEdbgbcHDT1i72q71njgjkLQngdTrIgpWc3QMWzp6AUS
+HqvMhsQDLYvxXsjx9A8a+IsG7vRCNXdIpidmIBks7KgivqW35JG7S2ys7ua1GQt
RIoOmK+HcR7hpb+uh0H9cDCuDQYOkbatCCSNflfpaIz6B97bY0M3VxdsbAr+8dvH
KlD6xszS59Lp2lBAfknTHwzFy71io5HFD/YzJJRtGl+eTftVdx75phEByYrxI4vQ
a647NY/8DOcMFNSc32omey/7O1CIVMTVn6Ym0u/UlcmFhqsgPUDKwsKyBBgBCgAm
AhsCFiEEnohcAwL5u5FnUpwtXLoR5q3HvNEFAmTKJ0IFCQsLv1IBQAkQXLoR5q3H
vNHAdCAEGQEKAB0WIQTWkZ+/SMSE88t7cc2HC4glZpDYvAUCXYDO5wAKCRCHC4gl
ZpDYvK30CACluJ+/i+UaFY5AkG3iGU8fNAWefQ9P5VkUchhlfy+quuneKbSLbwcj
LYN7B3sTMbaYGtm1wDOb2zN49esfwMQ2moIqJ28laz8MXwe42Vb2s5RSBeoCW4qf
yDxXR3we3iyJp6ydyKg/lvf8qujCuWEbq62y09U5lw4isDGiZfm7v447IRWauVVo
/jl8WVVTW7I4+VHqfvUpSBn2THi2RDrIf0v8jCL9g7ex5VJpepwMhPoYJiIUYunO
XOcrBzkDtlD02uGcLjp04J+1p/CT6weElyOft5OjXroRkE9DtxqDHgF9Ad6/pU3t
a9whAstDtRs1IotbRKEpvfT/PVI2GZpy7dwP/jH7hZllpp5LIIR26DXns74Ztc+n
ErQKwzoXrFNubLz5ZE3HUN3XpovxC28R99724PUqHcHop5fs5LkDiXFJFjTplJuZ
wxi6zXr4dmlTDbE4VA7z5GusiQLGYu7CE0RCPv8U4kq1VSZT0OW74QTIhs3SE4Rd
ecid5KmaeT5NckZbXtfqgXZ+5buz5qlZI4i1GePAffRQNuM5TGQkJGIVMk+cgavk
ZxbpYEtUg4Xk7FY06CEriVBtH0aEuJI9CmJcnmwq5vJk8D1Yf1XcXRTLz9VjJOa1
tyuRfdUvD+g+EYGwuIKSX1PR/uZoj/K7oKICPons3x5eHo/ZVNfZp+0WwKWrCun+
g0dYW+8oAnkmmkd2bUt8cQS+5WlmJRamEGDWRPG24WFd5dh1fluhg5Gqkm1uSQjZ
Sf443YBmuh2TnIIQfrtiJIsGVKZUkz1n46Xv/7r9kmCNjvCuTKzQJL3F+oPEW4NO
gzN4vn2h+6OGOspymFfPMZzbHsuKpP9PVHRiuD6Z/nm5mkPOIo0rz0S77Rj/iqUI
JVxpWmmKf7Et/0t4iegCWoRkYEn9TmKPWgAn8HlmnV3IIPi72SHO4hUguklWFNH5
v1pptcglUf18/LYxBHw6tFFwB2hybOL6DhuQyQCDiAK/F8xXJDSWLW87HQld3hFD
z2UD+vLkM/MGptgTwsKyBBgBCgAmAhsCFiEEnohcAwL5u5FnUpwtXLoR5q3HvNEF
AmMYgvAFCQd454QBQAkQXLoR5q3HvNHAdCAEGQEKAB0WIQTWkZ+/SMSE88t7cc2H
C4glZpDYvAUCXYDO5wAKCRCHC4glZpDYvK30CACluJ+/i+UaFY5AkG3iGU8fNAWe
fQ9P5VkUchhlfy+quuneKbSLbwcjLYN7B3sTMbaYGtm1wDOb2zN49esfwMQ2moIq
J28laz8MXwe42Vb2s5RSBeoCW4qfyDxXR3we3iyJp6ydyKg/lvf8qujCuWEbq62y
09U5lw4isDGiZfm7v447IRWauVVo/jl8WVVTW7I4+VHqfvUpSBn2THi2RDrIf0v8
jCL9g7ex5VJpepwMhPoYJiIUYunOXOcrBzkDtlD02uGcLjp04J+1p/CT6weElyOf
t5OjXroRkE9DtxqDHgF9Ad6/pU3ta9whAstDtRs1IotbRKEpvfT/PVI2GZpyt/AP
/0vrqHd7U+LBPts+lGpagiSBFl7jArLCb97Knlau061lTAd2mylL/VGNHZcthQYS
GMTU2k9yOkQOjIX98y4LLd73YngZX2reOLvfXp0aBaK+zL8hbyHmNPfH1wWwRDo/
Twvo1ZYn0xG6seYpLvFLRoOIo1274o4BS07Xz+yR2wu1cMap2jCw2tL9LtHQFh8B
yrYhMhhDwLayjA8kfCH2UGG5rWzk5VawvBWUiBqm+GeWapViXA7KJp5ZaDZYNLqD
YqjE+tX4BQ/K2I8LxURVH2KAlou1tY/DHIGiVAD3jnmM/cvv7UI/FrEz+N3xV7aX
crq4o1IdUhHRNxoCjRuwzbVpfeFlv7e/n90PrTUJFOLeo9ovhCydSya/qnKwKaJ/
rfDTncTNA6pet9Q3ExBEWBO1blfn/cNAnecsrL/sqPUobWoJxMfWjwrQZMk48n/l
dO/bjYkZAWc9kgK5GyEQEL/Qc6logxP8oa0sVudTsA4piETmfKvzAjIWk5ZvN9U2
kED/v9EJhS1uL9cuMl72yCOBiGJwWwI1lAFnO7wnGThE/8DmvxbLzJJVORHda1sP
fxaf/3kCpA/6OitjE187xWRyYouZXaeLrU6Lapr28jbyymlDXVk3apezPnM7LVqU
Qjg+Cm4WJW1T9tTk4yvv2bYLTZjxqUISTRk3AAZaoCjSwsKyBBgBCgAmAhsCFiEE
nohcAwL5u5FnUpwtXLoR5q3HvNEFAmE3HygFCQWXg78BQAkQXLoR5q3HvNHAdCAE
GQEKAB0WIQTWkZ+/SMSE88t7cc2HC4glZpDYvAUCXYDO5wAKCRCHC4glZpDYvK30
CACluJ+/i+UaFY5AkG3iGU8fNAWefQ9P5VkUchhlfy+quuneKbSLbwcjLYN7B3sT
MbaYGtm1wDOb2zN49esfwMQ2moIqJ28laz8MXwe42Vb2s5RSBeoCW4qfyDxXR3we
3iyJp6ydyKg/lvf8qujCuWEbq62y09U5lw4isDGiZfm7v447IRWauVVo/jl8WVVT
W7I4+VHqfvUpSBn2THi2RDrIf0v8jCL9g7ex5VJpepwMhPoYJiIUYunOXOcrBzkD
tlD02uGcLjp04J+1p/CT6weElyOft5OjXroRkE9DtxqDHgF9Ad6/pU3ta9whAstD
tRs1IotbRKEpvfT/PVI2GZpyjekP/Av7Of2gUVn9KQxVbhSAHT8aQ4riumFblpHE
hUwttZTQM+FLgLCF247oN+uukl3IP5k/6BlMbit1eb7KQriwZW7IZQCyMJf6W7Uo
CNTJMQvEM5r6ex3RWwPCIzokRR/MlE6r5fJBWQmJZcz9/hFTNMmWbsn4Y+XbGmKJ
mQJNRZsuJTSnOhHGyBYaUdiS5NL7XuZoLWyYzVqCzk/agf/5WL/zRhL+AuWTXM9G
eapTrKFrNR8/+xaBRZsoJNCYMcD+QyWpK5Pv93vhsrphQ69O0qWfgPljYei1aRZ6
5UrI/pw8VgEH9VxhDXE9jYreP/NkguP31zapmbRtWK2HyfwDNYltW9g6KBGor3y+
b3RGX6RueHkBYnRt7SYWV4VN+4K+cxexeb9mH/Z4M1ZPrsa1bOPTyCHGMlrAI1dE
ZjQ1DPeiAitBN3kXJedn9+rl8wDU0fkUp7eC/m/EUrREW9AXJ7GBvdvHLwcgQpo/
IAf6puPvC3/K5qvrFSFMW14o+7uw978y1WNo8fXujqWBTCwk0eU97rGYXJWglgm1
BVqcTPyL8BOXle9Y1nMRIBn35qNkmpSu9t/EH/u0vPCHQi1gxjRYVFqky5OekAO+
lyevUZEQZv6JZJCuvRpCiTyicEfALLap+6Xag2eL7LZFXaGRJmlfqsKkdojN7Tox
K0B7fgt/wsKyBBgBCgAmAhsCFiEEnohcAwL5u5FnUpwtXLoR5q3HvNEFAl9fMqMF
CQO/lzkBQAkQXLoR5q3HvNHAdCAEGQEKAB0WIQTWkZ+/SMSE88t7cc2HC4glZpDY
vAUCXYDO5wAKCRCHC4glZpDYvK30CACluJ+/i+UaFY5AkG3iGU8fNAWefQ9P5VkU
chhlfy+quuneKbSLbwcjLYN7B3sTMbaYGtm1wDOb2zN49esfwMQ2moIqJ28laz8M
Xwe42Vb2s5RSBeoCW4qfyDxXR3we3iyJp6ydyKg/lvf8qujCuWEbq62y09U5lw4i
sDGiZfm7v447IRWauVVo/jl8WVVTW7I4+VHqfvUpSBn2THi2RDrIf0v8jCL9g7ex
5VJpepwMhPoYJiIUYunOXOcrBzkDtlD02uGcLjp04J+1p/CT6weElyOft5OjXroR
kE9DtxqDHgF9Ad6/pU3ta9whAstDtRs1IotbRKEpvfT/PVI2GZpyxZAQAINCuRcA
a7BFbJ33DFb6V39Ctwu8u4j+cwUEzvija22K7cDllbUfhSQ6DtHzmyzi90hrByj0
BfquHCaadrhmC7SCtglJL5cVXPC0Mhw55XZt4gPv0PUXNWNCo5HMPHccwfMos1Mc
3ExsAol8qM8+X/LkuUJz947JKPEHO1AtQ0h85FEA7UyvHmya3pWocOpBwpGkiyMG
nOBvfkPtMaGBdATmcLKnfn0OO19dBmvSdA0po4wUsqeYj4Dd/ETHn1/w3bHqeyCp
Y2nqlxV/COpcOh/OfR7jVI61OaXS6RGpY70UXZCHpKVCJIL6lcRWKynPS9NTzdmW
PqC+rZiZiCKdGQ1sJDrnc752BNovjpVO7qzEBdOWnRvFmcXmUFdKr25NuWRKpQHc
FbTqi5lgBNyd7sBjAfX9VivAqW4cXA9/cDflD/LK5Ejs/oPzolxZAt7QSNWVO+Eq
zcLE9TN8B/7c0RNpOPiVfVcjOWJICd3RLnUII09aP2j6/bmc9mQtn15CRWsK5lWh
Bgw75/r7zijaUcKXnn8QwJUqCltMMdZTVSJTl3FN2g5ckyddUdePAnbM3ui73QDa
Lg3o9tUhJvQ2KmvhR10nLSUCD9rU6n0pOGeW+6qzT84BS7eUnW0JOwIEamLVyrzo
BrdjeWNRn02g+eF/yp9bwFxa0DD6sIC1ZzBJwsKyBBgBCgAmFiEEnohcAwL5u5Fn
UpwtXLoR5q3HvNEFAl2AzucCGwIFCQHhM4ABQAkQXLoR5q3HvNHAdCAEGQEKAB0W
IQTWkZ+/SMSE88t7cc2HC4glZpDYvAUCXYDO5wAKCRCHC4glZpDYvK30CACluJ+/
i+UaFY5AkG3iGU8fNAWefQ9P5VkUchhlfy+quuneKbSLbwcjLYN7B3sTMbaYGtm1
wDOb2zN49esfwMQ2moIqJ28laz8MXwe42Vb2s5RSBeoCW4qfyDxXR3we3iyJp6yd
yKg/lvf8qujCuWEbq62y09U5lw4isDGiZfm7v447IRWauVVo/jl8WVVTW7I4+VHq
fvUpSBn2THi2RDrIf0v8jCL9g7ex5VJpepwMhPoYJiIUYunOXOcrBzkDtlD02uGc
Ljp04J+1p/CT6weElyOft5OjXroRkE9DtxqDHgF9Ad6/pU3ta9whAstDtRs1Iotb
RKEpvfT/PVI2GZpyv4gP/Arzypoa2WKrAKYHeHtU/CFttpF6NM3vhUE/mt59NUST
lF83D9OhFW21OsPaYDgza48FpCjmPU+ruEXixgsBYW6Ka/9G5ubykus+wihVJ7SA
LLXzppIHB0tHjlmjTjXHrU9Kl6cSx+Dffy4vuSLpJgXnmJ8XZ20eHkxcWd7NPGjW
3hizH+yJf6bCyBepyCn5OMJudtwY3TV08keqPBvqLnDUpZBr/y4e1/kEqzanlpVH
KjSf5GwHC1pWvo/uFlyjAc7XScLGx1HNSOqHuykOca6cvYLkfo6VA6Gq5xq77CNw
4kTj2cKm9m/l6VVDpELSXJmD9ruxagw9RDDl9IvShCsg2UA4FwS6QPInUCfXN1Oj
lsOLoe/7NZAv0Wv+x9Cks+dPhX2h/kHIu+FMd4Vg8CO23KySdg3BnSit+g00Fjj6
2bXgmtQ9hc3ITA445kDkZptEEIu6s1o4GbJa0pSLKe2BTlm7VH9lTfCZxyODqVw4
Ll952HTMTr+TQ7Q0potb29LPFDlcou2EWjARkN6uMFWoz7MxFhsWQFEpshZXVhTQ
DSnOEtAIjSTQs6upjlPmKn1oPY5cPWj7oEpJhJmMbZsXr7cr3GgRqNNYP4aB4oZJ
xTfdpB0gYQ8/Z3tJRS0dmpcQ1WbSIlk8nBJRMZ8iL+yILippt4i2mvkmQoAkUtET
zsBNBF2Aya0BCADrYIcCYgWfjVYWnkorc1yX8/iqkcmPUgbHsnTcq7v4l3VZmykw
iOQ/kLxTL7amQZkzbyhtlNFzjJOETHpyrUSHtKo3vEwdtEr1BhJrxN5f1KNf5UVK
bsi4T4D4WkoMNtjFB610C1idPcw4wdx3giAmDkaKftyyWX6OjNr9dT3U94NBEynW
mzQm0S7nON/Jjmh9/ddgoT6fO2N3rcEKo2hGJlyRRuT/cBoU+oUvRMQvp8MjeNp2
fNDyR0YhW8Kk/BFvXdBgkVpfpWqbTXmfrvFkK935JxX1HDX0L1MQbEp/hEPTm8YJ
itlTCMvGj60KptT4WkL/EYGUntrKftcQZbV/ABEBAAHCwXwEGAEKACYCGwwWIQSe
iFwDAvm7kWdSnC1cuhHmrce80QUCaHTXGgUJDrZ0bQAKCRBcuhHmrce80YzyEACu
8V+C+brXPcab65F0xuwLzRf4RQASbWvPv1nvUCogMqSrDEXH/6zNo0gL+7SBhB/E
fz4vPQia/ripEz92d2pc7YuPcb+wezWejuP2q9juEEXxZJ4jYEYMziCyDuURNNJY
O0L0tZtVvWgo1LcB5pVT3YnfG4tdQG+Qm/L5ENKLpr15QEE73pFdYcN+rglRWabi
FOkeLUriMTO6qtDkLBwP0feLqx892T4Br08HemTAhl0STdv3qbBvv6gi1gDff3SI
itvU2S3n4/viiNo3UonG0+yV9LMHmadrnxDgxwLQVmjRqWbMsFruVO2PlreTKeQ5
/7aG5oJga894Kbo/flWHvEWWKSThBjKoijIsGzEsFev1rpurAyzIGW6VqTSwtgGo
yLeBJmgqpc98nu7EN0IZH3G9A9ZhbdPxzOw/NQniJfGtcn4aI1z0OI88Pe7qcw1X
yey18pFsvhdfZ3MF4aDJr8QDpVVgiB2KlTUXQbAGAOLG+bDyZqtSMdEdbwzgCDHX
Vst2VjLwOdyeRp52etHVMg4jPkxS9hHtBJuKf577Md6/J9mYp9l/ppWUlhbQ75Q8
+nMkxb6/9z2ELW5ZEMpBKGGWxpVAUqvrlczhKNP7uhq6j4COlSiFcwNtrUTssY8A
7TicJU7Hpw9gvCrzd34ytU9JHrzcEG/AoaVanLk+eMLBfAQYAQoAJgIbDBYhBJ6I
XAMC+buRZ1KcLVy6Eeatx7zRBQJkyic5BQkLC8SMAAoJEFy6Eeatx7zRM7gP/373
IcMX7mPiOv/W91WqAC702PnGyiBS6DgJP4n8BSN7wTKIUj4j/tzd6fQTxwyPaAWU
YxCg6dxyJxi8HiWMuE7ftqIBbjR6kvHe9PfdTgVaNPzL5z26LWTyRVg8yKVS8tFX
2AiuqUrBE1PtYyGKB5k4CYvKoUcOLQjeNk5wuDiQtZ5oSC+Or3KKkivvsY9JLbmH
SjzWRCu7z7F6jZQ4enzKyeoORCE0k1mAzz2SRzJ6JfxJFghwtE+wl+ATCbfn4aGZ
y3rCkx+5YxNv8cEt0HjFzttcFJUiEFj1WZMY4/DClmjsldsMwhb4p5NXAvlkOl/t
NvOPtAmyMlV27j2mDt+bO8HQnMa7euTLWRvpICuqPDh9lGP8SEMMA/qE7FKxZBkl
P9gRY1K+LUoC9btRq3C11P3FDmbxoGJLjqjyTqiBiIyj8IVg8o7G7mZKk3L44nt6
qnF8gKhBA7BjrNq36CRhx+tZox7cokjxx08nbyCPLJKziVJBMDDN8fQ5fyLchX+u
uzKBMkcCnlkcdPunVthQMYLG6sF5axTXPQXQ5hlkh7owlBLz+QzOC+KrksfT1wFw
g2LBX/C2f18WzUjqrN/7zDUcE3/SxsuFprC8p/d7I25uLv94eKqy+hyZV/S+7lcs
g36X1FDp8QlX1W762BQ5tVlkQ9JvGvGaJzVGLGWFwsF8BBgBCgAmAhsMFiEEnohc
AwL5u5FnUpwtXLoR5q3HvNEFAmMYgusFCQd47L4ACgkQXLoR5q3HvNH4/g/+JsAR
+kyhlQy5HmZSAXn4EtxAHF6ASn+fMVRPFSXdiyoUjJf8QLNfmjibnLGnN78wa490
sp/PGRdTXUGOo2E5CRGgbYg/b1n5KxqdK/L0DzYF6pjGiWJ2jYjJVaRN510/qoit
AsZNkhr4uekNxbJAS2SWzKaz+TzlJ2xuVNTF5QDzhcc8KmL6mWE/6HO2hkUIY8+9
9oWOIRSwXdFHIxnNotNZgctzCLLdm1x1n1u0BTJb/M1fjSw7YfOy5u/v9jcUS0j/
ACr4hvm8zADLBnQPJRIBgJyDkohSKSpGCDPe3ZBgiH10zBgsXbX76lVRTSpwF4tE
RGD7KWsttf6Ocjz+Q043XlOg4j23i9EcnIYqGueUaIvwtMwT4ELtR3A2ALUyG2mB
tAES8odlAF597IHVpyY1eGOEOvFC02moHqQG2Et6JRwOWbfUfd9yaPC9hA+7ciHr
J5wuHHkH2BpO+GnW1r2Py8lE32L3/kOS5XddBEYHcyFeStzlt5z0q69R0SF04zdn
NkVNeWishxbGhRAb1VQok6b8+Dvq2Gqw0TW+jJ0d59O28gGigNAM6FIQ6YY06bHj
AemuDE8k1wHUBMTWy4pWdrppHyNDVQ/pE1LjRg/JzTBGXecSlHprNzmNu5CmMtJL
j9E6O56CDOzLjKBPf/eFdILp3rSafyWAh5fd2zrCwXwEGAEKACYCGwwWIQSeiFwD
Avm7kWdSnC1cuhHmrce80QUCYTcfJgUJBZeI+QAKCRBcuhHmrce80Tw3D/9qa6oU
d9e30Q0BJT3RWy5VyS8PdnNA3PkBhWYCkLAuxARjDvcgqis6k/8bk1YYn5FHcns5
8jNZVBjESsfjd2krr/N9lEmlNj2pRd+xRK/8AncwdB7KESvf8guuukXbG/bLydXK
yggjFq/KBLyFIReiOaMtuNhYG/TruC6exRndjzwSqPf7Lq6eSogsbvJ/gOYtLV+W
IWLgZxraUYBSYsZ6mrjA0LbuFIqHAnBEsl1LDSkVrC7KbOBKdntoveoMp+G4O5Lg
ZMfo9LSiidxyLmWF6taoR4ZEdILk0xupbSDRq1w3RM6ZBIHesb+bg03zo7QF0CSL
lSDUr9y6IRCXkvrQySyj9/4JDZ0Tg4SX20n6tPZ8UsQ/gco7Vxyw05fM6vM/ic7D
6COTomfTSzJBl6wBXnx6gZKA4Iv1bVaap5BOtDZQGV5sR2EGU/BDiDS87lr3n3Dx
2ngnI/W02gi3W56zI/h21AM6ei1ePopaqr2sqXRr75M0qYym2mHjyrHCLDGneC84
hrfUDqRlG71Y7ekreKzozFrFXWDwh9KQYP7b8O2TJuPbUYYuCm1rJs+ioEygWJM5
RXKSLkAZVk1nwALVSB1rWvJQLSodqcJdugPyHOZBMxVEAWad023CwXbU6V1lVosl
CjRDoXS2sYds+eHOfoMLpPrHHwracY/1Bum1FMLBfAQYAQoAJgIbDBYhBJ6IXAMC
+buRZ1KcLVy6Eeatx7zRBQJfXzKgBQkDv5xzAAoJEFy6Eeatx7zRlmQQAJCxfbYB
mMgegeM4srJqkUCGEWydnr9HBFMQQdnnDiCyFH9sMtw4mfMtV/pMQoWRJz6wT0sU
9ybIp36Xsi2GIQktN732Rw7xsyJ2wsZ6uoIk4uj77C5sGVr0dxgmJC6suy9af936
eywbFIWeKUH/rsF2GupUu6zGPt+Gh81kmxpfKGfkVFvyHteSKR3n5EFFrDgpPQ25
PVJ4GjGjm5UmHy+SzDoTuA6MKcwP9vIfXN+Egc/+2/hepBeLYzkAkfnsA0wPYHsA
eXp8tpYoqqKb/6U3g2KuWTmOJ+tx4uUn3A8vRj1QYhH53c/Vm+3Xv4m+XDhAG96x
u0EeTMwGYyEJhdvL2KaTEZEqh1PuorHwz2i29j7toEt+JPXon6UtJEge/BZv+/qx
7OcaFx8RM6p1ezFk9HAhJ6CMrkvHehpjgS0/BSAvvPdzXAEiggMcF5t+8OaEijV4
CPRE2X68VjUWz9TE84kzdDiUpPZ7jWwM0bRKw6fUFMA7Fi4vtCPUVMeVPz4nHADb
Gtya318fPq3ttOg7FjOB8C42Ci5iavNtYwe9PrItsmw71eSkZn0xuF+ZrCI+wsVZ
N5uTSN9TYzA7D2FwX9ZRX721opbC7mCmoRHrT7pXD6JbaOBaRbkhG5cd6f18Qvun
mhcKMmMT9Ca9aqr2NWPfhz1oaOOi5qL1BtnkwsF8BBgBCgAmFiEEnohcAwL5u5Fn
UpwtXLoR5q3HvNEFAl2Aya0CGwwFCQHhM4AACgkQXLoR5q3HvNGzBA/9Gd9R3otA
im8mR2aKSMzl5jT7p4fPL2K9ug47iuTLvfkhCGbqyTldNSDKzZGw2uhfHu+SLw2O
IEUAojheZeL4QwOZdedhYAIcLIYacF0Kl/C/lHAZYeoOia4gKXnpPwTPnH19z5Hh
TyXDbumFNlCJRxgv2glN1OJIaL6Pennhul/nekJO4SKpdezqFqPTDPj8Clxjhojj
JorTp2ITSqZ1VtOpNuI4aTYmr6Z2oJ9pq8z2qtgkNpqpiY3vSAHPiAJjnLuyx7Ee
7ynp4RMl8sKxpIorErzz/82sh2/T35M9rQnP0fAdCzVHkNyhG8ETFPGyXUVpw8rQ
o6a/iq9CYn3HafaTnRMYOUwmv1dtVc1HcHkJK/O+Zp9t60+6+kQEzuJ55LB/kbpa
LVdp0d9fdRnIQilemzcW84EojGFsUX8fxs61Zp5W41/wSvsUuWOjpMT9A5M4lwDu
3F1BdqKqXU7ZGv43ISFk5ZG/pWlcsXg7keedDndKHwIkCjdiNwQz/jwujVpynvIM
jdG/MxhTOcLNpKfkrE5xk/dZphWvIgAxTQcZz0uziJ5BtW2byQWOG4uUuUd9CoYJ
m7gboBUMErXjOuisg6ertu3EcM6McOUUMhs4yFWeT81XUeQ4v2GU9JnM4t6lSfdT
kBh7MoZbJjafaQ1QwoLXW3gUJak4ZcbP7hnOwU0EXYDPlQEQANjRlqFjJykeJ6tn
LJTPrAHK52sy0lhhRHIU8qELwXYLi/ZQkS17vHfA0FYR95IT3PCM+2VBBG0t07jI
KPU6zNo3k2SHFhmJHBWjQzVrB8IBM7UpfRXTljOtblqVmmwtoCyftvGqUeLA7ZX6
rrDFCIGoyqyl1ARy5yPl+diIGdFOEIhmQBu1UiD5Ok+kfMY3FG1XrcLoxJaQsp97
9QT3QB+G1HtmNRjpPp7+iFNdTRtXzKxdlutB7sDFWluc2FpKxqYgQG2cDBbiUkw5
0gbRKt6+z434HERpYlK2S336rVWbOYddbJaJ3Ss8sg/01Ui8RE5QTd1D3FDwiL2O
XqgxLvEAWkGtPwM/snyduhSWTxXbQDYXHw17KtHyC7STM8ypgx9ppzUNS4XA5VNW
i40OwfgdR758Tj2ROgMkv6j+snhrJ/eKmgMKVHLZRR5cZS+kucfRGSk/9ljfVoaE
q3XOJ5WF1rf4at1Xd3xK82tM0fS4hwo9Pgrqi9KPYN2LJiyGZlyR4lP4I7x2ObtL
IW/1fLnzYX8y1zMgI/+pl3OzCa6vwQ1CEAympqyFKp+6vR/0tTGMe/QLEvylmGw+
1epA2ONj8vYIsxyu+u4A7mKU/SshyA65KMHl12JEPJsVbZyjY3RlPWlhJQb+AQWm
iH3j4sbUJSbIjYTqIY9d7AtYiJNVABEBAAHCwXwEGAEKACYCGyAWIQSeiFwDAvm7
kWdSnC1cuhHmrce80QUCaHTXIQUJDrZuhQAKCRBcuhHmrce80RfGD/0Ran/2H9qo
GWexWdqO2XSoXKEdR4yv6MvevJZ4c27fLV5U0s7VjxqKRYvTZxyjIYaDweo/k2JC
HVTWD06fHtLoEejQySeOSjUKCCYsAcvbKeOjcTAsFK67G/1wVlZ35ODNO6T+22gW
5kZrC70poWY9xlHdYqpROx8VIljD+3W2yjS4IlmYy12KqZmfQuotMl87RY2WGk5A
k15Is2kzlpPxID3xUbBXuz6BoZeoFWG7xrbHktBkUxyFyhMc/lo7hcFV2EGDk4Rm
iCmnMYDossXyJ6b3hVL2LkIraWC/mJ1gH3zg4G10JJm0w+3aCmcONF3MduYAx9lW
W5rrOj3JHObfUwhfF3Eg6t0I6ICz4ZNcut8BHZGrYvpXW//1pkOV0HxZEzSAFU0H
YymKuiZ9OfjfwX/jtK5LJUPSBYRxvAuhUN3TIKYnNwkfnh5AwjnoULYAxfftPd8k
/+Ky57TE/krFKhSfwEPcWED7Y0w5EBEQHO35/kBEw4WGGUkpx7xEb6vk5n0lqe4U
Sp8w7OhYsIXiRRczuWJ3WiMWixPEJx78/QDtY0AqhON9XZM8AS8T/XZBR9DR1L+m
3Q3aK+15BNk4obBniqaoTP36avuygNdYu8yDw10DhvudNi4e5BGuHOTcwfqx4Ppm
lE6xtFd7z7+PwY4aqrIVoyBUwhCpy5CCc8LBfAQYAQoAJgIbIBYhBJ6IXAMC+buR
Z1KcLVy6Eeatx7zRBQJkyidGBQkLC76kAAoJEFy6Eeatx7zR1zIP/jrnaI77iHsS
A9JUOUbW188vaF51QHat6ZW3QLZ3x/0BKjxAQhzLN+C/FxtEMWcodNzMymabaEMQ
/84ZodoAplLOBW5NrFnU54LpMyISwQP+CaR4WTzqqQB7pxhlDNYLP2R49602PgCA
bOFQszHFa/o+I3sAFqTOyYw3MAZDs+fqZaf/Z3Ml/9GMpjLeLEkpizoWolC4gRFu
YHFRfUmC+L55Tz5zo4MoyYX2X6TvnwhbIAbtdgsLR5LZSkDnFIlo8lySVOhgy26W
h2RK8s/7YUY02zB44mVucOVjtQOOa4MTrQd8karQH13kAwZHZxaCa8fTQzuQPURo
ry7s92JVp/0X46Vehcp0SxJ5RluQUd0x7GQR9CBpTwvxwYFA6Ijk778/v/nkG/kJ
jj4Apb+bN25h1vm2qr0a4xh3jmCHooZR9d2iQkH+HgU+LpO7ohTVtJrYjuP5FoFm
N81vwYiMppk80vgR1ydq2IUZ0wxiVGS1Jer3etZN0z+n6zJDuErOjpyBKpziTqdA
aOGTQX7Qfj30R2digTLK9R7mQg517g0Y14lBSmQWx2vg3nuDpplCl9ZEdpE1Idb3
1afxWYR5k680LnoOayTHpucYKtfu+VMGqPEJ5Z+DgE9oYgDxf0/8iWNpDqwuJssK
ogjeFJ8UifmvpT7suOlO4W1Eq20QQxmVwsF8BBgBCgAmAhsgFiEEnohcAwL5u5Fn
UpwtXLoR5q3HvNEFAmMYgvMFCQd45tYACgkQXLoR5q3HvNEgOw//bUd94u94Pq7v
/GXacl/PUoAdVNufoxULEC7SpxaUmZr5T0CXaA36cSgxgBiTeE8HY6JPJnEGMbqx
ahfIZ3P7IAjl7F8rQMeTKkeEf0tjh75hOxPmVmVK9R26kSspuc7D2RcqIWigin/d
I0l+PjpWxSgNm4pydkbei0RoUQiz6w2Ian786fH2FkxdrO1+d/VVUtymfbXiGrVi
QA4XHh++s7S5tdl65X6KZX1LQTIy2orSRLr8s7ntvkoi1GX04jjY2Jp+28KMfEdR
UUZjHjULNXj6Hkk0nSAs79XU1P532I/O3539o+SyPbE79teyoJi6ICKmSLXU7HCF
lpqdMuUJxqYyqw6NC4LsIITUwJBsXXJ5bjTaZZ6k0BRZOuhjJuIPMS3RVe7smfVW
b1s1MqaXuvVJDVZ51tXFH9CHLcX6avi3GdBCHNIFpLFWEwwz8WokP3E5nX8TDHm0
4cM6zc9zhgtZhCnHeKkD7UZqnrkH9oRS5gAOKejMqjJphnc+TtD8RobudCvciNFj
0GnGejVd998eunEavvlWxWGWFnEu9m7wviL2MICrUvlO+h2oTCQxH2ihq4vRBauN
hqDsOyg+fg0aGTv/mKaFaLW2tV1lJNsK2CrryiH7uA8BUbtePRY3nbee6UcTR3wE
xWh8CV/TYqeABREP1NUzf89+HK3h3RXCwXwEGAEKACYCGyAWIQSeiFwDAvm7kWdS
nC1cuhHmrce80QUCYTcfLAUJBZeDEQAKCRBcuhHmrce80bKTD/9NUniqhy1WAeNJ
oo1uQqI6Qvpg3+eqn0aEAE58i7BYd5tay19nsy9vZRVUnNeTGWovnBU6zpuk1yqf
NgEmcD1opaPxdsNjxIGG2qss0xpVJRBRvJq++FJHD3T7ncSue+IA9L3Ueai27NW4
xY51KU8AENhnh3GXp4uRSYfG8HRTrDtefiaIY45yWeFs2ZaHVnxD9P4ZGEkqjfai
iVpoe+mKJKPkCfVhG90eeVzt5FXQjJsZ7o/EgByVbYKEq9b47C79KwPOTArD9Kyq
5a1INLiUKzOU95jjUrepuLK9WMu3R4MsHJ/nVnpDL1Z5CUsFiNnG9jyJbrYTbqVI
H1A4uPvloiEjHZ37lnW5ruFj4nM/rObL7raemkQ3Z+H2z9z+Y6Ov4fqX+6FG2/r+
d0jrfw0ErrjFsIyxHz5YimZ2Oco85Y2AcguX2b0Sfiosqd4Iepu8kF2Ap5kkaHhH
D4bJ+XoE6MwFFlqJ4zeS/dPWMDjDj/UgVOx9BngKrg01OliZZImGm2hhvTkjPrDQ
OiIsRDM3yrskIqVTO0tOVEmbvjwUWj8WWtbk/RBu1hYutE75LIPPXnwvPGqdjq2/
6RmYvxZR5OhfYYMCV/EwT9JEnmoKECVAonQ3LnUIodZ1zXVB2kRUvm/eL5WsbH4Z
o1MAdvQBoE+oqpgQGCG/YzRLRKWEXcLBfAQYAQoAJgIbIBYhBJ6IXAMC+buRZ1Kc
LVy6Eeatx7zRBQJfXzKmBQkDv5aLAAoJEFy6Eeatx7zREMUP/An9ilDybh7jcDlL
Yf80xGbtUGDSr2oTISUFqty/q6gUm9r9tvsGXjBIN5InUUDcgFo0WcaPlTJ+oQE9
LfUWQWySjlvA0j/3MX+NQ/kC7sKmgBS83Vbz/66JyAsykpbX/yiE/INsY2K7Yy28
X26mLDp5RZXVwMyGpR9CaWqfJydptrt3pStXE1EYwI3/up7vnlsjhZtdyXi8HXhY
3MAHiwJ6FDZzgYqqq0Vbh1K5HhwB0y6VaQE1Fmx1Txt2IUziIIKMs7GHtfa+D7lp
U+R3YC2oJgLIBL7XPEjFh331L51kJLxLuY1L0f0gwbfER+4OZ+dwB545ZHBCJoXh
oiouL4E6zmbUgPUTaczOCSAixLKM3YxnAPV7jZdxa84XP/3QyEKcoMcOQJvIfH/q
4MK+lTlve99sYXjAsQWz2QxtWetBe/Zb5+HUrva0TWZGvpZ5oPSS7hludL5Pmy9A
8mBGjhbSkV7CSQ9CNpymnyrRqXlcZ0vdzl/3qkMIDuNHg7ViAsOWGQW/g0B8os5z
HppCKpaCFzTXIO/Sg155FMKMQwobXq5YybJIkE4WqDdX26kUaYrXRJeN3C3MgQb3
BvLNN+4sKAVA4MgiFd8j34v5AUHjTSp8jBfIQjCMxNZZsCbHhOz+AfX/pXPrgd5r
yATwlwsgjSTZkVHHtamYn8SNY8tmwsF8BBgBCgAmFiEEnohcAwL5u5FnUpwtXLoR
5q3HvNEFAl2Az5UCGyAFCQHhM4AACgkQXLoR5q3HvNG7jA/+PjqHGoVMovDUlgS8
u450tu8k94bVQjXoMqbdgx5mbqDirUrK7RIlWQWlyR6l9v60GrM7XoOTRqFkgyS4
rn8P5dN6csLbDJDaJKu/DGQ67aHIwFtFbNGx8tkNT75mhZ2cD/HZfBN24LsbSrJC
TgzuuyR72EcdWZNJC9LIkM8zTox/1Eve5uvlOv8qy2Q0wjzpLOHJa6HfWiypUnBY
2gOEGsd+sZhMjSXQjP5zRMEmvNlPfFdWi0GM5FXXS8fK/ajjJ+4uocUa1vQjZFKA
VVr0drR+cd1srSXsOZGa1eBlAf9qhTVlSruaDj4ac4IS/WaNdXYt7uEOaHnL5+Vx
pHCY+GU6x1CUn9Umh4JGOVoz6nQktt6/H0vQdmaThI7Up2rAF9F2peuoZc7Zs8DF
/hlwUvaBn2aN4TvYkmCNc9FB6aGN0PhMsXD1PEu17gHeUVeuwnjz6bAOM+jJSMuC
07rI6OIDiy7SwhLD7xnQOMUzcr4CPCP4AgmaUZ9i+HstcFPIc9eaAz+qUhE/Vrtj
XGjVhGUqdMYRM5KVdq8mz0TjyOAKKqqDl+kXDgN++7c+D6RlKS3r+C9HpHETy8ka
vH0n9fMTiGn85cJwQSJyuHH27D+tUcMb+MninidMD9iNOGoV9+hmTcI8RLeDusLp
xpfdkDaNL++Ht9NUEkoXyg1rqkA=
=zZKB
-----END PGP PUBLIC KEY BLOCK-----
-----BEGIN PGP PUBLIC KEY BLOCK-----
Comment: AF51 1D2C BC0F 973E 5D30  8054 325C 8E4A E2E6 437D
Comment: Adam Velebil <adam.velebil@yubico.com>

xsFNBGHdvVsBEACnkTpVr5T1Tv80WHVNTTdrYaOwS6JnxppYXuwAOEK4aAlrSfrr
klImLqtl74DRd9nemVaDQxQ02za8y1ItgbV4gt1D4Uqx6pbt8SVawOrWkWGuMY8g
j4EuETNTHT69AOY/pDNHddY4PTvxFV1P9vjosAI8AmkMNlumozcwE+RcOfk0pEZx
Nlf0SomMVze3hM1A7Dp5t210llfOtRT4eqeDK9eXtkdQOal0HwR5ZZi7bTWpVBOd
HAut6aOpLrD9Znl/NIquJ5iHq3DbcieIqP2tg4U1jdyKfUakrirrQoCJIkOG6p2C
9PObZpU1LISQ7hKv6KKrD2O6lCgZQuWpLeAsuIXfYTVcHZbtV9Py1LomaeRHl6LL
tRADkm7b1EIMTeE6eLCIwXXcoKNB4vqm5sjCo2cNUfXnFzEtEKOV+T+mOAeR5RDs
kyiCzoN3lkp2o1Rz4ipryPmVPqzJShL128bXa3Y++DFI+H4Bunf2BPeOkq4WBaau
4QlxKEEBgib2uoro6q6I7UId2vpxvGrc00D1tGm65zRYgoP+irPqIEBOC7lcVBxp
GbBG5mqMtG4KDdAvoldwF0mpX/inyPA2tRL5vCtul7bqXpv9uOqIs1gR2Bc7hHHX
zlaoNUJhwVjjUilP7Pn4i5hz5EDTKviU+3SummFJX4uvIEDTtircFnnp1wARAQAB
zSZBZGFtIFZlbGViaWwgPGFkYW0udmVsZWJpbEB5dWJpY28uY29tPsLBjAQTAQoA
NhYhBK9RHSy8D5c+XTCAVDJcjkri5kN9BQJh3b1bAhsBBAsJCAcEFQoJCAUWAgMB
AAIeAQIXgAAKCRAyXI5K4uZDfeepEACh3JIxJQjYSLqkT5nBQaDnsibXxomQpjCe
zRLkPOTNbbL1SIpCRVVpH/RBYiVaOVmKeE9ezYOWYQQ0yXfTaKdLYme7i0IkmS+9
x38fvVwcECeNZSsNzHimXf9rNPcZIUTnR0TVri8UFu5X5veDVOGY2qUnDlP+9WRL
7X37dDdhgOl18oyUnrQ8U+zAqiDrzRxIjASwfeKCGMz2aCFwptZsW3AZ9zlNMGHm
syC+0aCfDVPGP2owPPbYPYefHOTBOQY3Q+gw5rPKTkQMEOtl675wGE/mD+zwJemS
D7hRMOwgQd4GOODVsyQzduOAnwSn9wggkABrwYDpd3D8UJ36k7WljoJmxGgFBd90
8sEoWpq+jKArhWDHAtR4XBfCC56FSGRJbTJdz/9IhXyIUoG90psHNhiajheTRXkU
bvoKwWvorNVR2tJMEZRBIwGnGeu46EXXxT4ZFx3/PBWM+jQlZvve/SQw3Q1W8+Oc
lHgRWrRGP6r0bjxXTtxIF1iOngeeGzKF+xyw/ukNlfK01eem8jxzZwh1lTUyJFoz
SPiCf53VXjsYiogZ03I9XpBUNX684bGwtrQ6UeOtOWWgvPiDihWRVPWs98mOP2Mm
EurNCuHb6KJWvLhNCsxPHBjoDdx1M9sYs7VeCJfOoUujQu3uU/7OPkpdlWYGqq4+
+wzgXaU9r87BTQRh3b8DARAAmh7+Bmc0RSySAHBQMgS8dYzKsRgg2slWx5laW47z
pBC3PcXcOovfRpSnBP/ZRQDe6oDgjiILH0Yl7+uPecv3azqbG1ztanGYE8rNGap/
oOMZnh1SFbRmEeTgffQCbah2EJPtgliwfpJM7zNaKyX+jb3garvqgWoz2SZPkPPt
UWiedmh089i4YVaYK7HnRcrLZVBdd/VwULZVgopH28QkJv73trfB3hORBra51qw2
AqukxJ6MSFHDvze2RtPtJkZUfzDIzmWJyup7AgopV98A7rafma2xzeq9rWmS3OJb
sH9fKlrmDB8w4OixuliI+KU1q5DbD+5PRbi6jGlAj5xXH2Rpa3gmcr2WMbNCPHiw
W0RTHjo1CfghJPFgy8FXg26C563//8KIyzlxIwER/l//bEjdU47z30JuIXeHJpgy
sXuzPpSFklCYZoT3MzqFrebFjw7ys6K9g4Y6Ar0BnKd6phNQ0spdZg7DQDvmL61H
y4Ez8uhmKp2K4aii5A+yVzBh5VT+b0c9RKwnc7kDbWWWDzsSfFxcnKvhZDim8zsl
8z4xkipm+cEzAPT63UCWbjv8ACnRmEFKGiV9LL0/fS0PtkOvJ/ui0AVWr6/Ni6AA
PFY7nWEv5x88NR9ego28QXDkvJ5Dol0i83IJRU49p8PidqFwYPHk6v4METEjNFdS
8fEAEQEAAcLBfAQYAQoAJhYhBK9RHSy8D5c+XTCAVDJcjkri5kN9BQJh3b8DAhsg
BQkB4TOAAAoJEDJcjkri5kN9WfgP/j3mHc/BrNWWU3rKhtF1QnMr45g+ysmkk8mk
b7/C9CrT97nUEEvfxWfuifuDcwkM0BYeqhcVFx6uUyF/I4y2GdkMMR8fEyxwabj7
RD+nLhYUOOZaKmM3HoRQKrDinfFXXZoxNUAKO7l0GBG3R3CCY0URpQCT1uYUPZRx
tOiIb1YQbF+2T9Aj4iHQOzRpZJlw9ZjqegoLCShEc0CFU2Y80zu5u3NtoUSEmlug
gWnSCckX94ap2Xmmm3lYw8H+xsSarUikVeUFVvO2ne+DwWZ2wS31TAGdxxU/xcKr
HvI0YzqRIxAth4BxE0IxiCqboIjv2qKKmoCHAjfVuWCLwNCfePkyQs5vGjqBQ1+K
1lKhFiFQ5xOF+UMe/rEOnxyFlaP/EZOn6cbZFByxozHee4ezaO25Qz++S58li2O0
bvXQGO+mQksg+AFB+c7CmFcKEFVANGTFmpx3lLHwFJ2jeFsCUH49rywfLVYDom/0
DxOiitvg5sH6ts69zRSFgxyW525aVa8THDScL5bTplLBumjl3c2ygV6cF7cuVDTg
MKndl9PBXBXSxv8o4QPfglAeBulMcCD6guyLt7sxtIlBwAuKS28EVdAqlJEdncs5
dDa736PjvW744xo/ViHJgBFmWfoPfaC0jut95K0JPZpmhwNu/w24JQBsWPEN6S7s
rmQPT1uXzsFNBGO1RyABEADDwLkt4ZyQhj6HQNW/h1suucQyBO07m2xoId3FbwUC
ezuJr4mh6aTxtZTBukiJMidK5r0JYL7W5Ho6o8CRQjKyepvLGzlbLquW53RX8r7N
TXqeL2xYkr71WfIv/VaFaPZhurLKEdo0YOZ/6i2VfontKURjFiquQH/YR2fiYo/b
dZI1XuOvYidv4fysEAREEHkSyzdkG7zAACXFxyGq7q/doRj1gwSB2pgVJBMeHUdH
ZsuiMgN9klgvMKae+QMP0N/s89zzm/CHdCgxa6NkdbIZ3MVRs25xx9+xalpx+yte
1eahLjfjQnRFS3weg8dQ4uAZzM3aummjXXWY3NND11SnhdQihWdLDuOiP76FBCQn
CmeZHx5UYBdHDsr2mBEOIdH1qNa58EILjBBOPsdt3DLhhCsJX1t84WM8g4xoUV5B
yIFcmNpFlK+MgnDYeGfQedVSzi749yV/KFSA9Kb8uPgGs5xsPnydAYpTJ6oP76Ec
las7TOXdXZDRIJfirdx1LZUjpeKn+SD+UK80A2ExpQqFwXi9hycju1O9zYqf3JDe
B/RnhPJ3m4aKeDMQWpO+S+h+LIIZndG2I4JUrZ/wqovbnMq9JLsmG4p0DejtYOPy
qHAxSbFipRsaQ+DOfx8xXkgYVgeWxxnJ00/mrn8vf+xZ6/cG+5QKDndS/KuEOyjO
TwARAQABwsOyBBgBCgAmAhsCFiEEr1EdLLwPlz5dMIBUMlyOSuLmQ30FAml6o3UF
CQerLKACQAkQMlyOSuLmQ33BdCAEGQEKAB0WIQRQhOJTAe30ocmx32LJseSjy70u
EAUCY7VHIAAKCRDJseSjy70uEDdqD/wN64ASYViXvw7Shobj1C20bo+hrUohOt1W
oB6H7uuHHm2zExpkPdW0khOyqywVlnuGdN1O94Mnelh/hKboBup9DfOEJ6sSz3SX
OAUJ4G26APFjBq+rqz4/yMRro4CQjEa0y6m+hwo+O/XuO+MHeMD/tkcrhFriYalO
e+nbSkfDDWFQ/aWLGqMeiVyrymMSbBFFmELxEXh6o9IyWE22Ei9YGYk6ZuzFhOO0
VBlFFIbTdkWKXSjets//1TfSJlc5lzAFEXTB4GVLAjglKOHUItSPsBm3BpPBm92z
En4oL/oFY5y7sr7a8HB9RB25SMofo0PiqlNC+ehwq5XD9mMTER9VQ71sANcmNtan
zzoZMg2G67jVvUyKOsMEwYdbmJjGB787S/L0TpVVTha78hSCwo7h1mc9kBQfE9Sn
lulGIm5JuDjlnCxZaytvM6qObEuEgNW/Qd/sJUNLp+Wi9sJEJKLyTLkVdYIjIAzJ
QFtFTiXRQdaR4sUzM0W+YOYWJQKI3mOvsUmDMkCQKwhV3+P++bWndcXhQiHEDn6w
+8rQ+9/rcQKdzSCYq1JyBWreIl90o55U7/rQZc38OVwVmQUzsa6hzwnlglnP9lJ3
0lhjKI8KshfehrL8Fh4rcTdaQvQ/3pr5nbWg/EYkqnjJ4fusF3pPPubLKuAHSBxZ
yh2TMnhZDnglD/9rVy7KjSsGLzQChf1X61ZmPJ32GxyP88HZPVNza5oWcqsWf5Y8
LqyJEORen0tz0UUcsP/YG57BCl8DBh+z0tSU/dohyythzUo5AD+1oLmAlQOZo3h3
Q2zXRFzanwySDqxM+diMRjn1LzibiYw/SNkyU3v4IYeVqnydXVv3XwrQG0rYK08n
q6WXHdyODW4DFi5LUrZWuL0jFruXUuB58urrgR+Hj4qBo88jN/nPaTTL8lsnImBn
mBtW6ZGWgSzpR4LuE3rnEPrhUjx6d+sUx/4JlJ1U0kdDQBt7wHzpLUd6jKlQfMNw
aUzm9o6jOl0zRi3alIIPfC/+m5d7lyqv0s5j1SALwaVB2OGAaRdKxn5rSlK70dk8
uSFsRME+ZHQ6sWsFGWzniWijWAD/rEj1QlPI2yYsBfCWwt3ULLdHoFclIo6SJtZh
DuWF70LYn0MsJfPoZnC0ca7Zi2mBMFH/ejnQLyY4EwIQsjwmSJx+YwFVZMBmqW6l
f2J50kJAEOMJ0IcBnprl3bKMHXagoCUowe7+y2SHmn4xzk0x7ak7TkL4Gu4E6/hY
/AXPhkYNdfubkpHOeeOQHO9FXl/szzftQaOQgfHCa/DY5xxw8Hfda0skAbOauXIc
356XAWEYcWKWAtow99ki7jeX2w6mALbjVpE3u40H+0Yu7lnMWR4LJqi1CsLDsgQY
AQoAJgIbAhYhBK9RHSy8D5c+XTCAVDJcjkri5kN9BQJnjADHBQkFymInAkAJEDJc
jkri5kN9wXQgBBkBCgAdFiEEUITiUwHt9KHJsd9iybHko8u9LhAFAmO1RyAACgkQ
ybHko8u9LhA3ag/8DeuAEmFYl78O0oaG49QttG6Poa1KITrdVqAeh+7rhx5tsxMa
ZD3VtJITsqssFZZ7hnTdTveDJ3pYf4Sm6AbqfQ3zhCerEs90lzgFCeBtugDxYwav
q6s+P8jEa6OAkIxGtMupvocKPjv17jvjB3jA/7ZHK4Ra4mGpTnvp20pHww1hUP2l
ixqjHolcq8pjEmwRRZhC8RF4eqPSMlhNthIvWBmJOmbsxYTjtFQZRRSG03ZFil0o
3rbP/9U30iZXOZcwBRF0weBlSwI4JSjh1CLUj7AZtwaTwZvdsxJ+KC/6BWOcu7K+
2vBwfUQduUjKH6ND4qpTQvnocKuVw/ZjExEfVUO9bADXJjbWp886GTINhuu41b1M
ijrDBMGHW5iYxge/O0vy9E6VVU4Wu/IUgsKO4dZnPZAUHxPUp5bpRiJuSbg45Zws
WWsrbzOqjmxLhIDVv0Hf7CVDS6flovbCRCSi8ky5FXWCIyAMyUBbRU4l0UHWkeLF
MzNFvmDmFiUCiN5jr7FJgzJAkCsIVd/j/vm1p3XF4UIhxA5+sPvK0Pvf63ECnc0g
mKtScgVq3iJfdKOeVO/60GXN/DlcFZkFM7Guoc8J5YJZz/ZSd9JYYyiPCrIX3oay
/BYeK3E3WkL0P96a+Z21oPxGJKp4yeH7rBd6Tz7myyrgB0gcWcodkzJ4WQ6G4Q/9
HWOmg1mmES2bD29DIOdJ2F8ohT4oCjk29Zg64VtNBoNtPBjXeLlOMAVnlLUw3JQZ
cppBfsMfZRTc0f9siAia07eD2MTmTfQn1IsUKMH42kaKcOdTEAqTy+N4a09EVJec
9v/+b0ay+Htjryix6apiXRoYt/BNiZM56s0y5jCjUK+vNBe6ELDwYIYNL8043vd/
/371XzXzBEz/yClNLlft1ajtlWv/jAbwLObn4DSNE0BSCsaOa6gjjJlJ05RL83qK
6Ff7bx+mOkhmQJRS0zol/T2D4yiOrEOPUXgV/iQccpeKe3fLCMQGEdqHQlMHIBUY
GqgaxhCiJF8SWTUvQm0zZctF0Az/ffIEq2Z19JXR1Fpo7pdTU3SviffTPBqTkd5j
J2QRRvro4Awfw0bArVCFND4OW8pal95fCzXuSJ478LGsb3W9wVoZQW+3vxP3TmCU
/cTfzdn6LVYafbAUNNd6c0XpZdCQXlz9cPWheVnR16QiSUe+FBnx6QbHlRp6orsW
hrZILJXuRy7Yoh3KdNcTUo+05rCZePwmfcYlMXsDZPQlDzR90WN+fRHfmHs4rFdi
VV6CPVJx+rUPKb6dxsBj3FjFruS56Tt4B/a/CYEQxc6LO24f6R9RUauS6HX7S8wS
AcqJNkSmIZ+lGR29sMAu+JMaHL5LOWxERE2F4qa1BSjCw7IEGAEKACYCGwIWIQSv
UR0svA+XPl0wgFQyXI5K4uZDfQUCZaLDcAUJA+kN0AJACRAyXI5K4uZDfcF0IAQZ
AQoAHRYhBFCE4lMB7fShybHfYsmx5KPLvS4QBQJjtUcgAAoJEMmx5KPLvS4QN2oP
/A3rgBJhWJe/DtKGhuPULbRuj6GtSiE63VagHofu64cebbMTGmQ91bSSE7KrLBWW
e4Z03U73gyd6WH+EpugG6n0N84QnqxLPdJc4BQngbboA8WMGr6urPj/IxGujgJCM
RrTLqb6HCj479e474wd4wP+2RyuEWuJhqU576dtKR8MNYVD9pYsaox6JXKvKYxJs
EUWYQvEReHqj0jJYTbYSL1gZiTpm7MWE47RUGUUUhtN2RYpdKN62z//VN9ImVzmX
MAURdMHgZUsCOCUo4dQi1I+wGbcGk8Gb3bMSfigv+gVjnLuyvtrwcH1EHblIyh+j
Q+KqU0L56HCrlcP2YxMRH1VDvWwA1yY21qfPOhkyDYbruNW9TIo6wwTBh1uYmMYH
vztL8vROlVVOFrvyFILCjuHWZz2QFB8T1KeW6UYibkm4OOWcLFlrK28zqo5sS4SA
1b9B3+wlQ0un5aL2wkQkovJMuRV1giMgDMlAW0VOJdFB1pHixTMzRb5g5hYlAoje
Y6+xSYMyQJArCFXf4/75tad1xeFCIcQOfrD7ytD73+txAp3NIJirUnIFat4iX3Sj
nlTv+tBlzfw5XBWZBTOxrqHPCeWCWc/2UnfSWGMojwqyF96GsvwWHitxN1pC9D/e
mvmdtaD8RiSqeMnh+6wXek8+5ssq4AdIHFnKHZMyeFkO/S8P/RFowW0DuYO5EANP
e4mxIlhNkeJMNToe5pooTc4r3HmT8UAs8D1rrRX5FF2JsuKHBi8tn9gO0H8/5vk8
Lyd9OeOXEByXksYQB714ZFUSvPdXvNRkPEWy3p/PKSECOjVekTfSuJWY7beKJ8jD
rPqK1VQEQKrYTs0778teT+uagZMUl5C7wXpShhXIYTcQLZEQEdu+RcMU8fSaIyYS
nNumV+aqtYvkW5DsUch66/fBrUbl4g125uNxyfQHkRweLIRaw+ACrlzVLx7pYMKm
4aaLFw8kaJc++V8Vau75zKuyuN3Azqq5x9LgDcWZqmceYMrcB0FTz1I6UWFJ6SmX
YDqQ9wGpd0m++qka1IRBI/Bw3JBs6/m7bTzunm5MV9mJZsyUUzQgSdzsRilkR+GU
OAmaZdThW4ci5BK56vmMr5wed7lRik6+CVUPcA+yXb21wc8s1WBME8YzidFEnLCK
YXFzSg1dLooc/SYqOwusePN46JjfzfxUn/5W0z8KaQ0fZA6wUMTC3l0T9HA/QypZ
LJfvLHXsLA1I0Hj9UAL8P8NHyOsISTexVIuauLBf3lt2hdvB4Nvcl6mogwwVhkMC
vzcLRbQk4zkM6m8SZ+TG3L815e/AQkcXawEjQzTZywgDVWOKgaNQvZilmwEjepWV
NHx7RZwaZGbhXylIFN7NxHy8l/E5wsOyBBgBCgAmFiEEr1EdLLwPlz5dMIBUMlyO
SuLmQ30FAmO1RyACGwIFCQHuYoACQAkQMlyOSuLmQ33BdCAEGQEKAB0WIQRQhOJT
Ae30ocmx32LJseSjy70uEAUCY7VHIAAKCRDJseSjy70uEDdqD/wN64ASYViXvw7S
hobj1C20bo+hrUohOt1WoB6H7uuHHm2zExpkPdW0khOyqywVlnuGdN1O94Mnelh/
hKboBup9DfOEJ6sSz3SXOAUJ4G26APFjBq+rqz4/yMRro4CQjEa0y6m+hwo+O/Xu
O+MHeMD/tkcrhFriYalOe+nbSkfDDWFQ/aWLGqMeiVyrymMSbBFFmELxEXh6o9Iy
WE22Ei9YGYk6ZuzFhOO0VBlFFIbTdkWKXSjets//1TfSJlc5lzAFEXTB4GVLAjgl
KOHUItSPsBm3BpPBm92zEn4oL/oFY5y7sr7a8HB9RB25SMofo0PiqlNC+ehwq5XD
9mMTER9VQ71sANcmNtanzzoZMg2G67jVvUyKOsMEwYdbmJjGB787S/L0TpVVTha7
8hSCwo7h1mc9kBQfE9SnlulGIm5JuDjlnCxZaytvM6qObEuEgNW/Qd/sJUNLp+Wi
9sJEJKLyTLkVdYIjIAzJQFtFTiXRQdaR4sUzM0W+YOYWJQKI3mOvsUmDMkCQKwhV
3+P++bWndcXhQiHEDn6w+8rQ+9/rcQKdzSCYq1JyBWreIl90o55U7/rQZc38OVwV
mQUzsa6hzwnlglnP9lJ30lhjKI8KshfehrL8Fh4rcTdaQvQ/3pr5nbWg/EYkqnjJ
4fusF3pPPubLKuAHSBxZyh2TMnhZDjXfD/9kLuKhHT7JwvNNA0os1/82lrxT0wGf
RXH2U5FaRjJg2RQ8GvePxo94rULbP6YP3h4YHGCupXOF/0gB6kzjlCWQZNpt/5p9
pw85IBLF1i4YsunkkzniWUUVQus6/tW0RaSUx9C7FqJ/FMcFvo1R5uUYSV/NdgpY
uFpTimq9hDQ3lc3xpx7n9hL28GpkHoYRi9ZUlmNQJDb8ipYmG36b2ND8tl+SQ0Ti
ZyzkasXEBeeds3G4IpKAWsN7/inMx76hWYvG7vxHxt69GjwUkI9fOorDrgv+2vTh
WqeQOVpd7bYp5XY7lX4oAx/z5YW6vHLfR4nes2FR07KD7liNOlbFmNUs46Qz7WZF
uRLMpHkjxBF856HH7GNOEVJkcrmwqiPXHr2eUoPNi1aNGnNtJxFZKCOW/V7hiiW0
YWW9ONHNdG5+XgqCns0uLfvjh9z+ekwzipXRCFUqFWN9SaBSaxo9oxtLLy1viVIL
TAGcxM5K4GQ8YNjgvofQBD2jXj2Ai7dSQora1faY5hzIicOWCSwLbCvS214OOWzP
za+NhoeSV+JbANxDC24JY6sgx9U7JoMVAB2qQt+RSTIIYiAxqvLJPiLb9CZpuEKe
EDWzea+UgS8QqVJahdx03oKRQcQy4kvzRxsLKAbS21TOZ9WJeR5r2Y4MrNka3hvq
f6/g/kprGnFdAc7BTQRh3b6yARAA1Htmiv8BgSugM+yfr0OP7D8jG6s+mkFbiCRQ
jnyhicBEEnFzmZg21v5ncIMtjdYpBdTRboIp4lo2+6Coxf/QJZ7+5a8OCt3UCc7o
GfBSxAhRn8JOkkItu0a7H9mYnyqyC2KL3wtBW74wiey/f2Wsi7CU1vuS8SrriYAi
fLjQp7bXEEo7ACHE+BcXcPW/qPrro+p4tP+C4ZjUPTLWyKCA2oscIXbds5roRAuD
/eA6bi0TFj36KBQ8B3CPiGt3+WCvyC/xhWdCAeE5czOcmtaLg3jjH0qYNZwdqLwo
rkXvzwvFhf43U5lYmVFMdTukG+eRyQ8AHkul9I5zJDIVd+cjcnHxqK+vT+WusxXg
Bp9mkTNGGb3yHcyNVCQUDjt/jPiYEEOAQ5zybe8gAVbzaysug/+yVw70B+HiWesD
f38lKj8B1Y54HC1xdHTeZ462XemHwJO/VbeoXq2LwGMHbpIto35NfEDU0Hpz4iQW
gX4IQobgtANPPOmXmMAOt25fDOhYEC65k6q5sTCUmzAcUP4SulbWpj1qEo6CURTc
itsLlA1WSYIlPmwhLNwhYsF+0+pF/t71vxWJHQTAmqwkkRjQiWpLhH7P4TKxcHGT
vepwO0krhBhLia7Qqn4op7SS2YhUKWOXGPD803DWPVHDT2m2lqVaon+500GV8kEe
/4fLQ2sAEQEAAcLBfAQYAQoAJhYhBK9RHSy8D5c+XTCAVDJcjkri5kN9BQJh3b6y
AhsMBQkB4TOAAAoJEDJcjkri5kN9Y1AP/RoBFaLi6prjMGaCxdfHzOTHVIyJQcsh
WvxD03fbZy84UYM1iY9aNAoRJfZ6DJFAwjy12zuVZPxb3rBEouuUYnA/k/L4WAXr
FSojAMzuAylQ7JJ5jTUQIXymb8qy13G6Vkfq4epzPNfJcGEhrMV+fyp4i6Uqt+kh
Ewt3zcOO19BRYmLwIfKAeddtHLIuOl3ZCH3fE1d3BxwjFDzrKfTZAGCRvsem46yC
UgF1LNHL52T/oKrwB/Qw/T+DI+J+66DJoLiglLD0xcdPh4ej47DXua3sjFufKQUt
dQB6vk1OrnVP7j/+SNqF95GB+XJDXZB7g7cufFYOjrne5+KrUzrOGkJHNjVMMPU+
IIjmA9zIAV2Ei8jjAGyo2gSfv9PStgGxS9rw1OqiRvmt0ZSHQ2bMtWdkNAaJSAik
i4TRWNy6cvIiZsuL8OIbk5xtBWcYtCMyiYodmGnhs2ePrM8qXp08lWeBqYrWgqXO
JqSpjEEPom1mdm8MZXZ0KJ/zHjmbEa9rP8RZLDAJihYxQfnHRplP6rLUfW/Bxb7m
kbtZpeF9hbP1gsekw2qibZnvWfrEMwoA9s8LBfWHn2BhQgn26CQDo53D4KAgUifT
1nRehQACzz4KFEMIL77rzZZU86kVVN4pGXPZPFT/2RuYV8dlUldoMoedxE4+94+E
xjaK9aKY8SFhzsFNBGHdvgoBEADXHE0Fv2KxKeT62gBfpZebH6iWib9DEo77+F+C
4creaok8UQ2eV0VZ7gpv6UF3ExCHtq8sbwY0J6Viv6vFEleH5JQBcicK5+OB4ScK
QNohXThPJESxz5dQsawTjzBYea5LKFPUnJs2Mj/QDhVnqlXzyvWI1Ro7u2UEvpdV
KoOTtMLgDtg2GpEYX60dxObA/kSCoznE+OVaAZpsoICiFwR3LT+JTBdsGDJptATs
jtaKZVu5lz9jGgowsOC3h8GPzUN92pasCdOTVqD/ovgGYHe8Nu3P3TkdmezCzHuC
SHDMX+IT2CQVOQwZZc6Men0t+I5D4NV998eZrFf+thEQzdx1V8dVu99/w6HqS3lB
VEeR9P/cQCTvOyYkNFRO83oOqtNCXGYSUyO8FbDLDfqqA3zrxNQT7u6O3V0VvKgi
4Netwhgie71jvECFTfbUDWz2tZiRBbSuIHYuGeHJ6vIAtGdM9qBdnC7sV9l3BlLG
J5laP6dU4OdTP+R0O5HUaFJCiryjUuSG3p8hDStEhbhwcXh9pMMZF6vYjfEXi5vG
PLaSuM5WLOQyPtRimyHEoZi5RUJ66arJvWI4xU8cVZ1NaVDZcjYgxxAcB64tbx+u
UpD5U/8Cl0dOhwSrWpsJIOb6ZlSv4122/PSFg4AT0PsKZzy3/+p+Ps+GDDhd/48a
O4uamwARAQABwsOyBBgBCgAmFiEEr1EdLLwPlz5dMIBUMlyOSuLmQ30FAmHdvgoC
GwIFCQHhM4ACQAkQMlyOSuLmQ33BdCAEGQEKAB0WIQTW6rWXOeCan3x3caysbWud
cV/AhAUCYd2+CgAKCRCsbWudcV/AhGPCD/9RXec4CdxVfocEP9cnRURtp8biej/d
UByocyYxD3cHQMgU/IXcSgol9aGeYyiSslcLTdb22eDzC+QSt18waPJz/ipeYQsU
VYNz9ZUWj3DBHIxVp4uY6uD28dehB5noEjvOou/3ULZ142oO06yhd79sGSd07TzH
JpJONsgRzawua+mVE8m+m/t1210WMPgDpiRVAYKO1Qc5B+jhGzh5uJwC3pEtAc7x
q9Z05BA3q2pqsAufSq3m6WYOuQABRQnyiO5BzfHH1pBwkNlDwGxYofqAiZH9TYIb
dG4SdckEIIXvZdUpnKg93kFXU4cZz288xXlXR6vjdup6uPsX756xdWPzG+yXpPpo
TuWSfVPIGxTkSfoRh14/ASK+jS/ueYoVdD1O2rJwFDSxDYI7SHUPi8XDWbXe0g/t
AEwc8xp7w42jy0atbNsQo5yNu3FsqnYp+gKu0wH4dY0Gu/zchXna0cKAZpIzfD4g
jSTomwdA3bjivJHpeZsUNdRsHEzEn8yM9E1uS+6Gn0zW92jXzK7e8/1DKEa7E9my
hFCpxxWIGu9sJqYiJAaE/Sg0OomC+iAa0K5+mLIi/IumGEJ6kue9X944xB1ph0wZ
NE/wgA69XhCFCporQ1+EqX+zj6ns4BkzmNb28FZ6ukWKL6SlICLqwI7zmsAmPjCa
rX3EIMx/dnFY1S2nEACkpI+jwugt8F8nXQa+2xesCXvaHTeuY20XQ3g5R9htZcUR
UGmvdMSkwnBcTNYiywlRbS3M0kc0/f1uJ1JZ9e4M/mykoDEu3oPToNN9Gq/rOmCV
kMdPxOH0P+u+At8mi9AUBnqMODjZUQA/lZEWA8r9CcJyZO2g+yS7dbXLWCNNX43c
2Qc1UUEu15fNFuVYNcNgUycIuu9FktUERh57i4aIRSmQYyDu/a+pN7Z8aLXsw84X
OclAK2aundVl+aCOchkZ8MWkcQkn8/l2EVDdDO62Px2a8lDANilB4j71VrpZZ8iV
9w1lly6FiUv43rEpUj6d9WoiK0mU4cVCcQKwZ2/vw4LbcuvulnFnUeu40HbQ9aXN
sIA0hw/AI5cnzYU5eS0DxzFKoSaG/Yk0Mt0Q/vFfhwQvHKI1c7XGcdg5WmYiviI4
2b9OCj9cHPeC2pKkfqGVc1uWK/dTYxxpR8fBsZ5uBUErKW6FyIuEnsQNP+6EQNBC
EgOJ3UhWeXr7tcbSwUCo+pzQx30E60sWpbEVFBRzWmDMTC+E7fc8cNPb1VgkKq94
Y7zQIZjyGWIKbTRLOeE/j0tmIqYsCR+a+PUQsmPlWvH/7yVoepwGQq2srKqPPNnv
vOVYPUCfDNiguAgAZluGmb+ihO4EJT2n/fvm9YD3xnfAt04yzjrLDqk6wjM2gc7B
TQRjtUfqARAA2LNLthGLeRVVrv9I97cEiuUNQMxLWs9yakZqxYEoEatDcGzpXjhG
FCHdEdmUYfXETo0C73KAMaVXALKoblk3Q1I2846rVX0a3rs80Xa3lE/XcbpOtL5Y
t72eVQkDAc/qjsd0Mir7Px19k7pB8A46KaNkoV1SM2AksypgBBsi55EHvFhjwFBc
VkTmNBlfouj3Cs7z+JQrArmlR2P1NMGYnxas+cB/NWs1zqxSmBpHlHIGtNj+/RPv
hvyIGF2Ovqi5ujEDrjSwO/WbKErUcnqwN9xoqRWVwwmsZee0kama7PO9fwACh4NT
Izj41z2VqP1vWct8XKwC5cbfp8MpcYIQZW0s0cb/pauMOTSsKuHncO7TZp8DmP7C
aEAPGirOmqx16U4KQRyy4Ja3MZnIj3QWT+xUSb2hSi3h9CZ8qCHZAXthtKegEv+4
7JlIoHitkGbMTYFwIkklYFt1clqlTDfGXdqZacZKESzSseTkFGh1XQCQStC95E22
Hx0bg31xene4gE24tSRndhaz1KZRKz+cn7L3v6/kUdboLkdJLwLiz6yQXz+Wkp6L
r1W63GnbKFdziTZo0hb6UO3aYS2WScz6+FZypAV0y9tURlKRbSflaFkoxsJrwktB
GVmyu82v9ttjIhq4gHipEB0BGJnWCb+FKsiOKGmwOucyD8oCyBMVYQ0AEQEAAcLB
fAQYAQoAJgIbDBYhBK9RHSy8D5c+XTCAVDJcjkri5kN9BQJpeqN2BQkHqyvWAAoJ
EDJcjkri5kN9dUAP/jDlsjZW5x7Z0ZcF7vDHcfp8VER3omWVASyzk3DoabDPTVvV
pq/ccJQnRzEBDDMNb2uNrIdqYHu0cnu7Mqy8yBZgbVoz7ibKpipAGpX8kPSBCFZp
Gk9CSwdolBiDA11KN4Ap7FssHyjQUj081beWP9HzDBePJp3qlc6ok1lkbGDD9VIb
btJ4q9TAYUwrmSW2XXMoz3ri6tvNBqL/F1lfzHCX5h5dUK8njZLJ4peFXld+bRWi
SPbRcYYKdmmlRaQkrjHcNDuPqy1mu+e0M0S9Dnei9KlTHtdo+XIfkzLhK0PYHj0f
6/1kCjiQfXGqd5/4KcBrZCQ5g8kJ2a3lroPRv5AxEKxGZlpmx/5BWw4U5edrWQmd
m2NHxcKbVOVO8D24cIsuwLCyAQVg13BKnFIYyqXHiezO9yarLXhnMMXGorfXubhR
7ILUe7Ta8aUE/Jh5wSKp4NlMWZOG1esLTBs8r/iQzeM5/CpYW25QkAKvjvSsIdR0
H+OYbCOlCIhLKqrRpXNTidanaI0tjwmzPRqWXOo0H+42MS1bT8nazlMxZM2mWKS8
2vLKKgCCsSW6HFVdPYcp9R4Azw1s9Cs3Dhsd1Dnmj/LIVuKL7BAVIK4rMCRtLTqt
ap4DBdcJWNhqidSkpRHUH1Jh5aso8dXVs8EjChLNjNlEkyZOZ7dQRKNiLPBdwsF8
BBgBCgAmAhsMFiEEr1EdLLwPlz5dMIBUMlyOSuLmQ30FAmeMAMgFCQXKYV0ACgkQ
MlyOSuLmQ32itw/8DeOjvOrJ3kLb1T3RbXYxM9weyESdw0RL69Hxw2MYlUoSo+uO
wUfdSSvi0TT6PksQTvXIwv26typhUhJLDCrCl4wD7ySBKXKRHxA/Jal6oUKbmdmw
mh6WF6/Cib79igajGLDMUyZiM68gUW6zi6iXGagMUDOWkw02ll6boI/vRkJjKaYJ
zWTT+oyzbXqZ625Z+XdBWv0JDInYOOi1YbxE00beFmBpWPCkjtwaDKGI3SkJc/cV
E3q9DLy7W6IKT+fTOysh1oPOl6S6esTx3pnjN3MXJ4erSAxt9lMIb3TO5t0gLhd5
gKFOuGdA4c2/VrBIjynTgqSIZfUJsHAeRoTLKtVRHX0Bh8OwFFHszuVD5k6eyjrS
k4YC064vJm3D+QTFuaEaOiUSEs9hfC7mv832dvb1zaa+lFJHidvvExnC0OCEgA4D
wt1ZXYYWOV6inkTYu30fJvGpr77ZhR+Iz1onc25XWvHYodVzD6zHgeIOEr6nTN0I
K1qYbpyN9GkiyclnNoGUY0LEIACPaThzwtnJ6GT7UwvveftyDeDdbl7aMCRc5hQ/
eqtwg9KFXfdEHw4FI3J4NW/jJKtRERDriEbFHFEZX+kU7D2p8cYdDL0qgQI+9/up
W1jZ1tuPc/o/fbxR3+TUJxpC2RHn3upYVWIxtsnDOP9ZiPKIxYq4HxrQQpPCwXwE
GAEKACYCGwwWIQSvUR0svA+XPl0wgFQyXI5K4uZDfQUCZaLDigUJA+kNBgAKCRAy
XI5K4uZDfUqaD/9ixqrl92Eyy/1H/vG5MxLX4VbQuBk76FrbtrsU2C5VMnchiRA/
HjU6Vbjk3uy0uinpHo/zv2a3Qa4NqorMydfYIcTCBcM7xhDXQROATbnGikmOyTdn
6jQ4UQNfJsHesc7ZvP2PfaOSfOKEXbjJ70/r9CPkFJ6zjLq7+qKghw6A6uXxeU6S
qghSz0i0B9ybBhE8rqRaMd9l1RpAgxDEXUuMxOtenkT0s51dPhcyZC4dqs7jYsa3
wMdA6UAvjdSyDyoqvMeRE0FV03Rs65xSpgmvMakW8n0u5X5nMojXsCZGGmnoPYwy
OfOSEDvVUKucV4ZmlkD93+8Q8x82LDesXYfoW/AVRMFpuI09Or8+32lUBYnjWk6h
CN/Tgo4I7hO5CilcBEVUi8cKrQdVDs3VQ+/5lB/Rg2NBRQLjmqpCVhCbeWcf4xrO
1py+dN/QmxV4tLHELTr72DbRXSBOiKSZQCb9acPbHUtF+V5CKqyezjytSo+XWCyG
m5R5bxVLh5baPKD5ykdFw1jC/iCOYP+iATlrUeliXUViLrgBj4WRxpa3n6C/RQ0M
ZD3W02hMM3KrYf8KfTXOC2N/CxHWoaaxWn6ZkpTIGyhP3PE63rHAsMf/jnkROEKv
pMsw2wRcgkwd1VDMduu84s9aqoykNfXoYENFPJo+laRfCalHpuLUWzGJwsLBfAQY
AQoAJhYhBK9RHSy8D5c+XTCAVDJcjkri5kN9BQJjtUfqAhsMBQkB7mKAAAoJEDJc
jkri5kN9K8cP/ilEl5HzWktpWQOWIb0mjtx7w7lchhzKihSweEJM0oX2KPqGOk31
KXn75C+em4kHusAMTw1tl1uonLJAmzSRi6MKbBVYJo3E5Rf57S8/TtU4wGwCiL8I
lDxUx7M3CX+QLlJKAtazlHBZ50ZA9uXIzjJf0BkT3LD8yuLp77a0eW7hgsI80BcR
O8FWO8G7xEZaEHmruBEMt1tVbW2MVPXU5Mt2ZPLtj880mN6FZgJGMclZmtGbRZ1j
pt3EuYURRp4NyQu6j6IWoRzupyu2GVafo9OISmz+PKYnPxG3x1V3euxHDUA2kAeP
unkVUB2u+zJdeUkAsHXvpcRzrcX22IXV2PpU6/9L+YxlLn0VsV7u+ZYlM6ZANP5c
SGRWxOeMgtHDXzGKdqA8AFtPS1ciISR7Q8kba0Szo3C0hJGMtwBC3i647og30oFk
NcqhE7w457ASfZgKfIFByCeWx8x9ou467kgOzxxwAdzxS0bTtWaka3HeLPnD4G+n
2yvB7rcVuQYE3JRIrMKsl4KI40DZPqGMNMC5d5PE+LcuYxpP8oU7zHBM5BRYORSw
uVtaoku5mcijsNJN2Y4oKApUdr3EsLJ2R0EjvZtWxBootPVy27AdCunGPsQ3RDjB
SjvUTdwyz3lDEUtyIUgxsr0POzj/H5a7cOBfS1y8y/dyHQsJCiPk170TzsFNBGO1
SEgBEADfTnMo2fLgn5ckFlP+7dMenH4Y1OHvy7YC4AKPJJnLT+pj0/09Iqt7HSEN
4CB+RwF2hQTaDtypXz4ebhyf3pB0i+QKHauskpDU133EpY8u5ZU3OPltSD3QnNvB
0vp3m9ZgjG6APLkmI1Ar9qTLVZRarhbJsDim6xXuYYG+zWsVqAG/8UOVaTSpJ+Iq
ZGS4kK3JQCOCPH4KygIeHugYTuLmN9xLVNsaLKZ/yQicelhE05KBGm1jZ7DJJ0vy
L2EW3Veo3JZXYBqq/Zye7TUbdqxuCmnoKHAqxQRF+Uq2sQqKPDSqZYKG4om/YNvS
t+XxddEMkaEcJloUdQxYmx2w++GOejyRvzlLX158mKl4DiEfk+iSw2SKzv9bve2S
qPQ3gPb7KIiaoQJu/DPb2ld3C8Bn9a0tZZuuLlFtpT+pjrHdv5umT2tOHFyQYu9+
lOY8mP2YtqU8TNKY+TAsjOHA0qAvQNdCc9t5r8roTIjlmLvpCOShpFpb/z7PirZB
x132MR3OmiwV/TluLW7A0aMPIQ68Y43AR7Jzfum2UKYRYVvFEmtgXKmhzervzPSb
A93hXOshOdDRPlEN9m0gqkzlJNbHDkk0WM8XSzqwcpoY9LKWWWcG6/QZBeB+3QHl
/69uo0dcfMdUUXRmBH54yf8Sbqj0SFZGPckw06XTqmJMpcTD/wARAQABwsF8BBgB
CgAmAhsgFiEEr1EdLLwPlz5dMIBUMlyOSuLmQ30FAml6o3YFCQerK3gACgkQMlyO
SuLmQ32RRQ/9EBBnoh1jeQFcLlfXPTtAJrl4U7Yb0BwP+ADa2IxQ1yFGq8VTrL5/
g4IbyNB9T8GdjE1am//FTP2BH9Jq+Uz7Myz/xgUq+4gP7O1boTNwkytSX8BmPsuc
ZPApX2R65Lo2fp8OfKQgCyJmXIINkYrkXG0Po/h0RzilOljJ/Y5c0hRuYc56wFuZ
cNduq2CmoMID5IuFeriIYPdaGVuxK+W/GuOwABx0IwBc08EQz4jhH1io7aCzubya
jMTcpS5BbX9NoKLIl/4aXppC8+O7kmTuCaFsvbX78GXk0OoCbq9FDrTNyjxckmCv
QvpxPvxKjWO/vTCF6xtltOCZPtUcF03SjDyYaV15e3NpnF0YdUcJ9SegHhYWtU13
8NwmF++w8wL2mJbQvekklYNUvyCS3+YCfLwUAYYMbTcZbjqhzphdNFLn6iGvgDKP
SZcTXEwlp6G2acnQYYjH9nXAs3ZQSPt/tN1kuKIJBVgL8ZrVEQ60Shghl7hFI4DC
hXul1symBW43sFGQJMm9/voZHP++1ckzRKRZR4RxAt6y+1u003fwICqMo8CA47Cw
eOwCqLbg61G7/Io97g+OrSdO5TOjsF7tdYt1vTWaIPUu3YExzXCDZm411QQHQypg
WKNdG2V03X2PJVoALk68dNWUurL+FPbPTdWrReXRHb0nr3NoeZDo19vCwXwEGAEK
ACYCGyAWIQSvUR0svA+XPl0wgFQyXI5K4uZDfQUCZ4wAyAUJBcpg/wAKCRAyXI5K
4uZDfcIlEACW9RziINDhbgBTmtdzzcEHkeCgxupK7821iATWnix7FWCHkyK3ukoI
/TTvnFsIdJvea3vPEkvEcPZt77ApcIxMKl35cELbjymnOyCl5rZeatZwBCVqlHDR
0VanjkJ0OQDvtJ3G/8hdvQaR5iPvk2VooVQ4HWdye5inEPlUTX68vc098yVqMbOX
7VyaSMVcTgBnseqFzgvWxmGJ3z0LfcMD/rv2pDl70mw5YSPZB3lUvKNeotkG5bqQ
TT/UDU/0quKt+DhaRAcjdQRvwvYyT0XJ5FpdPgdN9IR1fz32t66SWz4osC5pva3B
iQQI82RrtEW+AEQPf+Qm9Z8OKb6hmqHK8YXePwJrZR6D4JeqamHUGAScGIRvxzGt
aoYkmzsU+8ISTApj4g2+JYSSBiUTZUUjTOjkutNvvIBK8UUw8HqGU2dI2ANOIPbw
uJDitAEkRGu4IhX6y0SrczJ2nI2CToDEfCjNmdl2cnDcBnEj1vFopVaYTeTE7/yT
HdzyPRhbiXaBenOudifW5Cy9BMNIV4/86JYg22WGYvfJxzuD+m7my80ANpIfyHpR
vsG2Qnnay37RlAfQq9Lp9S4UihNeCbZdDMkpAin35AnIVYFD/9c7kMYdlbZJAZri
lc73xcHZYCG5faWay2P8p5MiihAVxdibiy5YT0UiyQzBT1mLypnB3cLBfAQYAQoA
JgIbIBYhBK9RHSy8D5c+XTCAVDJcjkri5kN9BQJlosOKBQkD6QyoAAoJEDJcjkri
5kN94/8P/RMwYnzjSQqmp0PQLGrx4S0WxoG3/TpGj6JzbmOJ7220F51bjbXlJU0O
Q1viKIyXPRWItkp1c6n5bWSv84VGtyjJTYLNXNOwXTT8QXHxCUoILiIRs4aePPvz
XVMSLjdF7+7mox0HdHd47/mo/sJmdualwpSa9Yg/0ezfEFoCTsUel0KaZaCDgWxP
xq7qDH6FfaDBJkDQ84W6s4DdGNYWxBbaAPdzqKNQFFW9VNkURaghN7X/aYFvm9ne
e32OHqZ1RJEDW6CO78llzadTYvUD6qZ9mTu8e/wTEKvfDcFXI53GunUb7nsmc2xL
KoqYlqZFuLVfxTcPXkm31yKoqOJZYRrVDoocc7nFYzzvnCJir8u0Z/g+c6y5jALy
SaK2Xg3MH/TwHKNIdkdfj5r3pir0UbMcPQZLgB7Bn6hgRLG4+TlC/wZWbqMUdlGs
wzzCThomnlyPp/8NpU/lgWCLj2ke1HbuzxPJhMA6MdLB+cdRjPK/9Tz/FMwpViKU
8NWoDNyZjjhLeBh/ZpkJdxopQ13+EXtCfcmKld1tUox/Nj4Gr1+rpb0sVhsUiKeC
MioveA4UdPjWdT7r2NhXdlRGGZqto8Z1rlP3RoHu5J8WlWYRGUKmH+97+7qUSIfQ
PA8TPFuh6oArK5GTTTTiJLoQD7TU6RYX7HXeUJEVqTUhazkBaRiawsF8BBgBCgAm
FiEEr1EdLLwPlz5dMIBUMlyOSuLmQ30FAmO1SEgCGyAFCQHuYoAACgkQMlyOSuLm
Q30niQ/+JP1TWXVUJetnr6ekm/gdRRopyMhpBMuy8eDaBHKL88hkE822fab57ZOy
3iTHVeWSjvYEJYG1r05zB6Eqynlhf7IcTJEUKjQ9TrWgOIgSuwwVbgJfaXAHK7/X
SAwd74Lx4NlfWEEl7A6IPbCtRgKgHmNglQ1vl1Qo3HD6o/P+jvJeiaasd2fP7xgH
GAwATUwTVI6DK0K27HLRX0McklY0LIS/hXQVLmAeHx9QYLanspvlHjO1YGWZ+958
lrzFPURS6Dib70VCHEdR95BD42wp7KiVhduR/uzSfYLvRm+bn2aIw/buroqTYx0E
61kZ4Esca/zQX3myOgZo2Yg25oErOzfGB+Ws0yJxnDHgFna8XMYWMBGknrTZtkCm
NcmHv08HKf/plfsgmJ5lzmAL6+fpxGL5zdZdK4+qINBplZ2Oz5okhJHkSiG1MVF6
f7hLWG7wLrF5b06umo65YoyutK5CjDO05RD0EX+ULMCw7hOHebBJ9gCQ+CLuq7S2
qIe5xxPTr8l5xtzNv+QUk1u3xLDULIa55vwUmKtF8Jpy7VO6N5uSEnsAgvw2E/ZE
cTSIEJsqmD2Uy+Z7gXjsWMFztZPy09s+6ORolZC3xmDRYAjsWNAK5pW2wTB9ma4X
n5FBmAq1DK56GIJSc4Myt6PymBts716+ufi0spN1APrUg4dZ5dY=
=g9ql
-----END PGP PUBLIC KEY BLOCK-----
-----BEGIN PGP PUBLIC KEY BLOCK-----
Comment: C28E D375 3F01 B4B0 97A1  B306 948B 29C5 F1E0 63ED
Comment: Elias Bonnici <elias.bonnici@yubico.com>

xsFNBGPQ96gBEADtyfhpQGJaalaa2RZyRelwbL10zAIB82vvnJcPW/JcAAPdkbAE
soKkYDimyFfyQAN1xSGs9agvFhjRZokvEKAISHU8OATrXah09vvsf38ssoVDH2Rl
pwCeOQqRZJQyhbLPogOl0QgT3DDwOsETaK5WTgLTF9Ohh8WESUwIVsnwj3Caa5lf
r0wSogFSiDuQI2Vhg2fFCuMw+gD0Qcbip9KOsLqTtX6B/YcKhrzP6Emu40uH7+k3
5kO/jH8dK/MC8OlVbuNhJoZQ6cKpT22TjBsZsyjRbim79xnzynSfTTtqTJZcjCGh
e2Ub00PhGMkSOWxgj6HFN+K4DcUUeMITjmIH5tvxhtMGE/j0JFsGcoJB33kTOVX8
myDrDTUYj5fzU92hYRyQM71vpM2sug3FLB9+bD7jUybCuPawqvZ6MwiqPXFnqZqv
asCeuxkhpM2YVvpx7nz2p2Fs5j6cRdQy25oTIHLwysJs+/afrxPUa0DP1me2bHpf
nNXXjp8WIFZ7R6HXoOul5CeSKzje1+ZDiVIjgIc3OY1JUthJ8EzCtP/UXYPT+bjg
SQ/uYZz7Pbk5Q6rb0IglP8r9lxJuzUrWfpySGU2Wv8NkowmyYqpJ0jKc4Z0ls87O
G2XkXj5KBgG++032dWyOF88hzRWtEpceTa/JnNGBMLWoQd9ETv59/v5AMwARAQAB
zShFbGlhcyBCb25uaWNpIDxlbGlhcy5ib25uaWNpQHl1Ymljby5jb20+wsGMBBMB
CgA2FiEEwo7TdT8BtLCXobMGlIspxfHgY+0FAmPQ96gCGwEECwkIBwQVCgkIBRYC
AwEAAh4FAheAAAoJEJSLKcXx4GPtW/QP/2LP9qMtmthpIc5esM/55XOfZfMWdgfq
Owjh6A6Ou7DZjr9iezpGfgjSSJ4WaZnc1SXeZUm8yDx4Bl+NIrSfmgXmfbMvDD+s
soJGNVqcNCDJptyY/awZCvo7KRE39MTuNyTFcUcYR6fmlh3efdrKpNtnG4oMnhC6
2OrD5VwP/THbPGQUpDc5luS5zAMDFvm+FmBiC2hQy/oBNXDGuUP7r0PmnqW68Qko
XbEhUgYJP30U78cB45S//g1E/+5mTN3hYmGFVOIfc6LZNJHh4sxKdSuEb8wGV+6t
rT/60A5NXHwPbKCrHCrKaH16+4Vz8PCWWwBx4S6ytJz/mtQVbHGL6AnDyO3oMVfu
VYNHqd33RMriBCM3/J+K67d+7Dc/t363AmM1a3AXgXLtfPwxgKPm8mPfqYA0az2u
lNjkXDu143Z9ffYEKZatU5XMbufsth7e+XlYFBbMZGXASwEIKGL+aTkvcEHztmzT
t5AiQ6v146MsPcVINSF36W8NXuE1PabffVagHXvdgGzbgHQvJ0YiAJd5LnvlAny7
+/r/YU1MS3+1eEtWb3TunHFSHrBmXKynLHYx9S8t4KjyeUbN0ZmGJaVUaK+gMaj5
1tU8BenwjNWJ9LVTGL6yZG3EZC6mpTDXQwom0P2opLSJexsUDKB/jBfyJgSGe+Pz
RwZOxuGuV4zszsFNBGbys+QBEACqqsE6SsE54G5PXYiwlGTSNxZ2LO5OXTYWwaaV
vFFz0kU2+IiqRoancs0p6Mp1cGGso7ggziezfbbZU4gYFaMTHpA/myELfXkOF7Up
usgqegX1V+/pk5Sd0j3TeSwz3/aGtQHGimcshg1JnJWukp2A3OMlZczr4XeGI0Df
eTqomxHMjI2DjQkbELImk7v2x64yBHaXUzxGnQoVzz8kxkrnWveHf56ps7evABll
m5AE5BDdszQCTc037n2rBpTSwduEnIWqcraiP1e/kmnW7q/EyP++WTUxEOIa/IAQ
uXqE0OVRj/bDoOE+HyjZDzeEA/3MrwdEyvdcnZEJQ9U0m2X6On37gXRPCN+TeX5T
Dj+Y2QhAgLIT1rtj9ASHpFGVDoT5pefQGRmlr97WJGeoEwhOUpcV33UTKCDcuuaX
QsP7bFAHBCCslkBu4KJpR6+fQR/nYVdFcsDzPnBuu4/btJjtTKNxRAdxj5Trq8yo
7a4Nw6MyyVkx/yWWMvV46z3mnQchanjGN359QYNN9FupZFtWntzqNUXVxFtxuH3a
bSewgxzMKKne8F2jwKE21CZQIZMz/RtTJ3BKNum4V6MH2ya1ivuVOM+oHlmAL7av
tqwckWA9QNEzC54SNMqDQr8d2Xq6SHHSzf/i2qDJpx9oi3aa4vJMKavxUSdE6Ulm
bThF5wARAQABwsOyBBgBCAAmFiEEwo7TdT8BtLCXobMGlIspxfHgY+0FAmbys+QC
GwIFCQPCZwACQAkQlIspxfHgY+3BdCAEGQEIAB0WIQRujyhU3x7ev41zrDN0VANX
5uMv4QUCZvKz5AAKCRB0VANX5uMv4eNZD/wKYcEjA7oXQA5KAnCcqQdpJZT1XoIX
3zkzt78fV7j0n/CtcQhDeUpROLNH4o/8fFIT7cxiyDn3jIIQT9TSfEo+U1Hkb5Bb
GF+ivlgVWV6sb6c6D+pB0wFHcruDkeF751yaEsx3ELD2bP4+BJhi6QyRl6ZdDrsP
UVdf5HWoIZTldvvPia1FHU2gvz3d5JPSpRXpweIEQO3fB4d33f+JdNrXm4/Lsm8O
EmlfhU6LFOMLDU/kzuLuZx7wQoGZvAp+FVsd2xITFBf55vrzY7IkXqC1+LZ45kZT
UJRvsIYAmaI1nxIzH02HkQeoOb6+zXEmTdEm0G4sO9AF46Q4M+eGH+YGBz2NjCTN
u+5B5X7cZL0LDoUmXdudhomBv6gdVAQvigfJCgPx6uupcngCSPfspoDYq2QymX1J
4tql4gNRMJsJooSvo0FIXqqrpiz7iOEN9ZwXPHTSC6rC3iAgNmfcKHu7lozkRy+6
OumpfdMUG9LBXsB5xNmEtKIPa0qkY7rIZ7ylUmJEamJ6AF8H4wUxMHJcglJ7LXTC
pyEj9x72OQleanjAJ5QTPZOsKAMBljR4O4YtSiItmkQYj89W4kBubGgb1MjTsPDm
epv4GvHOAuuiJotJv5LkN0XF6TJKBFXnM05D1nKHQvuB32oy9IgDZQVt9cEwsPfn
/tIqHs0fFz4sG79WEACOP1MHyFdzKekSzUJ25u8Rl+dniHMLwKynVOkRJqDJma7e
rXOIbxaFhcHIy9J2eboEq5rxiI0CNG1ysbiDz5BUfLQZQ7csARFQ+vybqfP44lFT
HmrcISULPzukjEc8rKzE6INOX0P/0Sby2JacoZj5zhqiSNDJGMgLGiCbnprzujFl
qowUePmQMDs2j8jE7TFGgXNyJpoFCRbFEQCLrlg4BiI58MdxneBX1epdgS31crx4
wkIeF3aF5ugqZCJRVut+3zWOBTET/FymOByNjWV83JLr+5LjJJRyO5x+f1BTF1t5
SoyEkSGoA/t4/j6nZC6njIblATSJeZAORDDFmGGsYESF4HUh6tJr16CUKAWN1sU5
nX3h7AMxjlzbzxtEMhxGGY47iZbHkKVimIJ8p2J4IYHxwjrahLCoZS9miAXDOAWe
5eMGwjyp3xvZmyHUGxeTZx3nJ/G3hWTaPAJ35AfZNuhtv3yRRhOLpAuF3C3aVGxt
s9bfRuCmcdT5k5aU8T66xyqZCFGcEAs4PS/XsKJ0XpHaoBJr1IVJgfAuY0+o6oBW
cb3TOxuHdCFv7Sam1DI+83MwkoE/tGq/WqaRDB/vr5X6ST+MXaJyXq4FiuNmm8Yf
P3H2GTyePc+YYlWN9KyFAWEuPhqeKa/Slwhj2MJ2ONOLM5G8qgXKm0D4urVOCc7B
TQRj0PiPARAAscvGRSzn4d1cKmafB6eMMD4oqRxA90csiJ/pdJQDZrDBuWpWcRdv
dP3SNDZzMyU1QY9JrDObqGNCo7wBrtuS+dr4g178oy1MT8WDJUq87WE+YkM7T3LK
DKDrAGL3oQOBpPS4oMkwxLrL7ClWJ0Wba7tQnH92Hc9RvpqTDkDTwn2HUbKzLArd
qJsvtM6j6g47q4moIyemPUGlP9rfRQAPp7slbB7W3+g886DuRD3y7EW4XM9adMI1
y75FiyTzNtG12IPfQ/lZpoELuAY+rsoFmds4JByuz+sDrqs17dZ3C9PaB9dw75Np
1UnRvCCoXfthxd0luLtb4f/6IUQgsizFiuCsZI3uIopuUxcjtG4ffwcXCzekS8r+
3d2KlLUWgFbexTcrkSUW2LPdGiodtre8V0rtjc+Y2FlCJBDjb3S6oeOcgvqjkxy2
hWYtUWFGd4iw9SDAhXEhnpfypvFdj1uJBefRmvS8mFDS8VfR+/qmeMymDcN0uvKN
P57oVRq86uIjX2ejInsQtaqRapj8oaV1CBqmwy/drRTJSd9+Cr3fhoHhVNEkZSgV
px9DeorNU/PLdigwFlYS4yODlSrf1TMtlzs5/P/K7pxsF9aEbbmFJkQR2t8G76WR
U4c7MesUixWnjvN+IZ9yc5wb6LpmSjJhEO2SnD+JEbgJWlLd/0DkG/EAEQEAAcLB
fAQYAQoAJgIbIBYhBMKO03U/AbSwl6GzBpSLKcXx4GPtBQJlsoV1BQkDwsBmAAoJ
EJSLKcXx4GPtWb0QAK+AmFVEGTAodT5t4Z7h0BPkJJ2VYhgEJ30b8RjQfi81yphk
yeNdUvNv1LKIhci8G6sU8l8Z7DCErTyMV/ZsrKM9Hdwx0P7JXfuiIYEjRsgEbFXs
cY2l4p0sIxL2CQ9OnrzWUk4+uWYwIUByzlMey886fxR8TFbUt/WE0VumBroeELSz
k0GP3byO7NiuDoCj2a5PR82sdWgk6nB4JPq49L1ZlwSiDBI8TDNUG4DnUovvUkit
pbaatjol8ZyXtzPUwMelRcT5J8hiXP97X9BNCF3Os+fYofVDraXkBFu5glBp5dAO
6VUUKukP++Z8+hKvuRmKfuxGMcsxHeIjsJ38FRe5r37h/7egK2Blrj4nPTSJ5gba
uBkJu/K5cnsWopEKmIvy4MRyBRoyIqX50eOCJ7PHUxOoVdnBxDOAUWfuYolnJR9X
BGGuejEClHXSoRAaRKNj5vJuKbLDAKwWkNWj4d34T7fBMHJt7ieHXramZAjOJb26
aQXK0ECTtt1Hj2V5tY6bu3orCWiNQB4d40n8R4GPL2YUJwDV4iBovZNUlzqk2PwX
JeopTKec6RpMnWrsMTfWCYjnEha5o/hB1AjafDj5pDHvdXPZ7UfuWI8PYjgad11U
CqYWJjStPn091zLD7ubkXsN4uexWp8XKRmpDeXxFVuctYS/jZ1sx5v8dX1QwwsF8
BBgBCgAmFiEEwo7TdT8BtLCXobMGlIspxfHgY+0FAmPQ+I8CGyAFCQHhM4AACgkQ
lIspxfHgY+0g0g/8DFgpSfydvtv0DSpcleB8r9rralUuFKrqOBfX4SATCUhsA7TK
OtHunQ7mK5KQzI9cNQN9xc55z8D93TuwKYyMGZoD7agoNWTUpT3tYfpHyJadn+l1
TDuN8jxAHWW08OLTfwcab/JD6UFgZtosUgvp3/l3U1HUjvGQMNYXpAnBJzPuqW8B
cp7gX+DxvJ0Nnp9+cAVCFmlcpAYR948gUnyeOiYY1g7YWDqeyas4CkBXa5TN4uTX
KBJ6ctxvdNMAkW56u1eIgbTUX7LAnb/IHR3T+oG5wNlhauloJdZM8lkWzYKKHCD8
jauoAkSJ53Kpa6vVrcdh9Cks2WLSU65DziIOOUQdJXEF+ExqTTBr4GltOo+HhSiB
LaeGMqkdkZmXAqGXOsTACkKcfcw48BfHmTLxooXN0Qt9krI5qcqEHSJQGRPWR2A1
HW++ki5pA90ogLIK0bx3lPP9lnQhhpfP3GMC4G2mRXBR9OAfoPx8F9uGBUhs5zWN
PJ3Pvb3kqSOJ5mLAgHZAwYDoP9usVC5dFaw2bEdM8zZvCoF9dxHuxd3C2n77O1Ch
GdrSlAIC0eoDotXp2u0wmRitT9v1namFPvMelr81MM+GlR6YxrbcCirlF0YthJIU
kV5W5nGC/NBQ0eDXgg8w7ds3l24QZSWpF+TEt6b9SepsRFM2KZ5TTj1WGp7OwU0E
ZvK3mAEQALr81Pcm8Yyx3OMzpvNZYCv5aROOr/z48oGPLJAMspTqDaWzaalWz2do
ldjBOPiAyR7Kz/JsH2xifk5QfFeq6ZcyJGNVwD8m5Idyh9xg3NYu+XBlEQbmcz1x
WxO+/BZcmmVe+n3bQUhBkkj+QBSXlFYyInCzz2kVQZMBi/PuJzzeQfsV9JNy/okx
hFGGVkSxIEy+xiuN1F9OCaMtRgLoW3kvQxJ/kk/0pfIkTTwXyfewAN/qQ2ciV9FU
5zvPApRpmEglbMCZ3KNDt2/d6GqYZUpyJYiOEKkTnpwqdpDvVNyuc0ePF/Cnevl3
t/umMov8k3ol4H+KplIa7TrVJ+xE5faVNcxvXvLyKBY4eIbswyKz0caenXPskXl0
u3dmAbtUjDKV+utKHT4zzl6pEnhOfYCpg/itZmp7Ro13bfXigVqobNRsjHqiPy7T
XbuwQNx0tPi/pID47e1ODUSYpOzyvRBr6bGwvTNUKYjo1tBQ5lX5cncTe3LdoDk7
jIpshAPA08ATfF97fYMx+NNgz9Kb+0nTLFHNjGIXmuomZGdxaR3aV7jAcbFRuifo
yYv6vyaOjzrijvZAqSKXWqb6NIRxmS3RRkdiZsXGydqkTwL0mcii9udoXcES68ZR
Nu7UVmmrodmdpX8Wbkv8/yeeeZoIhBKBHqZPsoBN1NjZtkr4KsU9ABEBAAHCwXwE
GAEIACYWIQTCjtN1PwG0sJehswaUiynF8eBj7QUCZvK3mAIbIAUJA8JnAAAKCRCU
iynF8eBj7crKD/4vGG/x5HBl28sDE7qRVQQbmRMIFoQ038plPFuW/uX2pOhg0jWF
urKa+I7ZsGTEh5Z3gPnTPNt/E5JkgUokh07iBPp4XSwKKK0zgvbZZOpq+/GDGuD9
YsuzCw16g2UGz/iKmNMdUmf8jmR+BEWmmtmhpNKCgKfzUBsw4aNgxPz+zkYEjPUI
p4zooCuxYtBvrDh7bHbMqG1IhKZjihqQAEf314MWeZSwH1B8pB6E3XscbRq5PzBX
4ZDhtX57snjj/jJqlXsPCFQ6dEMPg9En2JiO9HtSrUB1RNLFlXMGdcRkLy9PdevR
bj+abUAYwtwANEwjOLMVkdg7imwWcPbFoRb4IjHH0uGh4RX536Uh71OMCXSQrQB/
SCK2zsM4Bf+m9RYCsDP2k8bjtzhjZYTWREgy9wfCpZRNkV6qw2lq34adsOwE596n
AvebdHWMa3o9BqgZH13Mn4HZ98JJs1evo7L9CaBdrrgy7pDXrd7E3cMrkMyfx730
3/TdkxrPcmL62DCOcBU3VdJoeJ+WXfj4npKLhOmScaLoBhGRYQMYIpvsgbiit8VC
YdoTgvrqtjX9e1fRO0OLu7wGMHT+RfkWvShoeuN8J66VRrlYsycxY0d5Sc8Mo6K3
s/7hGvlOHJk9vtmBC5uQx7+NBR4nfC930fvr36u5RyYBrjJpX4M+cHoTic7BTQRm
8rb3ARAAu85depGddkWHv1BkzT00K89TImY+NF2Ujmj4Ievn2O8oEcmxA9cSRoZx
Wjq96erV8OHZY5vah2oXY72gGxrcV47J+xOsyXHAKJar35zUq5ZdITgbuG3WM3q9
lo0bPQ/9o+KuEphY0HXfeBve7awmYRp37IsamPKcDYg4LIBqtYMEduvVGbiwj+yS
s52mVVHJiPqfIBme8uC0Vii6FYM+buFPBHAElPf/xRzQJTreGOidfYu0PNCcPqW0
3/+7Q7gt04Y4u4cK4HG4Pw9XTE4qPkkJb/KO6PATalTx0hjaWNLd8Rfy+WGBQd8c
MisZCt2LZptq1CeoKB2iP8UaRVH2y6e8CUUxDSkx0VXS0mnnQ6mpY187zCVDv6/U
EtrHDi2daqrMiiydj01flO5ZSaHefHeIJ7dYW7ylzjCtq9zFyh7SlI4XPX6G3Mkh
LuQVW1cQvMNpioJBeJd1vvscAd8nwhucNXkPX9BPtqEH0EQ7CSiy3BhvC6R4TkKk
g9/Qy6fASLFvY2pq3bP19SnrrPgqbYeprnyMGs5xCLJUg2LN0LXucgdfpTf6ed3R
07KnDYUg/Rly0TIK9j3M2PN80BMy4BkcwlBSDc4KQcagSkvMgunQcfo1aNtdYxBZ
HwsT+OH1hI+zVgVzzd3tIb8kG5ExfRVUsYemxXqq2mfpYB+U1ecAEQEAAcLBfAQY
AQgAJhYhBMKO03U/AbSwl6GzBpSLKcXx4GPtBQJm8rb3AhsMBQkDwmcAAAoJEJSL
KcXx4GPtox4P/j3y7wwaNqObF232h3Gv1WKFrEbwxtTZzw21/HPduB+xV7Q8UmKJ
s2yAaVMsCyGUCDC+JraIjOoTQqB44wFycXhyWfJv6cGjOVJbto+YfHsCCjK0mYSt
fq+BFzEb1Kj2Z8gL5klM8MqLCLjIb+9l9WOSfwsfHPsRNcYkHDxZnuIFKvF2JTpm
V34XcQjQIgOp4BLlBiB5L4GTAc6CI8wPlnUx6Bv/7FhfyH4fcESWbsbYyP3Cr1CH
eH/g/7h/PJqP53ikUuSFCjo8KtWz03prFEVSjQF1eTp81Aydk83Qhs3pnYFxKgRO
HRlMqrClysQj0P5dAcfF6TYH6IMlcjg16v/3IWRFrjmQole4T0J0xSczhNmx2lvf
28xIxBzg9ovymZEZb85z2S25T1BO2OcV7d+PrG/NF/NVnQMTyWdcZEqqMPl4hMya
/mmcKjrh0PbZm6cVfqzntD+vBcRDZCE8smeenQIxS2ckVoAwPKhxRM59ckWNAmyL
wH/sS64NR0Jh7R4XC5G2iOZ9Nx0f99xjDPnjjyia/aO53pBSbhfVPTLZFRn34jJn
H2TlZTFP2crLHueqPs9NqUFFgoD0ZGdNFr/FBNgeCnslsA6WKsMeTSXRDHxwkKGD
iB0tXrjf6mFR8Nt0GaG+gHeLN1FtQiILFGKM0SRaYzsWyHAJsNNXPxQ1zsFNBGPQ
+EABEADAOuzBHA32ZIYvp1YPAHTRBJc8PAE2njTqADqpZmvFfroiOKanoJCtyYNj
ioZ3BAuq5JNCOBfAMcr9do+PBApjin+5hb/28gtetw1SCMvImB3izga/6XeXf8It
B6m+0xgtRu03mI+yQRt9q6VYYjGUhge2RNeIlTea5QfHrMNo8LFul6xmEZVuztCY
iHmnOyzCdtIjtKO8r4dZwlqsrL+g4pjAjfDtvdcHRu9z5MmI2qrCgcHI06SHH4xt
eiaIdpBNPKUW2NzTVnB14+OG3qFDXX/0gsvQwDzphuv0ZR1tdh2tsyiSmcYyXiQF
SNJqqUhTwi/AXHQ2USwUOzpohxlMYtPTQiVYT3pqEYTdQKv8VTpPdRxmAgbrGO9/
gjWiFJK5aeHfilqXgAOlYywx39ULUH52K5F/ZFDBq2Tt1cz09xG5sYKv3zb+eG5N
KYJAERGkQoA9EPyWdBOa8kEr+1mGo9ci7ZMhd9Pihe2khaETpdnWYso+LmI9jXDI
K+Voi3lcuP0i1HxbS+bI4Ta2P7Zy9eNK6yJYDxF8WIm2xdE8YjcbVY6iky7MvPvY
RfZG4JD5d5oAYXKRuf3aBii15EO9uppg4eNTuT6R3PDMvHiAoVWtjIRmYHj1MAh0
p8JRFmKYu8K2NIag5H2SpUDJAjkYlR3JnOmCv8H0NhQQrRSnpwARAQABwsF8BBgB
CgAmAhsMFiEEwo7TdT8BtLCXobMGlIspxfHgY+0FAmWyhWUFCQPCwKUACgkQlIsp
xfHgY+1gTBAA365waRaSk1btZWZ3jInfG76k3+AvO+JObYbW3AEycJ/sWoFrNpJD
o4PF0wHaJoyIvzVtrM6oOyIipuoevm6b5cEgTpThku2QFP3jeu1FXsKzoUcQC1Kz
01VG1nl4xpNz0y+scms4I4TwJ7KCVZhrxV9ORxemYoAZ/4ORMlZ08oW0lM7EYy9D
m+0vO4vOyW/juJxYxSlZtEtCCrMJsqVZd40Mo3ZzFR2J7JDTVmwqVaMZ0z6ubauW
UsJRg6Lgm7PmCYvzP8U4NTkGQBy3ehrIIWRTplK0OjNpiQmEEgLlZ5UEI8jy31HZ
zTrac7Nn0KNYVgOd6rxepCI9u49XUF5PqB0y1m7Bw9GLpmB4bnzuXPFtGRJS3TPz
E3LplHxtZLpP9xH/Io6PEzTsN3E38N5NKbaa29Ov704+XKG6FUL5WOxx0HxTOhBv
/VehTX7YyJ/qyVFWoiy7c9k5PQEcJZE08hdGNrH2HzywCv84a9jprT+hW32tgjrt
fTQ/PE7Ewp/twSF/1Ktdt2am9HSdQq/drs33DLaskDydIGv6YDCZEQH6Nvtd/re6
5l81RC09kO0f523ifgezH94ZwlEnUQc5c3raTBTAcw/SoWCUVd6nkAm19XPBUxAJ
2ZGssone6f/Uf2cbq8ZVdZxJvm65hQw6W1BLjhUOVsXXOp5N/TfaFEDCwXwEGAEK
ACYWIQTCjtN1PwG0sJehswaUiynF8eBj7QUCY9D4QAIbDAUJAeEzgAAKCRCUiynF
8eBj7aLXD/9JWT7hg/e6DeQbrwu8f96LCjROmQfcmpuYLllH2SdThFQU2q7vJ+GL
zxDl13SCnAmNaAUTRd/eQzTFerY57p1ZKPWy+bkeMaFdYWKvptaUdqCZpDXXZ+RK
WyWiINHSDIKIokzNczrSFzBnIUUBooe6LAr+sx+wLKr88rZYQ5UhLm11uCJEPCqi
8NehWtaDzBhRA36VXuuTTXi2o1F1BtAXSn8x6qE+TDOO0wig3ee+J1nG3qj4Sy6t
GKIa5Xog7yoR/SvY9uiXTYxN0q/ctj0Z2OFWrtTqc3Cii5S+yuSaFUqPgyGqYP4c
1BvS/uD5YULSbP4kDHh3v/ZplitDqL552+WBuw0xhLksPaPufRD801Dh4883ecbd
EKjSssJ6YX3n3gDASuYNrc/a96sdvuyh01S84M99fJtanwnW6Bo/h2q0A85lDN1m
Iiods9jf4Wf5X1nq5SM8XjA7FXxGXeE8H5ebOjGUZxuYna5vShC3fs3vMuc059mu
xMhfIvvh4cm+8sbIP9DXgfo6x13hGhBpYvBm/Pdfm+M2MGy//BQhoxrwRWW5LhTx
kgVZa+53j4SYMpFtMaB6MIZXGPFl7qerXGKgi2r1OVrJoa9MiWaLi15OuNIDhOTu
GA+Dysb0ZZzy9QJlZ8gZWMLJa+9xjG5VFfh3wazFI34S8WtfblAjTM7BTQRj0Pf2
ARAA38oprNj9dbghfYnssKYbFAtwbOTm0n2N23sWlbzSJWUX1p7DFXiKGglA4c+W
y6sK70Eghki+3uicNVmSRaZlp/6fQDjRML0tHd84vX8XrwNwBXmmehHAuf5AoVCx
TF4m9MM8J7fx9f+YzFTWuPGvQvYrpH9YuyRwVOqIgN9Jr0Kx1EUoXtf6TStbgybL
hDbWvFwzfzEXLcwbxZOWLmCrlDScTcOZQksL6ul2Ewe09J4m4GqjI6G3rQtVKLcv
hmpB0RzfCOjUjm1Ot3RCw5do/LIYsroca4/C26Eezs5XHP43hfGPTaoNIqOqMapV
l/7+zvO/RgxGmxXwxI37gkP9zHhAxmUpmdSdKfeqVIkiCy+TOBozdiY7S9qBpPOF
l8K9lmgbPptFTOycVDdRVmt6DZt2rTiRcDbq6WJE0rwpP+t5BOcYerZ2jO2IBmFk
x7i5/fwNhu2qELo61lAYCUcumErpHp3qdh7hqGrY7xk1FZKdc1AD6wlz/p68lmDp
GJSMY21y3HQdm7JO930XCCGL2006cKLIBrjltiRtcYzefwYgm5XROZbsdl8ZQ0T1
LFq/x4xgpbLRJS/zDwC6IIjP1MdPp0nu1OMBbG6zz8xzi/JitZEIRTTwQpHWGGyz
HN3wU9AzsrNL/nvdpFZAcIQ2U8dDIpPFcArfz/DLP51sP38AEQEAAcLDsgQYAQoA
JgIbAhYhBMKO03U/AbSwl6GzBpSLKcXx4GPtBQJlsoUDBQkDwsCNAkAJEJSLKcXx
4GPtwXQgBBkBCgAdFiEEAQaHKWJPaelLMYLFXqwo6j+YDM8FAmPQ9/YACgkQXqwo
6j+YDM9g3A//VEdis2xTI0UJbhq48XNkpFt1K+0i3QHLwq40n1vJm2hWi1bbwgDa
EZJQA9u/VhomZrObznZy9Fo/3ViTuv3emrUom5Pg6YcMUIHu3+q13xy4+H7A/0hZ
dW5ulj3vDkmxmyUgVOWT9dUxPh0oJChAcOdgUANtD9ZvagqSYl57Xl/Zl4jC6zyT
oIIcQ/rrd6OoLkOV2FbC8c+1Rsk+VmJgFIs0Ms1sCYIHhb1DobXJkd3QvadrsMcO
1cQUYitgGT4ZE9zHzXSNUa5QgK01hORtddAtsp/FELdHsdnhJL/aMKVHK+IgNNvx
tUXJogGjlq516ooGh2Dvzw9SA0YgzpVh7+spMNBkxy7hnde0JJU2H0rk5EvwQIUC
MA7DhXYkJub3FUb0lq1IeVko68/ho5j/rbbjtZ18Y63p3RnkqYLh4Hd0y5ULy5Ag
4TYBRn7KdTNdv3/JlhHzUdyk705sg+b3BoCy5JikEI+ty+HJzMPa+CKqXbIeqULF
xMbKxxTRIXqd8XriGkdvtRSznYlEuZ1KhNP1gqgE5gmsDm1esArSG1lCRUjO4tRw
ehSvOBCg7SxB+NnSRjDpghu3DsEY74oLtIxLI7wZwmjAlede6fuSA5VPFDjudI4T
huQWTl2/XFjtHLn2t95ak8a+rAaU94vYGG0etGCDAy1ZW5b7apCT7ZuXKg//c3AU
W+jKysF3mQApV2v/INad+MGuagFJfL6YHE4pB2vq3FZecccZwnAP8AJoTTk/yE5m
A3gbcWeeI7OlsWFjSqKDfiBQAOo0AFa4W/NXRVxdsL2894LLvK/+8x5PMlQoEoyl
uN60U53vUtSnm4u3xjUJ5ff7m8NEtRNBaRVWU6DFYs8fwTAGvrmh3oQHY0GUPITw
GSedI0AHDk9yznZQ/EJEzVMZnNstzIblXyfKKOfp6U1JoHEA7DqxlVw+zPLTNNut
9s95vqYpS6j8nqV4ws1jYFCzJK/O4i/9RoE8SLVhQ5xWPhI6yL887gG6qdQ5GCyR
yo/CBSMoS2bn8ONnkkSRvgmq+FZgBkIM3VACPsPmq6buLMUPAORTgYctcnbD/UCm
ZWnPcT7z35vZ7ZNxlNljmmOHjY9IkVZrVGlkpzg+4Zt5bnWMaLQ/XdfgJDblx7Fo
tKqttbB8n3jVdVpQa78zyzJilruXkQwGXBb0mvc7yAqAWRTTxkAqX1lYvPKL8WOJ
e/vG9bpvuex/XJaGPhQSLaqAPP/eSuQB0oMXSVm/E+vWjrA/qIHBkUW35exL03gQ
X76+yDQbFKfXnQw8csKs0syl4YQQDgnCUnlsowahIlG1RUaxDT6vb1lMnxGybF8V
b3NnAeIxwOs7q6zbzdEQ7daJ2mLnqY7+X/rl09HCw7IEGAEKACYWIQTCjtN1PwG0
sJehswaUiynF8eBj7QUCY9D39gIbAgUJAeEzgAJACRCUiynF8eBj7cF0IAQZAQoA
HRYhBAEGhyliT2npSzGCxV6sKOo/mAzPBQJj0Pf2AAoJEF6sKOo/mAzPYNwP/1RH
YrNsUyNFCW4auPFzZKRbdSvtIt0By8KuNJ9byZtoVotW28IA2hGSUAPbv1YaJmaz
m852cvRaP91Yk7r93pq1KJuT4OmHDFCB7t/qtd8cuPh+wP9IWXVubpY97w5JsZsl
IFTlk/XVMT4dKCQoQHDnYFADbQ/Wb2oKkmJee15f2ZeIwus8k6CCHEP663ejqC5D
ldhWwvHPtUbJPlZiYBSLNDLNbAmCB4W9Q6G1yZHd0L2na7DHDtXEFGIrYBk+GRPc
x810jVGuUICtNYTkbXXQLbKfxRC3R7HZ4SS/2jClRyviIDTb8bVFyaIBo5audeqK
Bodg788PUgNGIM6VYe/rKTDQZMcu4Z3XtCSVNh9K5ORL8ECFAjAOw4V2JCbm9xVG
9JatSHlZKOvP4aOY/62247WdfGOt6d0Z5KmC4eB3dMuVC8uQIOE2AUZ+ynUzXb9/
yZYR81HcpO9ObIPm9waAsuSYpBCPrcvhyczD2vgiql2yHqlCxcTGyscU0SF6nfF6
4hpHb7UUs52JRLmdSoTT9YKoBOYJrA5tXrAK0htZQkVIzuLUcHoUrzgQoO0sQfjZ
0kYw6YIbtw7BGO+KC7SMSyO8GcJowJXnXun7kgOVTxQ47nSOE4bkFk5dv1xY7Ry5
9rfeWpPGvqwGlPeL2BhtHrRggwMtWVuW+2qQk+2b5eQQAJu+wEL8U/tCCoZ8rLXs
YUOq+RVwJ3H0669+oRBzPbO7pkgjvOW4hdoyrcNs7haChOUY+4wQRI3jqxu4q2kM
GXiykuEzFpqeGCONA0OF/dCRQYyiRXLqAjjCQdL1JNjA/aib/chwe887zQIz6A6U
rqEph/BpgQBCGdXJAtJGxq59EYh+nlSUB6eR5Sap7EVBydmUXZ4+lwIbfm3vQTqL
UH7hYYjGMrBWQ1NzUc9dabh+GIzN72lnw8Xdpp6DX5I69/LSWgqlfH+biu1g1Zvd
GJahGT+SBU8TTtpQbd8Ei7GpF2M3YwuQIkzQIbhrsarRmWJSXHMCHZ2je+II+yXl
l9lPqIfSC854kdxMYrLvL0mGl0tYfJ6zV/VQiDTlgFJ7hKms/oT2s+OGybn6LtLl
CS0lBQQyIUWo/WMOllgFeMTdJyLCEPdtGlvYffybHW4c5vrQ/PvF13WyzV2TsEUs
C4x1uoMaAQT6ARx5e4sRphnYF6mYHE4+l+dyLCAlikG420uwWkVhg8/WLnC3flaa
EETfDmKP0Xd70izRmLA+xqK9y1vhaUT0Nh4Z7XXldgIOaS2swPaF88aIAq7aty3u
NmuZ/XdPEQ6pujpD0vE3NGmwWL5tC6PUqEz0xXiufE2oocFMKLp4Y06GGbEQ6QcV
esNxo+S9VRZuMwUuYSplG4cW
=+Mpb
-----END PGP PUBLIC KEY BLOCK-----
-----BEGIN PGP PUBLIC KEY BLOCK-----
Comment: F475 9282 2522 9F58 4606  40EA D917 77C1 7553 3EE5
Comment: Dacav <dacav@fastmail.com>
Comment: Giovanni Simoni <giovanni.simoni@fastmail.com>

xjMEZ0V/MhYJKwYBBAHaRw8BAQdAISORv6hFCm5hu4zSeVEf4u9RLCemGYQWtdkZ
xAo8/4PNGkRhY2F2IDxkYWNhdkBmYXN0bWFpbC5jb20+wpAEExYKADgWIQT0dZKC
JSKfWEYGQOrZF3fBdVM+5QUCZ1d2FAIbAwULCQgHAwUVCgkICwUWAgMBAAIeAQIX
gAAKCRDZF3fBdVM+5ZxFAP9qCQ5dMNWaCURW91Cszi8geepjQWJPpZnKg4EcIm+3
jAD+KfkSQXDfarj0ylvCYRJPRbkRsoWVRhqMsPWXIhahDQDNLkdpb3Zhbm5pIFNp
bW9uaSA8Z2lvdmFubmkuc2ltb25pQGZhc3RtYWlsLmNvbT7CkAQTFgoAOBYhBPR1
koIlIp9YRgZA6tkXd8F1Uz7lBQJnV3XNAhsDBQsJCAcDBRUKCQgLBRYCAwEAAh4B
AheAAAoJENkXd8F1Uz7lUVgBANLBlDN1Po6/ew7ahy/pAHTboirqdmQFini2jC8d
oyufAQCnBC4oigXBjt8hjIPOQjN/Hj4sVHimwt/JOXTu//9QCM4zBGdFgeAWCSsG
AQQB2kcPAQEHQAaofKSGrw+IxlIaEX+t98aG1rUrbOLlaEy3rAZw8c0kwn4EGBYK
ACYWIQT0dZKCJSKfWEYGQOrZF3fBdVM+5QUCZ0WB4AIbIAUJA8JnAAAKCRDZF3fB
dVM+5ctbAQDwWonADTQ8ilFUmvzf9GHGrvHAEMgInvmpGB7lZIGCZAEAsuiH4zmd
Qluz+h5R1eJYaW2n7yKBEo6pCJkxDkX0tQDOMwRnRYG6FgkrBgEEAdpHDwEBB0Bi
xDWCrSBUiPaTzx3RWy8HicWn3tSTtbDQFu0GoiddPcLANQQYFgoAJhYhBPR1koIl
Ip9YRgZA6tkXd8F1Uz7lBQJnRYG6AhsCBQkDwmcAAIEJENkXd8F1Uz7ldiAEGRYK
AB0WIQTXZfeGngBuPxIzgcc2ko623kLUsQUCZ0WBugAKCRA2ko623kLUsVMPAP49
vlYXYYf8zW5xd1lvw6tivj16fdhnQUuPlELSSKL2NwEAvYsSPrlKKK/1qwjTY2Bk
ytdM6VKh7CQqPpDCu56rdAIC/QEAxNGRvwWb/thGf4jwJWR6ZZgw4RXKI2fRthX9
Fza5VMEA/A7l7QdjbHVyKAisrVKj/ixSFCgj04IqhenAt95WS1gEzjgEZ0WBzRIK
KwYBBAGXVQEFAQEHQIpqIdw9nmgsRtXJakRe5QIPTllb6gHyhsKhiPjlN4o6AwEI
B8J+BBgWCgAmFiEE9HWSgiUin1hGBkDq2Rd3wXVTPuUFAmdFgc0CGwwFCQPCZwAA
CgkQ2Rd3wXVTPuVfFAD/ftD/tHAE+NcAS02Gua/aLdKllqXvVmlKECOj7UFURBIA
/i079sBmGhRPMyi3Y7PGEuX/iSSCQsNurmHuy684S0oN
=x6qF
-----END PGP PUBLIC KEY BLOCK-----
